axelbr/cps_racecar/data/data.csv
__time,/dynamic_joint_states/header/stamp,/dynamic_joint_states/interface_values.0/values.0,/dynamic_joint_states/interface_values.0/values.1,/dynamic_joint_states/interface_values.0/values.2,/dynamic_joint_states/interface_values.0/values.3,/dynamic_joint_states/interface_values.0/values.4,/dynamic_joint_states/interface_values.0/values.5,/dynamic_joint_states/interface_values.0/values.6,/dynamic_joint_states/interface_values.0/values.7,/dynamic_joint_states/interface_values.0/values.8,/dynamic_joint_states/interface_values.0/values.9,/dynamic_joint_states/interface_values.1/values.0,/dynamic_joint_states/interface_values.2/values.0,/dynamic_joint_states/interface_values.2/values.1,/dynamic_joint_states/interface_values.2/values.2,/dynamic_joint_states/interface_values.2/values.3,/dynamic_joint_states/interface_values.2/values.4,/dynamic_joint_states/interface_values.2/values.5,/dynamic_joint_states/interface_values.2/values.6,/dynamic_joint_states/interface_values.2/values.7,/dynamic_joint_states/interface_values.2/values.8,/dynamic_joint_states/interface_values.2/values.9,/dynamic_joint_states/interface_values.3/values.0,/dynamic_joint_states/interface_values.3/values.1,/dynamic_joint_states/interface_values.3/values.2,/dynamic_joint_states/interface_values.4/values.0,/dynamic_joint_states/interface_values.4/values.1,/dynamic_joint_states/interface_values.4/values.2,Acceleration,Current (Input),Current (Motor),ERPM,Voltage
1662034738.689255,1662034738.689255,3.000000,0.000650,0.000000,0.000000,0.343700,0.000000,0.001900,99472.000000,11.900000,294344.000000,0.000000,75.302904,-0.094740,-0.529682,0.122070,1.892090,0.003155,-0.003478,-0.610847,0.366211,0.791735,0.001465,0.008301,1.021973,-8.789063,26.660156,34.863281,0.001465,0.000000,0.000000,3.000000,11.900000
1662034738.699039,1662034738.699039,3.000000,0.000650,0.000000,0.000000,0.343700,0.000000,0.001900,99472.000000,12.000000,294344.000000,0.000000,75.292187,-0.098197,-0.479506,0.122070,2.075195,0.002790,-0.003234,-0.610774,0.122070,0.791794,0.001953,0.005859,1.014160,-8.789063,26.660156,34.863281,0.001953,0.000000,0.000000,3.000000,12.000000
1662034738.699039,1662034738.699039,3.000000,0.000650,0.000000,0.000000,0.343700,0.000000,0.001900,99472.000000,12.000000,294344.000000,0.000000,75.292187,-0.098197,-0.479506,0.122070,2.075195,0.002790,-0.003234,-0.610774,0.122070,0.791794,0.001953,0.005859,1.014160,-8.789063,26.660156,34.863281,0.001953,0.000000,0.000000,3.000000,12.000000
1662034738.709085,1662034738.709085,1.000000,0.000217,0.000000,0.000000,0.343700,0.000000,0.001900,99472.000000,12.000000,294344.000000,0.000000,75.261219,-0.085297,-0.568774,0.427246,1.953125,0.003476,-0.003620,-0.610558,0.366211,0.791956,0.001465,0.013672,1.019531,-7.910156,26.953125,34.570313,0.001465,0.000000,0.000000,1.000000,12.000000
1662034738.709085,1662034738.709085,1.000000,0.000217,0.000000,0.000000,0.343700,0.000000,0.001900,99472.000000,12.000000,294344.000000,0.000000,75.261219,-0.085297,-0.568774,0.427246,1.953125,0.003476,-0.003620,-0.610558,0.366211,0.791956,0.001465,0.013672,1.019531,-7.910156,26.953125,34.570313,0.001465,0.000000,0.000000,1.000000,12.000000
1662034738.719114,1662034738.719114,2.000000,0.000433,0.000000,0.000000,0.343700,0.000000,0.001900,99472.000000,12.000000,294344.000000,0.000000,75.249874,-0.074502,-0.519841,0.244141,2.197266,0.003196,-0.003284,-0.610481,0.366211,0.792018,0.000488,0.004395,1.016602,-7.910156,26.953125,34.570313,0.000488,0.000000,0.000000,2.000000,12.000000
1662034738.719114,1662034738.719114,2.000000,0.000433,0.000000,0.000000,0.343700,0.000000,0.001900,99472.000000,12.000000,294344.000000,0.000000,75.249874,-0.074502,-0.519841,0.244141,2.197266,0.003196,-0.003284,-0.610481,0.366211,0.792018,0.000488,0.004395,1.016602,-7.910156,26.953125,34.570313,0.000488,0.000000,0.000000,2.000000,12.000000
1662034738.729081,1662034738.729081,2.000000,0.000433,0.000000,0.000000,0.343700,0.000000,0.001900,99472.000000,12.000000,294344.000000,0.000000,75.229910,-0.123955,-0.498128,0.854492,1.892090,0.002783,-0.003510,-0.610342,0.549316,0.792125,0.004395,0.010254,1.021973,-7.910156,26.953125,34.570313,0.004395,0.000000,0.000000,2.000000,12.000000
1662034738.729081,1662034738.729081,2.000000,0.000433,0.000000,0.000000,0.343700,0.000000,0.001900,99472.000000,12.000000,294344.000000,0.000000,75.229910,-0.123955,-0.498128,0.854492,1.892090,0.002783,-0.003510,-0.610342,0.549316,0.792125,0.004395,0.010254,1.021973,-7.910156,26.953125,34.570313,0.004395,0.000000,0.000000,2.000000,12.000000
1662034738.739105,1662034738.739105,1.000000,0.000217,0.000000,0.000000,0.343700,0.000000,0.001900,99472.000000,11.900000,294344.000000,0.000000,75.200246,-0.154577,-0.510399,0.244141,1.831055,0.002706,-0.003786,-0.610135,0.488281,0.792284,0.002930,0.008789,1.021973,-7.910156,26.953125,34.570313,0.002930,0.000000,0.000000,1.000000,11.900000
1662034738.739105,1662034738.739105,1.000000,0.000217,0.000000,0.000000,0.343700,0.000000,0.001900,99472.000000,11.900000,294344.000000,0.000000,75.200246,-0.154577,-0.510399,0.244141,1.831055,0.002706,-0.003786,-0.610135,0.488281,0.792284,0.002930,0.008789,1.021973,-7.910156,26.953125,34.570313,0.002930,0.000000,0.000000,1.000000,11.900000
1662034738.749229,1662034738.749229,2.000000,0.000433,0.000000,0.000000,0.343700,0.000000,0.001900,99472.000000,12.000000,294344.000000,0.000000,75.190424,-0.177122,-0.468930,0.671387,1.892090,0.002299,-0.003721,-0.610068,0.244141,0.792337,0.003418,0.007813,1.019043,-7.910156,26.953125,34.570313,0.003418,0.000000,0.000000,2.000000,12.000000
1662034738.749229,1662034738.749229,2.000000,0.000433,0.000000,0.000000,0.343700,0.000000,0.001900,99472.000000,12.000000,294344.000000,0.000000,75.190424,-0.177122,-0.468930,0.671387,1.892090,0.002299,-0.003721,-0.610068,0.244141,0.792337,0.003418,0.007813,1.019043,-7.910156,26.953125,34.570313,0.003418,0.000000,0.000000,2.000000,12.000000
1662034738.759059,1662034738.759059,2.000000,0.000433,0.000000,0.000000,0.343700,0.000000,0.001900,99472.000000,12.000000,294344.000000,0.000000,75.169551,-0.182687,-0.491075,0.427246,1.953125,0.002424,-0.003877,-0.609923,0.244141,0.792448,0.004395,0.007324,1.009766,-7.910156,26.953125,34.570313,0.004395,0.000000,0.000000,2.000000,12.000000
1662034738.759059,1662034738.759059,2.000000,0.000433,0.000000,0.000000,0.343700,0.000000,0.001900,99472.000000,12.000000,294344.000000,0.000000,75.169551,-0.182687,-0.491075,0.427246,1.953125,0.002424,-0.003877,-0.609923,0.244141,0.792448,0.004395,0.007324,1.009766,-7.910156,26.953125,34.570313,0.004395,0.000000,0.000000,2.000000,12.000000
1662034738.769059,1662034738.769059,1.000000,0.000217,0.000000,0.000000,0.343700,0.000000,0.001900,99472.000000,12.000000,294344.000000,0.000000,75.138255,-0.211943,-0.508897,0.549316,1.831055,0.002392,-0.004174,-0.609705,0.305176,0.792614,0.005371,0.008789,1.018066,-9.082031,26.953125,34.863281,0.005371,0.000000,0.000000,1.000000,12.000000
1662034738.769059,1662034738.769059,1.000000,0.000217,0.000000,0.000000,0.343700,0.000000,0.001900,99472.000000,12.000000,294344.000000,0.000000,75.138255,-0.211943,-0.508897,0.549316,1.831055,0.002392,-0.004174,-0.609705,0.305176,0.792614,0.005371,0.008789,1.018066,-9.082031,26.953125,34.863281,0.005371,0.000000,0.000000,1.000000,12.000000
1662034738.779049,1662034738.779049,0.000000,0.000000,0.000000,0.000000,0.343700,0.000000,0.001900,99472.000000,11.900000,294344.000000,0.000000,75.127177,-0.194817,-0.559777,0.671387,2.197266,0.002836,-0.004326,-0.609627,-0.122070,0.792672,0.002930,0.011230,1.016113,-9.082031,26.953125,34.863281,0.002930,0.000000,0.000000,0.000000,11.900000
1662034738.779049,1662034738.779049,0.000000,0.000000,0.000000,0.000000,0.343700,0.000000,0.001900,99472.000000,11.900000,294344.000000,0.000000,75.127177,-0.194817,-0.559777,0.671387,2.197266,0.002836,-0.004326,-0.609627,-0.122070,0.792672,0.002930,0.011230,1.016113,-9.082031,26.953125,34.863281,0.002930,0.000000,0.000000,0.000000,11.900000
1662034738.789202,1662034738.789202,0.000000,0.000000,0.000000,0.000000,0.343700,0.000000,0.001900,99472.000000,12.000000,294344.000000,0.000000,75.104746,-0.233635,-0.627488,0.305176,2.319336,0.003099,-0.004954,-0.609467,0.366211,0.792790,0.003418,0.014160,1.023926,-9.082031,26.953125,34.863281,0.003418,0.000000,0.000000,0.000000,12.000000
1662034738.789202,1662034738.789202,0.000000,0.000000,0.000000,0.000000,0.343700,0.000000,0.001900,99472.000000,12.000000,294344.000000,0.000000,75.104746,-0.233635,-0.627488,0.305176,2.319336,0.003099,-0.004954,-0.609467,0.366211,0.792790,0.003418,0.014160,1.023926,-9.082031,26.953125,34.863281,0.003418,0.000000,0.000000,0.000000,12.000000
1662034738.799055,1662034738.799055,0.000000,0.000000,0.000000,0.000000,0.343700,0.000000,0.001900,99472.000000,12.000000,294344.000000,0.000000,75.083170,-0.239154,-0.536059,0.732422,2.014160,0.002438,-0.004505,-0.609321,0.427246,0.792907,0.002930,0.005859,1.023926,-9.082031,26.953125,34.863281,0.002930,0.000000,0.000000,0.000000,12.000000
1662034738.799055,1662034738.799055,0.000000,0.000000,0.000000,0.000000,0.343700,0.000000,0.001900,99472.000000,12.000000,294344.000000,0.000000,75.083170,-0.239154,-0.536059,0.732422,2.014160,0.002438,-0.004505,-0.609321,0.427246,0.792907,0.002930,0.005859,1.023926,-9.082031,26.953125,34.863281,0.002930,0.000000,0.000000,0.000000,12.000000
1662034738.809040,1662034738.809040,-1.000000,-0.000217,0.000000,0.000000,0.343700,0.000000,0.001900,99472.000000,12.000000,294344.000000,0.000000,75.052140,-0.191134,-0.515463,0.183105,2.014160,0.002551,-0.004063,-0.609109,0.366211,0.793072,0.005371,0.007324,1.020508,-8.789063,26.367188,34.863281,0.005371,0.000000,0.000000,-1.000000,12.000000
1662034738.809040,1662034738.809040,-1.000000,-0.000217,0.000000,0.000000,0.343700,0.000000,0.001900,99472.000000,12.000000,294344.000000,0.000000,75.052140,-0.191134,-0.515463,0.183105,2.014160,0.002551,-0.004063,-0.609109,0.366211,0.793072,0.005371,0.007324,1.020508,-8.789063,26.367188,34.863281,0.005371,0.000000,0.000000,-1.000000,12.000000
1662034738.819067,1662034738.819067,-2.000000,-0.000433,0.000000,0.000000,0.343700,0.000000,0.001900,99472.000000,12.000000,294344.000000,0.000000,75.029464,-0.194868,-0.440555,0.610352,2.075195,0.002014,-0.003690,-0.608955,0.244141,0.793194,0.001953,0.005371,1.016113,-8.789063,26.367188,34.863281,0.001953,0.000000,0.000000,-2.000000,12.000000
1662034738.819067,1662034738.819067,-2.000000,-0.000433,0.000000,0.000000,0.343700,0.000000,0.001900,99472.000000,12.000000,294344.000000,0.000000,75.029464,-0.194868,-0.440555,0.610352,2.075195,0.002014,-0.003690,-0.608955,0.244141,0.793194,0.001953,0.005371,1.016113,-8.789063,26.367188,34.863281,0.001953,0.000000,0.000000,-2.000000,12.000000
1662034738.829057,1662034738.829057,0.000000,0.000000,0.000000,0.000000,0.343700,0.000000,0.001900,99472.000000,12.000000,294344.000000,0.000000,75.020127,-0.180050,-0.395194,0.793457,1.770020,0.001779,-0.003346,-0.608892,0.305176,0.793244,0.002930,0.005859,1.015625,-8.789063,26.367188,34.863281,0.002930,0.000000,0.000000,0.000000,12.000000
1662034738.829057,1662034738.829057,0.000000,0.000000,0.000000,0.000000,0.343700,0.000000,0.001900,99472.000000,12.000000,294344.000000,0.000000,75.020127,-0.180050,-0.395194,0.793457,1.770020,0.001779,-0.003346,-0.608892,0.305176,0.793244,0.002930,0.005859,1.015625,-8.789063,26.367188,34.863281,0.002930,0.000000,0.000000,0.000000,12.000000
1662034738.839126,1662034738.839126,0.000000,0.000000,0.000000,0.000000,0.343700,0.000000,0.001900,99472.000000,11.900000,294344.000000,0.000000,74.998598,-0.174341,-0.495993,0.244141,2.075195,0.002508,-0.003842,-0.608740,0.244141,0.793356,0.004883,0.013184,1.017090,-8.789063,26.367188,34.863281,0.004883,0.000000,0.000000,0.000000,11.900000
1662034738.839126,1662034738.839126,0.000000,0.000000,0.000000,0.000000,0.343700,0.000000,0.001900,99472.000000,11.900000,294344.000000,0.000000,74.998598,-0.174341,-0.495993,0.244141,2.075195,0.002508,-0.003842,-0.608740,0.244141,0.793356,0.004883,0.013184,1.017090,-8.789063,26.367188,34.863281,0.004883,0.000000,0.000000,0.000000,11.900000
1662034738.849072,1662034738.849072,0.000000,0.000000,0.000000,0.000000,0.343700,0.000000,0.001900,99472.000000,12.000000,294344.000000,0.000000,74.979501,-0.206468,-0.504893,0.732422,1.586914,0.002399,-0.004111,-0.608606,0.000000,0.793458,0.004883,0.003418,1.022949,-8.789063,26.367188,34.863281,0.004883,0.000000,0.000000,0.000000,12.000000
1662034738.849072,1662034738.849072,0.000000,0.000000,0.000000,0.000000,0.343700,0.000000,0.001900,99472.000000,12.000000,294344.000000,0.000000,74.979501,-0.206468,-0.504893,0.732422,1.586914,0.002399,-0.004111,-0.608606,0.000000,0.793458,0.004883,0.003418,1.022949,-8.789063,26.367188,34.863281,0.004883,0.000000,0.000000,0.000000,12.000000
1662034738.859056,1662034738.859056,-2.000000,-0.000433,0.000000,0.000000,0.343700,0.000000,0.001900,99472.000000,12.000000,294344.000000,0.000000,74.957617,-0.173617,-0.490152,0.732422,2.136230,0.002473,-0.003805,-0.608457,0.366211,0.793574,-0.001465,0.013184,1.016602,-8.789063,26.367188,34.863281,-0.001465,0.000000,0.000000,-2.000000,12.000000
1662034738.859056,1662034738.859056,-2.000000,-0.000433,0.000000,0.000000,0.343700,0.000000,0.001900,99472.000000,12.000000,294344.000000,0.000000,74.957617,-0.173617,-0.490152,0.732422,2.136230,0.002473,-0.003805,-0.608457,0.366211,0.793574,-0.001465,0.013184,1.016602,-8.789063,26.367188,34.863281,-0.001465,0.000000,0.000000,-2.000000,12.000000
1662034738.869100,1662034738.869100,-4.000000,-0.000867,0.000000,0.000000,0.343700,0.000000,0.001900,99472.000000,11.900000,294344.000000,0.000000,74.928432,-0.194303,-0.597194,0.305176,1.892090,0.003105,-0.004516,-0.608250,0.488281,0.793727,0.003906,0.013184,1.017578,-9.082031,26.953125,34.570313,0.003906,0.000000,0.000000,-4.000000,11.900000
1662034738.869100,1662034738.869100,-4.000000,-0.000867,0.000000,0.000000,0.343700,0.000000,0.001900,99472.000000,11.900000,294344.000000,0.000000,74.928432,-0.194303,-0.597194,0.305176,1.892090,0.003105,-0.004516,-0.608250,0.488281,0.793727,0.003906,0.013184,1.017578,-9.082031,26.953125,34.570313,0.003906,0.000000,0.000000,-4.000000,11.900000
1662034738.879072,1662034738.879072,-4.000000,-0.000867,0.000000,0.000000,0.343700,0.000000,0.001900,99472.000000,11.900000,294344.000000,0.000000,74.918583,-0.165618,-0.558400,0.732422,1.892090,0.002989,-0.004111,-0.608184,0.244141,0.793780,0.001953,0.008301,1.019043,-9.082031,26.953125,34.570313,0.001953,0.000000,0.000000,-4.000000,11.900000
1662034738.879072,1662034738.879072,-4.000000,-0.000867,0.000000,0.000000,0.343700,0.000000,0.001900,99472.000000,11.900000,294344.000000,0.000000,74.918583,-0.165618,-0.558400,0.732422,1.892090,0.002989,-0.004111,-0.608184,0.244141,0.793780,0.001953,0.008301,1.019043,-9.082031,26.953125,34.570313,0.001953,0.000000,0.000000,-4.000000,11.900000
1662034738.889129,1662034738.889129,-1.000000,-0.000217,0.000000,0.000000,0.343700,0.000000,0.001900,99472.000000,12.000000,294344.000000,0.000000,74.898673,-0.140592,-0.654055,0.183105,2.014160,0.003785,-0.004445,-0.608044,0.305176,0.793882,0.000488,0.014160,1.019531,-9.082031,26.953125,34.570313,0.000488,0.000000,0.000000,-1.000000,12.000000
1662034738.889129,1662034738.889129,-1.000000,-0.000217,0.000000,0.000000,0.343700,0.000000,0.001900,99472.000000,12.000000,294344.000000,0.000000,74.898673,-0.140592,-0.654055,0.183105,2.014160,0.003785,-0.004445,-0.608044,0.305176,0.793882,0.000488,0.014160,1.019531,-9.082031,26.953125,34.570313,0.000488,0.000000,0.000000,-1.000000,12.000000
1662034738.899006,1662034738.899006,0.000000,0.000000,0.000000,0.000000,0.343700,0.000000,0.001900,99472.000000,11.900000,294344.000000,0.000000,74.878401,-0.133958,-0.557815,0.732422,2.136230,0.003154,-0.003887,-0.607907,0.061035,0.793992,0.000977,0.004395,1.016602,-9.082031,26.953125,34.570313,0.000977,0.000000,0.000000,0.000000,11.900000
1662034738.899006,1662034738.899006,0.000000,0.000000,0.000000,0.000000,0.343700,0.000000,0.001900,99472.000000,11.900000,294344.000000,0.000000,74.878401,-0.133958,-0.557815,0.732422,2.136230,0.003154,-0.003887,-0.607907,0.061035,0.793992,0.000977,0.004395,1.016602,-9.082031,26.953125,34.570313,0.000977,0.000000,0.000000,0.000000,11.900000
1662034738.909028,1662034738.909028,0.000000,0.000000,0.000000,0.000000,0.343700,0.000000,0.001900,99472.000000,11.900000,294344.000000,0.000000,74.855895,-0.133760,-0.579521,0.488281,2.075195,0.003307,-0.004001,-0.607750,0.366211,0.794111,0.002930,0.009766,1.013184,-9.082031,26.953125,34.570313,0.002930,0.000000,0.000000,0.000000,11.900000
1662034738.909028,1662034738.909028,0.000000,0.000000,0.000000,0.000000,0.343700,0.000000,0.001900,99472.000000,11.900000,294344.000000,0.000000,74.855895,-0.133760,-0.579521,0.488281,2.075195,0.003307,-0.004001,-0.607750,0.366211,0.794111,0.002930,0.009766,1.013184,-9.082031,26.953125,34.570313,0.002930,0.000000,0.000000,0.000000,11.900000
1662034738.918998,1662034738.918998,0.000000,0.000000,0.000000,0.000000,0.343700,0.000000,0.001900,99472.000000,12.000000,294344.000000,0.000000,74.836265,-0.096849,-0.602626,-0.061035,1.770020,0.003663,-0.003867,-0.607615,0.305176,0.794214,0.003418,0.014648,1.014648,-8.789063,26.660156,34.277344,0.003418,0.000000,0.000000,0.000000,12.000000
1662034738.918998,1662034738.918998,0.000000,0.000000,0.000000,0.000000,0.343700,0.000000,0.001900,99472.000000,12.000000,294344.000000,0.000000,74.836265,-0.096849,-0.602626,-0.061035,1.770020,0.003663,-0.003867,-0.607615,0.305176,0.794214,0.003418,0.014648,1.014648,-8.789063,26.660156,34.277344,0.003418,0.000000,0.000000,0.000000,12.000000
1662034738.929069,1662034738.929069,0.000000,0.000000,0.000000,0.000000,0.343700,0.000000,0.001900,99472.000000,11.900000,294344.000000,0.000000,74.807517,-0.098429,-0.612335,0.488281,1.892090,0.003723,-0.003928,-0.607415,0.427246,0.794366,0.001953,0.012207,1.012695,-8.789063,26.660156,34.277344,0.001953,0.000000,0.000000,0.000000,11.900000
1662034738.929069,1662034738.929069,0.000000,0.000000,0.000000,0.000000,0.343700,0.000000,0.001900,99472.000000,11.900000,294344.000000,0.000000,74.807517,-0.098429,-0.612335,0.488281,1.892090,0.003723,-0.003928,-0.607415,0.427246,0.794366,0.001953,0.012207,1.012695,-8.789063,26.660156,34.277344,0.001953,0.000000,0.000000,0.000000,11.900000
1662034738.939050,1662034738.939050,-1.000000,-0.000217,0.000000,0.000000,0.343700,0.000000,0.001900,99472.000000,12.000000,294344.000000,0.000000,74.788195,-0.149906,-0.694327,0.000000,1.831055,0.004019,-0.004719,-0.607276,0.366211,0.794467,0.003906,0.013184,1.012207,-8.789063,26.660156,34.277344,0.003906,0.000000,0.000000,-1.000000,12.000000
1662034738.939050,1662034738.939050,-1.000000,-0.000217,0.000000,0.000000,0.343700,0.000000,0.001900,99472.000000,12.000000,294344.000000,0.000000,74.788195,-0.149906,-0.694327,0.000000,1.831055,0.004019,-0.004719,-0.607276,0.366211,0.794467,0.003906,0.013184,1.012207,-8.789063,26.660156,34.277344,0.003906,0.000000,0.000000,-1.000000,12.000000
1662034738.949035,1662034738.949035,-2.000000,-0.000433,0.000000,0.000000,0.343700,0.000000,0.001900,99472.000000,12.000000,294344.000000,0.000000,74.778578,-0.188967,-0.666555,0.732422,1.831055,0.003620,-0.004842,-0.607209,0.366211,0.794519,0.005371,0.010254,1.018555,-8.789063,26.660156,34.277344,0.005371,0.000000,0.000000,-2.000000,12.000000
1662034738.949035,1662034738.949035,-2.000000,-0.000433,0.000000,0.000000,0.343700,0.000000,0.001900,99472.000000,12.000000,294344.000000,0.000000,74.778578,-0.188967,-0.666555,0.732422,1.831055,0.003620,-0.004842,-0.607209,0.366211,0.794519,0.005371,0.010254,1.018555,-8.789063,26.660156,34.277344,0.005371,0.000000,0.000000,-2.000000,12.000000
1662034738.959023,1662034738.959023,-1.000000,-0.000217,0.000000,0.000000,0.343700,0.000000,0.001900,99472.000000,11.900000,294344.000000,0.000000,74.749058,-0.149554,-0.639665,0.061035,2.014160,0.003644,-0.004426,-0.607007,0.427246,0.794676,0.001953,0.012695,1.015137,-9.082031,26.953125,34.570313,0.001953,0.000000,0.000000,-1.000000,11.900000
1662034738.959023,1662034738.959023,-1.000000,-0.000217,0.000000,0.000000,0.343700,0.000000,0.001900,99472.000000,11.900000,294344.000000,0.000000,74.749058,-0.149554,-0.639665,0.061035,2.014160,0.003644,-0.004426,-0.607007,0.427246,0.794676,0.001953,0.012695,1.015137,-9.082031,26.953125,34.570313,0.001953,0.000000,0.000000,-1.000000,11.900000
1662034738.969004,1662034738.969004,-1.000000,-0.000217,0.000000,0.000000,0.343700,0.000000,0.001900,99472.000000,11.900000,294344.000000,0.000000,74.728738,-0.151631,-0.548466,0.549316,1.831055,0.003001,-0.003956,-0.606869,0.122070,0.794786,0.002930,0.009277,1.021973,-9.082031,26.953125,34.570313,0.002930,0.000000,0.000000,-1.000000,11.900000
1662034738.969004,1662034738.969004,-1.000000,-0.000217,0.000000,0.000000,0.343700,0.000000,0.001900,99472.000000,11.900000,294344.000000,0.000000,74.728738,-0.151631,-0.548466,0.549316,1.831055,0.003001,-0.003956,-0.606869,0.122070,0.794786,0.002930,0.009277,1.021973,-9.082031,26.953125,34.570313,0.002930,0.000000,0.000000,-1.000000,11.900000
1662034738.979041,1662034738.979041,-1.000000,-0.000217,0.000000,0.000000,0.343700,0.000000,0.001900,99472.000000,11.900000,294344.000000,0.000000,74.718882,-0.102538,-0.536957,0.732422,1.892090,0.003182,-0.003555,-0.606803,0.061035,0.794838,-0.001953,0.008301,1.019043,-9.082031,26.953125,34.570313,-0.001953,0.000000,0.000000,-1.000000,11.900000
1662034738.979041,1662034738.979041,-1.000000,-0.000217,0.000000,0.000000,0.343700,0.000000,0.001900,99472.000000,11.900000,294344.000000,0.000000,74.718882,-0.102538,-0.536957,0.732422,1.892090,0.003182,-0.003555,-0.606803,0.061035,0.794838,-0.001953,0.008301,1.019043,-9.082031,26.953125,34.570313,-0.001953,0.000000,0.000000,-1.000000,11.900000
1662034738.989010,1662034738.989010,0.000000,0.000000,0.000000,0.000000,0.343700,0.000000,0.001900,99472.000000,11.900000,294344.000000,0.000000,74.696137,-0.005809,-0.584407,0.427246,2.014160,0.004023,-0.003134,-0.606647,0.732422,0.794955,0.000488,0.010254,1.012207,-9.082031,26.953125,34.570313,0.000488,0.000000,0.000000,0.000000,11.900000
1662034738.989010,1662034738.989010,0.000000,0.000000,0.000000,0.000000,0.343700,0.000000,0.001900,99472.000000,11.900000,294344.000000,0.000000,74.696137,-0.005809,-0.584407,0.427246,2.014160,0.004023,-0.003134,-0.606647,0.732422,0.794955,0.000488,0.010254,1.012207,-9.082031,26.953125,34.570313,0.000488,0.000000,0.000000,0.000000,11.900000
1662034738.998971,1662034738.998971,0.000000,0.000000,0.000000,0.000000,0.343700,0.000000,0.001900,99472.000000,12.000000,294344.000000,0.000000,74.665087,-0.093542,-0.493275,0.671387,2.075195,0.002928,-0.003260,-0.606431,0.061035,0.795124,0.002441,0.008301,1.014160,-9.082031,26.953125,34.570313,0.002441,0.000000,0.000000,0.000000,12.000000
1662034738.998971,1662034738.998971,0.000000,0.000000,0.000000,0.000000,0.343700,0.000000,0.001900,99472.000000,12.000000,294344.000000,0.000000,74.665087,-0.093542,-0.493275,0.671387,2.075195,0.002928,-0.003260,-0.606431,0.061035,0.795124,0.002441,0.008301,1.014160,-9.082031,26.953125,34.570313,0.002441,0.000000,0.000000,0.000000,12.000000
1662034739.009018,1662034739.009018,0.000000,0.000000,0.000000,0.000000,0.343700,0.000000,0.001900,99472.000000,12.000000,294344.000000,0.000000,74.653592,-0.105519,-0.545598,0.671387,2.258301,0.003228,-0.003619,-0.606350,0.427246,0.795183,0.002930,0.013184,1.021484,-9.082031,26.953125,34.570313,0.002930,0.000000,0.000000,0.000000,12.000000
1662034739.009018,1662034739.009018,0.000000,0.000000,0.000000,0.000000,0.343700,0.000000,0.001900,99472.000000,12.000000,294344.000000,0.000000,74.653592,-0.105519,-0.545598,0.671387,2.258301,0.003228,-0.003619,-0.606350,0.427246,0.795183,0.002930,0.013184,1.021484,-9.082031,26.953125,34.570313,0.002930,0.000000,0.000000,0.000000,12.000000
1662034739.019012,1662034739.019012,-1.000000,-0.000217,0.000000,0.000000,0.343700,0.000000,0.001900,99472.000000,12.000000,294344.000000,0.000000,74.622890,-0.119978,-0.562674,0.488281,1.831055,0.003271,-0.003809,-0.606136,0.183105,0.795345,0.005371,0.009766,1.022949,-8.496094,26.660156,34.570313,0.005371,0.000000,0.000000,-1.000000,12.000000
1662034739.019012,1662034739.019012,-1.000000,-0.000217,0.000000,0.000000,0.343700,0.000000,0.001900,99472.000000,12.000000,294344.000000,0.000000,74.622890,-0.119978,-0.562674,0.488281,1.831055,0.003271,-0.003809,-0.606136,0.183105,0.795345,0.005371,0.009766,1.022949,-8.496094,26.660156,34.570313,0.005371,0.000000,0.000000,-1.000000,12.000000
1662034739.029016,1662034739.029016,-1.000000,-0.000217,0.000000,0.000000,0.343700,0.000000,0.001900,99472.000000,12.000000,294344.000000,0.000000,74.601498,-0.095397,-0.608635,0.427246,2.197266,0.003720,-0.003881,-0.605987,0.610352,0.795457,0.003418,0.013184,1.015137,-8.496094,26.660156,34.570313,0.003418,0.000000,0.000000,-1.000000,12.000000
1662034739.029016,1662034739.029016,-1.000000,-0.000217,0.000000,0.000000,0.343700,0.000000,0.001900,99472.000000,12.000000,294344.000000,0.000000,74.601498,-0.095397,-0.608635,0.427246,2.197266,0.003720,-0.003881,-0.605987,0.610352,0.795457,0.003418,0.013184,1.015137,-8.496094,26.660156,34.570313,0.003418,0.000000,0.000000,-1.000000,12.000000
1662034739.039085,1662034739.039085,0.000000,0.000000,0.000000,0.000000,0.343700,0.000000,0.001900,99472.000000,12.000000,294344.000000,0.000000,74.591273,-0.133457,-0.578647,0.183105,1.953125,0.003311,-0.003986,-0.605915,0.610352,0.795513,0.002441,0.010254,1.018066,-8.496094,26.660156,34.570313,0.002441,0.000000,0.000000,0.000000,12.000000
1662034739.039085,1662034739.039085,0.000000,0.000000,0.000000,0.000000,0.343700,0.000000,0.001900,99472.000000,12.000000,294344.000000,0.000000,74.591273,-0.133457,-0.578647,0.183105,1.953125,0.003311,-0.003986,-0.605915,0.610352,0.795513,0.002441,0.010254,1.018066,-8.496094,26.660156,34.570313,0.002441,0.000000,0.000000,0.000000,12.000000
1662034739.049031,1662034739.049031,0.000000,0.000000,0.000000,0.000000,0.343700,0.000000,0.001900,99472.000000,12.000000,294344.000000,0.000000,74.558700,-0.117502,-0.541411,0.610352,2.014160,0.003138,-0.003678,-0.605691,0.244141,0.795686,0.001953,0.007324,1.012207,-8.496094,26.660156,34.570313,0.001953,0.000000,0.000000,0.000000,12.000000
1662034739.049031,1662034739.049031,0.000000,0.000000,0.000000,0.000000,0.343700,0.000000,0.001900,99472.000000,12.000000,294344.000000,0.000000,74.558700,-0.117502,-0.541411,0.610352,2.014160,0.003138,-0.003678,-0.605691,0.244141,0.795686,0.001953,0.007324,1.012207,-8.496094,26.660156,34.570313,0.001953,0.000000,0.000000,0.000000,12.000000
1662034739.059091,1662034739.059091,-1.000000,-0.000217,0.000000,0.000000,0.343700,0.000000,0.001900,99472.000000,11.900000,294344.000000,0.000000,74.548639,-0.066568,-0.555444,0.732422,1.953125,0.003505,-0.003398,-0.605622,0.183105,0.795737,-0.000977,0.010254,1.018555,-8.496094,26.660156,34.570313,-0.000977,0.000000,0.000000,-1.000000,11.900000
1662034739.059091,1662034739.059091,-1.000000,-0.000217,0.000000,0.000000,0.343700,0.000000,0.001900,99472.000000,11.900000,294344.000000,0.000000,74.548639,-0.066568,-0.555444,0.732422,1.953125,0.003505,-0.003398,-0.605622,0.183105,0.795737,-0.000977,0.010254,1.018555,-8.496094,26.660156,34.570313,-0.000977,0.000000,0.000000,-1.000000,11.900000
1662034739.069004,1662034739.069004,0.000000,0.000000,0.000000,0.000000,0.343700,0.000000,0.001900,99472.000000,12.000000,294344.000000,0.000000,74.516298,-0.077716,-0.518530,0.488281,2.075195,0.003191,-0.003279,-0.605398,0.244141,0.795910,0.001953,0.007813,1.015137,-8.496094,26.660156,34.863281,0.001953,0.000000,0.000000,0.000000,12.000000
1662034739.069004,1662034739.069004,0.000000,0.000000,0.000000,0.000000,0.343700,0.000000,0.001900,99472.000000,12.000000,294344.000000,0.000000,74.516298,-0.077716,-0.518530,0.488281,2.075195,0.003191,-0.003279,-0.605398,0.244141,0.795910,0.001953,0.007813,1.015137,-8.496094,26.660156,34.863281,0.001953,0.000000,0.000000,0.000000,12.000000
1662034739.079041,1662034739.079041,0.000000,0.000000,0.000000,0.000000,0.343700,0.000000,0.001900,99472.000000,11.900000,294344.000000,0.000000,74.506272,-0.126258,-0.533911,0.732422,1.953125,0.003042,-0.003697,-0.605327,0.244141,0.795963,0.005859,0.010254,1.017090,-8.496094,26.660156,34.863281,0.005859,0.000000,0.000000,0.000000,11.900000
1662034739.079041,1662034739.079041,0.000000,0.000000,0.000000,0.000000,0.343700,0.000000,0.001900,99472.000000,11.900000,294344.000000,0.000000,74.506272,-0.126258,-0.533911,0.732422,1.953125,0.003042,-0.003697,-0.605327,0.244141,0.795963,0.005859,0.010254,1.017090,-8.496094,26.660156,34.863281,0.005859,0.000000,0.000000,0.000000,11.900000
1662034739.089014,1662034739.089014,0.000000,0.000000,0.000000,0.000000,0.343700,0.000000,0.001900,99472.000000,11.900000,294344.000000,0.000000,74.484661,-0.085933,-0.631102,0.061035,2.136230,0.003930,-0.003930,-0.605175,0.610352,0.796073,0.001465,0.012695,1.016113,-8.496094,26.660156,34.863281,0.001465,0.000000,0.000000,0.000000,11.900000
1662034739.089014,1662034739.089014,0.000000,0.000000,0.000000,0.000000,0.343700,0.000000,0.001900,99472.000000,11.900000,294344.000000,0.000000,74.484661,-0.085933,-0.631102,0.061035,2.136230,0.003930,-0.003930,-0.605175,0.610352,0.796073,0.001465,0.012695,1.016113,-8.496094,26.660156,34.863281,0.001465,0.000000,0.000000,0.000000,11.900000
1662034739.099043,1662034739.099043,0.000000,0.000000,0.000000,0.000000,0.343700,0.000000,0.001900,99472.000000,11.900000,294344.000000,0.000000,74.462080,-0.144738,-0.571206,0.488281,2.136230,0.003205,-0.004022,-0.605018,0.183105,0.796196,0.004395,0.009766,1.019043,-8.496094,26.660156,34.863281,0.004395,0.000000,0.000000,0.000000,11.900000
1662034739.099043,1662034739.099043,0.000000,0.000000,0.000000,0.000000,0.343700,0.000000,0.001900,99472.000000,11.900000,294344.000000,0.000000,74.462080,-0.144738,-0.571206,0.488281,2.136230,0.003205,-0.004022,-0.605018,0.183105,0.796196,0.004395,0.009766,1.019043,-8.496094,26.660156,34.863281,0.004395,0.000000,0.000000,0.000000,11.900000
1662034739.109017,1662034739.109017,0.000000,0.000000,0.000000,0.000000,0.343700,0.000000,0.001900,99472.000000,11.900000,294344.000000,0.000000,74.440873,-0.055808,-0.560950,0.854492,2.014160,0.003604,-0.003349,-0.604874,0.305176,0.796306,0.000488,0.009277,1.019531,-8.496094,26.660156,34.863281,0.000488,0.000000,0.000000,0.000000,11.900000
1662034739.109017,1662034739.109017,0.000000,0.000000,0.000000,0.000000,0.343700,0.000000,0.001900,99472.000000,11.900000,294344.000000,0.000000,74.440873,-0.055808,-0.560950,0.854492,2.014160,0.003604,-0.003349,-0.604874,0.305176,0.796306,0.000488,0.009277,1.019531,-8.496094,26.660156,34.863281,0.000488,0.000000,0.000000,0.000000,11.900000
1662034739.119039,1662034739.119039,-1.000000,-0.000217,0.000000,0.000000,0.343700,0.000000,0.001900,99472.000000,12.000000,294344.000000,0.000000,74.419180,-0.062572,-0.534514,0.427246,1.831055,0.003385,-0.003256,-0.604724,0.366211,0.796421,0.005859,0.010742,1.013672,-8.203125,26.953125,34.863281,0.005859,0.000000,0.000000,-1.000000,12.000000
1662034739.119039,1662034739.119039,-1.000000,-0.000217,0.000000,0.000000,0.343700,0.000000,0.001900,99472.000000,12.000000,294344.000000,0.000000,74.419180,-0.062572,-0.534514,0.427246,1.831055,0.003385,-0.003256,-0.604724,0.366211,0.796421,0.005859,0.010742,1.013672,-8.203125,26.953125,34.863281,0.005859,0.000000,0.000000,-1.000000,12.000000
1662034739.130924,1662034739.130924,-1.000000,-0.000217,0.000000,0.000000,0.343700,0.000000,0.001900,99472.000000,11.900000,294344.000000,0.000000,74.388362,-0.107956,-0.511569,0.610352,1.892090,0.002987,-0.003449,-0.604509,0.183105,0.796586,-0.000488,0.017578,1.016113,-8.203125,26.953125,34.863281,-0.000488,0.000000,0.000000,-1.000000,11.900000
1662034739.130924,1662034739.130924,-1.000000,-0.000217,0.000000,0.000000,0.343700,0.000000,0.001900,99472.000000,11.900000,294344.000000,0.000000,74.388362,-0.107956,-0.511569,0.610352,1.892090,0.002987,-0.003449,-0.604509,0.183105,0.796586,-0.000488,0.017578,1.016113,-8.203125,26.953125,34.863281,-0.000488,0.000000,0.000000,-1.000000,11.900000
1662034739.139085,1662034739.139085,-1.000000,-0.000217,0.000000,0.000000,0.343700,0.000000,0.001900,99472.000000,12.000000,294344.000000,0.000000,74.367516,-0.163745,-0.530515,0.122070,1.953125,0.002825,-0.003936,-0.604361,0.244141,0.796696,0.006836,0.006348,1.009277,-8.203125,26.953125,34.863281,0.006836,0.000000,0.000000,-1.000000,12.000000
1662034739.139085,1662034739.139085,-1.000000,-0.000217,0.000000,0.000000,0.343700,0.000000,0.001900,99472.000000,12.000000,294344.000000,0.000000,74.367516,-0.163745,-0.530515,0.122070,1.953125,0.002825,-0.003936,-0.604361,0.244141,0.796696,0.006836,0.006348,1.009277,-8.203125,26.953125,34.863281,0.006836,0.000000,0.000000,-1.000000,12.000000
1662034739.149044,1662034739.149044,0.000000,0.000000,0.000000,0.000000,0.343700,0.000000,0.001900,99472.000000,12.000000,294344.000000,0.000000,74.357414,-0.194453,-0.489551,0.305176,1.892090,0.002378,-0.003934,-0.604291,0.061035,0.796750,0.005859,0.005371,1.018066,-8.203125,26.953125,34.863281,0.005859,0.000000,0.000000,0.000000,12.000000
1662034739.149044,1662034739.149044,0.000000,0.000000,0.000000,0.000000,0.343700,0.000000,0.001900,99472.000000,12.000000,294344.000000,0.000000,74.357414,-0.194453,-0.489551,0.305176,1.892090,0.002378,-0.003934,-0.604291,0.061035,0.796750,0.005859,0.005371,1.018066,-8.203125,26.953125,34.863281,0.005859,0.000000,0.000000,0.000000,12.000000
1662034739.159038,1662034739.159038,-3.000000,-0.000650,0.000000,0.000000,0.343700,0.000000,0.001900,99472.000000,12.000000,294344.000000,0.000000,74.337429,-0.227511,-0.583801,0.549316,1.892090,0.002860,-0.004660,-0.604147,0.122070,0.796854,0.006348,0.012207,1.017578,-8.203125,26.953125,34.863281,0.006348,0.000000,0.000000,-3.000000,12.000000
1662034739.159038,1662034739.159038,-3.000000,-0.000650,0.000000,0.000000,0.343700,0.000000,0.001900,99472.000000,12.000000,294344.000000,0.000000,74.337429,-0.227511,-0.583801,0.549316,1.892090,0.002860,-0.004660,-0.604147,0.122070,0.796854,0.006348,0.012207,1.017578,-8.203125,26.953125,34.863281,0.006348,0.000000,0.000000,-3.000000,12.000000
1662034739.169359,1662034739.169359,-3.000000,-0.000650,0.000000,0.000000,0.343700,0.000000,0.001900,99472.000000,12.000000,294344.000000,0.000000,74.306140,-0.272338,-0.530766,0.549316,1.953125,0.002256,-0.004692,-0.603930,0.488281,0.797021,0.005859,0.006836,1.012695,-8.496094,26.367188,34.570313,0.005859,0.000000,0.000000,-3.000000,12.000000
1662034739.169359,1662034739.169359,-3.000000,-0.000650,0.000000,0.000000,0.343700,0.000000,0.001900,99472.000000,12.000000,294344.000000,0.000000,74.306140,-0.272338,-0.530766,0.549316,1.953125,0.002256,-0.004692,-0.603930,0.488281,0.797021,0.005859,0.006836,1.012695,-8.496094,26.367188,34.570313,0.005859,0.000000,0.000000,-3.000000,12.000000
1662034739.179045,1662034739.179045,-3.000000,-0.000650,0.000000,0.000000,0.343700,0.000000,0.001900,99472.000000,12.000000,294344.000000,0.000000,74.285779,-0.187216,-0.580000,0.488281,1.953125,0.003048,-0.004358,-0.603790,0.183105,0.797126,0.000000,0.010254,1.016602,-8.496094,26.367188,34.570313,0.000000,0.000000,0.000000,-3.000000,12.000000
1662034739.179045,1662034739.179045,-3.000000,-0.000650,0.000000,0.000000,0.343700,0.000000,0.001900,99472.000000,12.000000,294344.000000,0.000000,74.285779,-0.187216,-0.580000,0.488281,1.953125,0.003048,-0.004358,-0.603790,0.183105,0.797126,0.000000,0.010254,1.016602,-8.496094,26.367188,34.570313,0.000000,0.000000,0.000000,-3.000000,12.000000
1662034739.189072,1662034739.189072,-3.000000,-0.000650,0.000000,0.000000,0.343700,0.000000,0.001900,99472.000000,12.000000,294344.000000,0.000000,74.265425,-0.191610,-0.640985,0.122070,2.075195,0.003450,-0.004710,-0.603646,0.549316,0.797232,0.001465,0.013672,1.021484,-8.496094,26.367188,34.570313,0.001465,0.000000,0.000000,-3.000000,12.000000
1662034739.189072,1662034739.189072,-3.000000,-0.000650,0.000000,0.000000,0.343700,0.000000,0.001900,99472.000000,12.000000,294344.000000,0.000000,74.265425,-0.191610,-0.640985,0.122070,2.075195,0.003450,-0.004710,-0.603646,0.549316,0.797232,0.001465,0.013672,1.021484,-8.496094,26.367188,34.570313,0.001465,0.000000,0.000000,-3.000000,12.000000
1662034739.199060,1662034739.199060,-3.000000,-0.000650,0.000000,0.000000,0.343700,0.000000,0.001900,99472.000000,12.000000,294344.000000,0.000000,74.255180,-0.218674,-0.601969,0.610352,1.953125,0.003036,-0.004692,-0.603575,0.366211,0.797287,0.005859,0.007813,1.018555,-8.496094,26.367188,34.570313,0.005859,0.000000,0.000000,-3.000000,12.000000
1662034739.199060,1662034739.199060,-3.000000,-0.000650,0.000000,0.000000,0.343700,0.000000,0.001900,99472.000000,12.000000,294344.000000,0.000000,74.255180,-0.218674,-0.601969,0.610352,1.953125,0.003036,-0.004692,-0.603575,0.366211,0.797287,0.005859,0.007813,1.018555,-8.496094,26.367188,34.570313,0.005859,0.000000,0.000000,-3.000000,12.000000
1662034739.209091,1662034739.209091,-1.000000,-0.000217,0.000000,0.000000,0.343700,0.000000,0.001900,99472.000000,12.000000,294344.000000,0.000000,74.233262,-0.114979,-0.588814,0.549316,2.014160,0.003492,-0.003901,-0.603427,0.244141,0.797401,-0.001465,0.010254,1.022461,-8.496094,26.367188,34.570313,-0.001465,0.000000,0.000000,-1.000000,12.000000
1662034739.209091,1662034739.209091,-1.000000,-0.000217,0.000000,0.000000,0.343700,0.000000,0.001900,99472.000000,12.000000,294344.000000,0.000000,74.233262,-0.114979,-0.588814,0.549316,2.014160,0.003492,-0.003901,-0.603427,0.244141,0.797401,-0.001465,0.010254,1.022461,-8.496094,26.367188,34.570313,-0.001465,0.000000,0.000000,-1.000000,12.000000
1662034739.219343,1662034739.219343,0.000000,0.000000,0.000000,0.000000,0.343700,0.000000,0.001900,99472.000000,11.900000,294344.000000,0.000000,74.203435,-0.161485,-0.627560,0.122070,1.770020,0.003518,-0.004428,-0.603216,0.244141,0.797558,0.001465,0.011719,1.014648,-8.496094,26.660156,34.863281,0.001465,0.000000,0.000000,0.000000,11.900000
1662034739.219343,1662034739.219343,0.000000,0.000000,0.000000,0.000000,0.343700,0.000000,0.001900,99472.000000,11.900000,294344.000000,0.000000,74.203435,-0.161485,-0.627560,0.122070,1.770020,0.003518,-0.004428,-0.603216,0.244141,0.797558,0.001465,0.011719,1.014648,-8.496094,26.660156,34.863281,0.001465,0.000000,0.000000,0.000000,11.900000
1662034739.229084,1662034739.229084,-1.000000,-0.000217,0.000000,0.000000,0.343700,0.000000,0.001900,99472.000000,11.900000,294344.000000,0.000000,74.183634,-0.197544,-0.619087,0.549316,1.770020,0.003270,-0.004633,-0.603077,0.549316,0.797663,0.004395,0.011719,1.015625,-8.496094,26.660156,34.863281,0.004395,0.000000,0.000000,-1.000000,11.900000
1662034739.229084,1662034739.229084,-1.000000,-0.000217,0.000000,0.000000,0.343700,0.000000,0.001900,99472.000000,11.900000,294344.000000,0.000000,74.183634,-0.197544,-0.619087,0.549316,1.770020,0.003270,-0.004633,-0.603077,0.549316,0.797663,0.004395,0.011719,1.015625,-8.496094,26.660156,34.863281,0.004395,0.000000,0.000000,-1.000000,11.900000
1662034739.239101,1662034739.239101,-2.000000,-0.000433,0.000000,0.000000,0.343700,0.000000,0.001900,99472.000000,11.900000,294344.000000,0.000000,74.173156,-0.145561,-0.622623,0.061035,2.014160,0.003568,-0.004290,-0.603006,0.183105,0.797717,0.000488,0.011230,1.021484,-8.496094,26.660156,34.863281,0.000488,0.000000,0.000000,-2.000000,11.900000
1662034739.239101,1662034739.239101,-2.000000,-0.000433,0.000000,0.000000,0.343700,0.000000,0.001900,99472.000000,11.900000,294344.000000,0.000000,74.173156,-0.145561,-0.622623,0.061035,2.014160,0.003568,-0.004290,-0.603006,0.183105,0.797717,0.000488,0.011230,1.021484,-8.496094,26.660156,34.863281,0.000488,0.000000,0.000000,-2.000000,11.900000
1662034739.249117,1662034739.249117,-2.000000,-0.000433,0.000000,0.000000,0.343700,0.000000,0.001900,99472.000000,11.900000,294344.000000,0.000000,74.151566,-0.159144,-0.555509,0.305176,2.136230,0.003030,-0.004031,-0.602858,0.244141,0.797833,0.006348,0.008301,1.016113,-8.496094,26.660156,34.863281,0.006348,0.000000,0.000000,-2.000000,11.900000
1662034739.249117,1662034739.249117,-2.000000,-0.000433,0.000000,0.000000,0.343700,0.000000,0.001900,99472.000000,11.900000,294344.000000,0.000000,74.151566,-0.159144,-0.555509,0.305176,2.136230,0.003030,-0.004031,-0.602858,0.244141,0.797833,0.006348,0.008301,1.016113,-8.496094,26.660156,34.863281,0.006348,0.000000,0.000000,-2.000000,11.900000
1662034739.259064,1662034739.259064,-3.000000,-0.000650,0.000000,0.000000,0.343700,0.000000,0.001900,99472.000000,12.000000,294344.000000,0.000000,74.129983,-0.164865,-0.559997,0.427246,1.953125,0.003032,-0.004093,-0.602707,0.305176,0.797946,-0.001953,0.012695,1.018555,-8.496094,26.660156,34.863281,-0.001953,0.000000,0.000000,-3.000000,12.000000
1662034739.259064,1662034739.259064,-3.000000,-0.000650,0.000000,0.000000,0.343700,0.000000,0.001900,99472.000000,12.000000,294344.000000,0.000000,74.129983,-0.164865,-0.559997,0.427246,1.953125,0.003032,-0.004093,-0.602707,0.305176,0.797946,-0.001953,0.012695,1.018555,-8.496094,26.660156,34.863281,-0.001953,0.000000,0.000000,-3.000000,12.000000
1662034739.269030,1662034739.269030,-2.000000,-0.000433,0.000000,0.000000,0.343700,0.000000,0.001900,99472.000000,12.000000,294344.000000,0.000000,74.101282,-0.211643,-0.599351,0.366211,1.892090,0.003062,-0.004625,-0.602504,0.183105,0.798097,0.003418,0.012695,1.019043,-8.203125,26.660156,34.277344,0.003418,0.000000,0.000000,-2.000000,12.000000
1662034739.269030,1662034739.269030,-2.000000,-0.000433,0.000000,0.000000,0.343700,0.000000,0.001900,99472.000000,12.000000,294344.000000,0.000000,74.101282,-0.211643,-0.599351,0.366211,1.892090,0.003062,-0.004625,-0.602504,0.183105,0.798097,0.003418,0.012695,1.019043,-8.203125,26.660156,34.277344,0.003418,0.000000,0.000000,-2.000000,12.000000
1662034739.279063,1662034739.279063,0.000000,0.000000,0.000000,0.000000,0.343700,0.000000,0.001900,99472.000000,11.900000,294344.000000,0.000000,74.092383,-0.240568,-0.643738,0.732422,1.770020,0.003219,-0.005060,-0.602438,0.183105,0.798143,0.004883,0.012207,1.022461,-8.203125,26.660156,34.277344,0.004883,0.000000,0.000000,0.000000,11.900000
1662034739.279063,1662034739.279063,0.000000,0.000000,0.000000,0.000000,0.343700,0.000000,0.001900,99472.000000,11.900000,294344.000000,0.000000,74.092383,-0.240568,-0.643738,0.732422,1.770020,0.003219,-0.005060,-0.602438,0.183105,0.798143,0.004883,0.012207,1.022461,-8.203125,26.660156,34.277344,0.004883,0.000000,0.000000,0.000000,11.900000
1662034739.289035,1662034739.289035,0.000000,0.000000,0.000000,0.000000,0.343700,0.000000,0.001900,99472.000000,11.900000,294344.000000,0.000000,74.072964,-0.150076,-0.698367,0.183105,1.892090,0.004076,-0.004716,-0.602305,0.366211,0.798242,-0.000488,0.013184,1.016113,-8.203125,26.660156,34.277344,-0.000488,0.000000,0.000000,0.000000,11.900000
1662034739.289035,1662034739.289035,0.000000,0.000000,0.000000,0.000000,0.343700,0.000000,0.001900,99472.000000,11.900000,294344.000000,0.000000,74.072964,-0.150076,-0.698367,0.183105,1.892090,0.004076,-0.004716,-0.602305,0.366211,0.798242,-0.000488,0.013184,1.016113,-8.203125,26.660156,34.277344,-0.000488,0.000000,0.000000,0.000000,11.900000
1662034739.299108,1662034739.299108,0.000000,0.000000,0.000000,0.000000,0.343700,0.000000,0.001900,99472.000000,11.900000,294344.000000,0.000000,74.052023,-0.128197,-0.618621,0.427246,2.075195,0.003636,-0.004144,-0.602164,0.183105,0.798354,0.003906,0.007324,1.021973,-8.203125,26.660156,34.277344,0.003906,0.000000,0.000000,0.000000,11.900000
1662034739.299108,1662034739.299108,0.000000,0.000000,0.000000,0.000000,0.343700,0.000000,0.001900,99472.000000,11.900000,294344.000000,0.000000,74.052023,-0.128197,-0.618621,0.427246,2.075195,0.003636,-0.004144,-0.602164,0.183105,0.798354,0.003906,0.007324,1.021973,-8.203125,26.660156,34.277344,0.003906,0.000000,0.000000,0.000000,11.900000
1662034739.308996,1662034739.308996,0.000000,0.000000,0.000000,0.000000,0.343700,0.000000,0.001900,99472.000000,11.900000,294344.000000,0.000000,74.021998,-0.136495,-0.613227,0.183105,2.014160,0.003556,-0.004172,-0.601954,0.549316,0.798512,0.001953,0.010742,1.014648,-8.496094,26.367188,33.984375,0.001953,0.000000,0.000000,0.000000,11.900000
1662034739.308996,1662034739.308996,0.000000,0.000000,0.000000,0.000000,0.343700,0.000000,0.001900,99472.000000,11.900000,294344.000000,0.000000,74.021998,-0.136495,-0.613227,0.183105,2.014160,0.003556,-0.004172,-0.601954,0.549316,0.798512,0.001953,0.010742,1.014648,-8.496094,26.367188,33.984375,0.001953,0.000000,0.000000,0.000000,11.900000
1662034739.319076,1662034739.319076,1.000000,0.000217,0.000000,0.000000,0.343700,0.000000,0.001900,99472.000000,11.900000,294344.000000,0.000000,74.011609,-0.183149,-0.600255,0.122070,2.014160,0.003221,-0.004429,-0.601880,0.427246,0.798568,0.006348,0.009766,1.014648,-8.496094,26.367188,33.984375,0.006348,0.000000,0.000000,1.000000,11.900000
1662034739.319076,1662034739.319076,1.000000,0.000217,0.000000,0.000000,0.343700,0.000000,0.001900,99472.000000,11.900000,294344.000000,0.000000,74.011609,-0.183149,-0.600255,0.122070,2.014160,0.003221,-0.004429,-0.601880,0.427246,0.798568,0.006348,0.009766,1.014648,-8.496094,26.367188,33.984375,0.006348,0.000000,0.000000,1.000000,11.900000
1662034739.329040,1662034739.329040,0.000000,0.000000,0.000000,0.000000,0.343700,0.000000,0.001900,99472.000000,11.900000,294344.000000,0.000000,73.979650,-0.147176,-0.578049,0.671387,1.953125,0.003256,-0.004061,-0.601660,0.122070,0.798735,0.001953,0.011719,1.018066,-8.496094,26.367188,33.984375,0.001953,0.000000,0.000000,0.000000,11.900000
1662034739.329040,1662034739.329040,0.000000,0.000000,0.000000,0.000000,0.343700,0.000000,0.001900,99472.000000,11.900000,294344.000000,0.000000,73.979650,-0.147176,-0.578049,0.671387,1.953125,0.003256,-0.004061,-0.601660,0.122070,0.798735,0.001953,0.011719,1.018066,-8.496094,26.367188,33.984375,0.001953,0.000000,0.000000,0.000000,11.900000
1662034739.339017,1662034739.339017,1.000000,0.000217,0.000000,0.000000,0.343700,0.000000,0.001900,99472.000000,12.000000,294344.000000,0.000000,73.969002,-0.095373,-0.578380,0.549316,2.075195,0.003531,-0.003701,-0.601588,0.244141,0.798791,0.001953,0.010254,1.019531,-8.496094,26.367188,33.984375,0.001953,0.000000,0.000000,1.000000,12.000000
1662034739.339017,1662034739.339017,1.000000,0.000217,0.000000,0.000000,0.343700,0.000000,0.001900,99472.000000,12.000000,294344.000000,0.000000,73.969002,-0.095373,-0.578380,0.549316,2.075195,0.003531,-0.003701,-0.601588,0.244141,0.798791,0.001953,0.010254,1.019531,-8.496094,26.367188,33.984375,0.001953,0.000000,0.000000,1.000000,12.000000
1662034739.349036,1662034739.349036,2.000000,0.000433,0.000000,0.000000,0.343700,0.000000,0.001900,99472.000000,11.900000,294344.000000,0.000000,73.949147,-0.182230,-0.549842,0.610352,1.708984,0.002877,-0.004156,-0.601447,0.122070,0.798897,0.009766,0.003418,1.019043,-8.496094,26.367188,33.984375,0.009766,0.000000,0.000000,2.000000,11.900000
1662034739.349036,1662034739.349036,2.000000,0.000433,0.000000,0.000000,0.343700,0.000000,0.001900,99472.000000,11.900000,294344.000000,0.000000,73.949147,-0.182230,-0.549842,0.610352,1.708984,0.002877,-0.004156,-0.601447,0.122070,0.798897,0.009766,0.003418,1.019043,-8.496094,26.367188,33.984375,0.009766,0.000000,0.000000,2.000000,11.900000
1662034739.359023,1662034739.359023,2.000000,0.000433,0.000000,0.000000,0.343700,0.000000,0.001900,99472.000000,11.900000,294344.000000,0.000000,73.927638,-0.179970,-0.467535,0.549316,2.014160,0.002316,-0.003708,-0.601300,0.244141,0.799012,0.002930,0.007813,1.020020,-8.496094,26.367188,33.984375,0.002930,0.000000,0.000000,2.000000,11.900000
1662034739.359023,1662034739.359023,2.000000,0.000433,0.000000,0.000000,0.343700,0.000000,0.001900,99472.000000,11.900000,294344.000000,0.000000,73.927638,-0.179970,-0.467535,0.549316,2.014160,0.002316,-0.003708,-0.601300,0.244141,0.799012,0.002930,0.007813,1.020020,-8.496094,26.367188,33.984375,0.002930,0.000000,0.000000,2.000000,11.900000
1662034739.369018,1662034739.369018,3.000000,0.000650,0.000000,0.000000,0.343700,0.000000,0.001900,99472.000000,12.000000,294344.000000,0.000000,73.896008,-0.158349,-0.392755,0.488281,2.258301,0.001909,-0.003165,-0.601082,0.244141,0.799179,0.005859,0.006348,1.016113,-8.496094,26.660156,33.984375,0.005859,0.000000,0.000000,3.000000,12.000000
1662034739.369018,1662034739.369018,3.000000,0.000650,0.000000,0.000000,0.343700,0.000000,0.001900,99472.000000,12.000000,294344.000000,0.000000,73.896008,-0.158349,-0.392755,0.488281,2.258301,0.001909,-0.003165,-0.601082,0.244141,0.799179,0.005859,0.006348,1.016113,-8.496094,26.660156,33.984375,0.005859,0.000000,0.000000,3.000000,12.000000
1662034739.379039,1662034739.379039,2.000000,0.000433,0.000000,0.000000,0.343700,0.000000,0.001900,99472.000000,12.000000,294344.000000,0.000000,73.875825,-0.192050,-0.476262,0.488281,1.953125,0.002315,-0.003837,-0.600938,0.549316,0.799283,0.003418,0.008789,1.019043,-8.496094,26.660156,33.984375,0.003418,0.000000,0.000000,2.000000,12.000000
1662034739.379039,1662034739.379039,2.000000,0.000433,0.000000,0.000000,0.343700,0.000000,0.001900,99472.000000,12.000000,294344.000000,0.000000,73.875825,-0.192050,-0.476262,0.488281,1.953125,0.002315,-0.003837,-0.600938,0.549316,0.799283,0.003418,0.008789,1.019043,-8.496094,26.660156,33.984375,0.003418,0.000000,0.000000,2.000000,12.000000
1662034739.389089,1662034739.389089,3.000000,0.000650,0.000000,0.000000,0.343700,0.000000,0.001900,99472.000000,11.900000,294344.000000,0.000000,73.863523,-0.144995,-0.500232,0.000000,2.380371,0.002729,-0.003634,-0.600853,0.305176,0.799347,0.000977,0.009766,1.020020,-8.496094,26.660156,33.984375,0.000977,0.000000,0.000000,3.000000,11.900000
1662034739.389089,1662034739.389089,3.000000,0.000650,0.000000,0.000000,0.343700,0.000000,0.001900,99472.000000,11.900000,294344.000000,0.000000,73.863523,-0.144995,-0.500232,0.000000,2.380371,0.002729,-0.003634,-0.600853,0.305176,0.799347,0.000977,0.009766,1.020020,-8.496094,26.660156,33.984375,0.000977,0.000000,0.000000,3.000000,11.900000
1662034739.399033,1662034739.399033,2.000000,0.000433,0.000000,0.000000,0.343700,0.000000,0.001900,99472.000000,12.000000,294344.000000,0.000000,73.842049,-0.224887,-0.442622,0.488281,1.892090,0.001909,-0.003889,-0.600702,0.366211,0.799461,0.005371,0.006836,1.017578,-8.496094,26.660156,33.984375,0.005371,0.000000,0.000000,2.000000,12.000000
1662034739.399033,1662034739.399033,2.000000,0.000433,0.000000,0.000000,0.343700,0.000000,0.001900,99472.000000,12.000000,294344.000000,0.000000,73.842049,-0.224887,-0.442622,0.488281,1.892090,0.001909,-0.003889,-0.600702,0.366211,0.799461,0.005371,0.006836,1.017578,-8.496094,26.660156,33.984375,0.005371,0.000000,0.000000,2.000000,12.000000
1662034739.409106,1662034739.409106,3.000000,0.000650,0.000000,0.000000,0.343700,0.000000,0.001900,99472.000000,12.000000,294344.000000,0.000000,73.820384,-0.209364,-0.551738,0.549316,2.197266,0.002753,-0.004352,-0.600547,0.427246,0.799573,0.003418,0.011230,1.010742,-8.496094,26.660156,33.984375,0.003418,0.000000,0.000000,3.000000,12.000000
1662034739.409106,1662034739.409106,3.000000,0.000650,0.000000,0.000000,0.343700,0.000000,0.001900,99472.000000,12.000000,294344.000000,0.000000,73.820384,-0.209364,-0.551738,0.549316,2.197266,0.002753,-0.004352,-0.600547,0.427246,0.799573,0.003418,0.011230,1.010742,-8.496094,26.660156,33.984375,0.003418,0.000000,0.000000,3.000000,12.000000
1662034739.419041,1662034739.419041,1.000000,0.000217,0.000000,0.000000,0.343700,0.000000,0.001900,99472.000000,12.000000,294344.000000,0.000000,73.799504,-0.155426,-0.550595,0.427246,1.953125,0.003028,-0.003970,-0.600404,0.122070,0.799681,0.001953,0.006836,1.022949,-8.789063,26.660156,35.156250,0.001953,0.000000,0.000000,1.000000,12.000000
1662034739.419041,1662034739.419041,1.000000,0.000217,0.000000,0.000000,0.343700,0.000000,0.001900,99472.000000,12.000000,294344.000000,0.000000,73.799504,-0.155426,-0.550595,0.427246,1.953125,0.003028,-0.003970,-0.600404,0.122070,0.799681,0.001953,0.006836,1.022949,-8.789063,26.660156,35.156250,0.001953,0.000000,0.000000,1.000000,12.000000
1662034739.429051,1662034739.429051,1.000000,0.000217,0.000000,0.000000,0.343700,0.000000,0.001900,99472.000000,11.900000,294344.000000,0.000000,73.780250,-0.202713,-0.498661,0.732422,1.647949,0.002418,-0.004027,-0.600270,0.366211,0.799784,0.003418,0.006836,1.016602,-8.789063,26.660156,35.156250,0.003418,0.000000,0.000000,1.000000,11.900000
1662034739.429051,1662034739.429051,1.000000,0.000217,0.000000,0.000000,0.343700,0.000000,0.001900,99472.000000,11.900000,294344.000000,0.000000,73.780250,-0.202713,-0.498661,0.732422,1.647949,0.002418,-0.004027,-0.600270,0.366211,0.799784,0.003418,0.006836,1.016602,-8.789063,26.660156,35.156250,0.003418,0.000000,0.000000,1.000000,11.900000
1662034739.439017,1662034739.439017,1.000000,0.000217,0.000000,0.000000,0.343700,0.000000,0.001900,99472.000000,11.900000,294344.000000,0.000000,73.762655,-0.181682,-0.594943,0.305176,1.770020,0.003201,-0.004384,-0.600144,0.366211,0.799874,0.001953,0.012207,1.019043,-8.789063,26.660156,35.156250,0.001953,0.000000,0.000000,1.000000,11.900000
1662034739.439017,1662034739.439017,1.000000,0.000217,0.000000,0.000000,0.343700,0.000000,0.001900,99472.000000,11.900000,294344.000000,0.000000,73.762655,-0.181682,-0.594943,0.305176,1.770020,0.003201,-0.004384,-0.600144,0.366211,0.799874,0.001953,0.012207,1.019043,-8.789063,26.660156,35.156250,0.001953,0.000000,0.000000,1.000000,11.900000
1662034739.449033,1662034739.449033,2.000000,0.000433,0.000000,0.000000,0.343700,0.000000,0.001900,99472.000000,12.000000,294344.000000,0.000000,73.742274,-0.168935,-0.570456,0.549316,1.831055,0.003098,-0.004166,-0.600003,0.305176,0.799981,0.003906,0.009766,1.015625,-8.789063,26.660156,35.156250,0.003906,0.000000,0.000000,2.000000,12.000000
1662034739.449033,1662034739.449033,2.000000,0.000433,0.000000,0.000000,0.343700,0.000000,0.001900,99472.000000,12.000000,294344.000000,0.000000,73.742274,-0.168935,-0.570456,0.549316,1.831055,0.003098,-0.004166,-0.600003,0.305176,0.799981,0.003906,0.009766,1.015625,-8.789063,26.660156,35.156250,0.003906,0.000000,0.000000,2.000000,12.000000
1662034739.459014,1662034739.459014,1.000000,0.000217,0.000000,0.000000,0.343700,0.000000,0.001900,99472.000000,11.900000,294344.000000,0.000000,73.712877,-0.078774,-0.582781,0.183105,1.831055,0.003657,-0.003601,-0.599801,0.305176,0.800133,-0.000977,0.010254,1.024902,-8.203125,26.367188,34.863281,-0.000977,0.000000,0.000000,1.000000,11.900000
1662034739.459014,1662034739.459014,1.000000,0.000217,0.000000,0.000000,0.343700,0.000000,0.001900,99472.000000,11.900000,294344.000000,0.000000,73.712877,-0.078774,-0.582781,0.183105,1.831055,0.003657,-0.003601,-0.599801,0.305176,0.800133,-0.000977,0.010254,1.024902,-8.203125,26.367188,34.863281,-0.000977,0.000000,0.000000,1.000000,11.900000
1662034739.469038,1662034739.469038,3.000000,0.000650,0.000000,0.000000,0.343700,0.000000,0.001900,99472.000000,11.900000,294344.000000,0.000000,73.703738,-0.063996,-0.535479,0.305176,1.770020,0.003404,-0.003249,-0.599739,0.305176,0.800182,0.000977,0.008789,1.015625,-8.203125,26.367188,34.863281,0.000977,0.000000,0.000000,3.000000,11.900000
1662034739.469038,1662034739.469038,3.000000,0.000650,0.000000,0.000000,0.343700,0.000000,0.001900,99472.000000,11.900000,294344.000000,0.000000,73.703738,-0.063996,-0.535479,0.305176,1.770020,0.003404,-0.003249,-0.599739,0.305176,0.800182,0.000977,0.008789,1.015625,-8.203125,26.367188,34.863281,0.000977,0.000000,0.000000,3.000000,11.900000
1662034739.479071,1662034739.479071,1.000000,0.000217,0.000000,0.000000,0.343700,0.000000,0.001900,99472.000000,12.000000,294344.000000,0.000000,73.683446,-0.142669,-0.478377,0.732422,2.014160,0.002594,-0.003499,-0.599597,0.244141,0.800290,0.003906,0.006836,1.022461,-8.203125,26.367188,34.863281,0.003906,0.000000,0.000000,1.000000,12.000000
1662034739.479071,1662034739.479071,1.000000,0.000217,0.000000,0.000000,0.343700,0.000000,0.001900,99472.000000,12.000000,294344.000000,0.000000,73.683446,-0.142669,-0.478377,0.732422,2.014160,0.002594,-0.003499,-0.599597,0.244141,0.800290,0.003906,0.006836,1.022461,-8.203125,26.367188,34.863281,0.003906,0.000000,0.000000,1.000000,12.000000
1662034739.488998,1662034739.488998,2.000000,0.000433,0.000000,0.000000,0.343700,0.000000,0.001900,99472.000000,11.900000,294344.000000,0.000000,73.662415,-0.193515,-0.497925,0.122070,2.075195,0.002466,-0.003956,-0.599447,0.427246,0.800401,0.003906,0.011719,1.011719,-8.203125,26.367188,34.863281,0.003906,0.000000,0.000000,2.000000,11.900000
1662034739.488998,1662034739.488998,2.000000,0.000433,0.000000,0.000000,0.343700,0.000000,0.001900,99472.000000,11.900000,294344.000000,0.000000,73.662415,-0.193515,-0.497925,0.122070,2.075195,0.002466,-0.003956,-0.599447,0.427246,0.800401,0.003906,0.011719,1.011719,-8.203125,26.367188,34.863281,0.003906,0.000000,0.000000,2.000000,11.900000
1662034739.499027,1662034739.499027,2.000000,0.000433,0.000000,0.000000,0.343700,0.000000,0.001900,99472.000000,12.000000,294344.000000,0.000000,73.641051,-0.195786,-0.510368,0.366211,2.136230,0.002541,-0.004037,-0.599297,0.061035,0.800512,0.000000,0.004883,1.023438,-8.203125,26.367188,34.863281,0.000000,0.000000,0.000000,2.000000,12.000000
1662034739.499027,1662034739.499027,2.000000,0.000433,0.000000,0.000000,0.343700,0.000000,0.001900,99472.000000,12.000000,294344.000000,0.000000,73.641051,-0.195786,-0.510368,0.366211,2.136230,0.002541,-0.004037,-0.599297,0.061035,0.800512,0.000000,0.004883,1.023438,-8.203125,26.367188,34.863281,0.000000,0.000000,0.000000,2.000000,12.000000
1662034739.509054,1662034739.509054,1.000000,0.000217,0.000000,0.000000,0.343700,0.000000,0.001900,99472.000000,11.900000,294344.000000,0.000000,73.618067,-0.134969,-0.592941,0.793457,2.075195,0.003437,-0.004043,-0.599137,0.366211,0.800629,0.000977,0.011230,1.019531,-8.203125,26.367188,34.863281,0.000977,0.000000,0.000000,1.000000,11.900000
1662034739.509054,1662034739.509054,1.000000,0.000217,0.000000,0.000000,0.343700,0.000000,0.001900,99472.000000,11.900000,294344.000000,0.000000,73.618067,-0.134969,-0.592941,0.793457,2.075195,0.003437,-0.004043,-0.599137,0.366211,0.800629,0.000977,0.011230,1.019531,-8.203125,26.367188,34.863281,0.000977,0.000000,0.000000,1.000000,11.900000
1662034739.519007,1662034739.519007,1.000000,0.000217,0.000000,0.000000,0.343700,0.000000,0.001900,99472.000000,12.000000,294344.000000,0.000000,73.597201,-0.114363,-0.559538,0.549316,2.014160,0.003312,-0.003724,-0.598993,0.061035,0.800739,0.006836,0.005859,1.021973,-8.496094,26.367188,33.984375,0.006836,0.000000,0.000000,1.000000,12.000000
1662034739.519007,1662034739.519007,1.000000,0.000217,0.000000,0.000000,0.343700,0.000000,0.001900,99472.000000,12.000000,294344.000000,0.000000,73.597201,-0.114363,-0.559538,0.549316,2.014160,0.003312,-0.003724,-0.598993,0.061035,0.800739,0.006836,0.005859,1.021973,-8.496094,26.367188,33.984375,0.006836,0.000000,0.000000,1.000000,12.000000
1662034739.529030,1662034739.529030,0.000000,0.000000,0.000000,0.000000,0.343700,0.000000,0.001900,99472.000000,11.900000,294344.000000,0.000000,73.575467,-0.178272,-0.505615,0.549316,1.953125,0.002602,-0.003888,-0.598840,0.183105,0.800855,0.003906,0.005859,1.016113,-8.496094,26.367188,33.984375,0.003906,0.000000,0.000000,0.000000,11.900000
1662034739.529030,1662034739.529030,0.000000,0.000000,0.000000,0.000000,0.343700,0.000000,0.001900,99472.000000,11.900000,294344.000000,0.000000,73.575467,-0.178272,-0.505615,0.549316,1.953125,0.002602,-0.003888,-0.598840,0.183105,0.800855,0.003906,0.005859,1.016113,-8.496094,26.367188,33.984375,0.003906,0.000000,0.000000,0.000000,11.900000
1662034739.539039,1662034739.539039,0.000000,0.000000,0.000000,0.000000,0.343700,0.000000,0.001900,99472.000000,11.900000,294344.000000,0.000000,73.554949,-0.170776,-0.611132,0.122070,2.014160,0.003379,-0.004387,-0.598693,0.305176,0.800959,0.002441,0.013672,1.020996,-8.496094,26.367188,33.984375,0.002441,0.000000,0.000000,0.000000,11.900000
1662034739.539039,1662034739.539039,0.000000,0.000000,0.000000,0.000000,0.343700,0.000000,0.001900,99472.000000,11.900000,294344.000000,0.000000,73.554949,-0.170776,-0.611132,0.122070,2.014160,0.003379,-0.004387,-0.598693,0.305176,0.800959,0.002441,0.013672,1.020996,-8.496094,26.367188,33.984375,0.002441,0.000000,0.000000,0.000000,11.900000
1662034739.549043,1662034739.549043,0.000000,0.000000,0.000000,0.000000,0.343700,0.000000,0.001900,99472.000000,12.000000,294344.000000,0.000000,73.533557,-0.169562,-0.572171,0.854492,1.953125,0.003114,-0.004174,-0.598545,0.305176,0.801072,0.001953,0.009766,1.020508,-8.496094,26.367188,33.984375,0.001953,0.000000,0.000000,0.000000,12.000000
1662034739.549043,1662034739.549043,0.000000,0.000000,0.000000,0.000000,0.343700,0.000000,0.001900,99472.000000,12.000000,294344.000000,0.000000,73.533557,-0.169562,-0.572171,0.854492,1.953125,0.003114,-0.004174,-0.598545,0.305176,0.801072,0.001953,0.009766,1.020508,-8.496094,26.367188,33.984375,0.001953,0.000000,0.000000,0.000000,12.000000
1662034739.559025,1662034739.559025,0.000000,0.000000,0.000000,0.000000,0.343700,0.000000,0.001900,99472.000000,12.000000,294344.000000,0.000000,73.501660,-0.188174,-0.594657,0.061035,1.831055,0.003175,-0.004421,-0.598320,0.427246,0.801238,0.001953,0.013184,1.023926,-8.789063,26.660156,33.691406,0.001953,0.000000,0.000000,0.000000,12.000000
1662034739.559025,1662034739.559025,0.000000,0.000000,0.000000,0.000000,0.343700,0.000000,0.001900,99472.000000,12.000000,294344.000000,0.000000,73.501660,-0.188174,-0.594657,0.061035,1.831055,0.003175,-0.004421,-0.598320,0.427246,0.801238,0.001953,0.013184,1.023926,-8.789063,26.660156,33.691406,0.001953,0.000000,0.000000,0.000000,12.000000
1662034739.569039,1662034739.569039,1.000000,0.000217,0.000000,0.000000,0.343700,0.000000,0.001900,99472.000000,11.900000,294344.000000,0.000000,73.480862,-0.218288,-0.499919,0.549316,1.953125,0.002356,-0.004136,-0.598177,0.305176,0.801350,0.005371,0.004395,1.020996,-8.789063,26.660156,33.691406,0.005371,0.000000,0.000000,1.000000,11.900000
1662034739.569039,1662034739.569039,1.000000,0.000217,0.000000,0.000000,0.343700,0.000000,0.001900,99472.000000,11.900000,294344.000000,0.000000,73.480862,-0.218288,-0.499919,0.549316,1.953125,0.002356,-0.004136,-0.598177,0.305176,0.801350,0.005371,0.004395,1.020996,-8.789063,26.660156,33.691406,0.005371,0.000000,0.000000,1.000000,11.900000
1662034739.579076,1662034739.579076,0.000000,0.000000,0.000000,0.000000,0.343700,0.000000,0.001900,99472.000000,12.000000,294344.000000,0.000000,73.470357,-0.166067,-0.496914,0.915527,2.014160,0.002608,-0.003755,-0.598106,0.305176,0.801404,0.003418,0.008789,1.015137,-8.789063,26.660156,33.691406,0.003418,0.000000,0.000000,0.000000,12.000000
1662034739.579076,1662034739.579076,0.000000,0.000000,0.000000,0.000000,0.343700,0.000000,0.001900,99472.000000,12.000000,294344.000000,0.000000,73.470357,-0.166067,-0.496914,0.915527,2.014160,0.002608,-0.003755,-0.598106,0.305176,0.801404,0.003418,0.008789,1.015137,-8.789063,26.660156,33.691406,0.003418,0.000000,0.000000,0.000000,12.000000
1662034739.589018,1662034739.589018,-1.000000,-0.000217,0.000000,0.000000,0.343700,0.000000,0.001900,99472.000000,12.000000,294344.000000,0.000000,73.439205,-0.166200,-0.551805,0.061035,1.953125,0.002993,-0.004042,-0.597886,0.366211,0.801565,0.007324,0.009766,1.016602,-8.789063,26.660156,33.691406,0.007324,0.000000,0.000000,-1.000000,12.000000
1662034739.589018,1662034739.589018,-1.000000,-0.000217,0.000000,0.000000,0.343700,0.000000,0.001900,99472.000000,12.000000,294344.000000,0.000000,73.439205,-0.166200,-0.551805,0.061035,1.953125,0.002993,-0.004042,-0.597886,0.366211,0.801565,0.007324,0.009766,1.016602,-8.789063,26.660156,33.691406,0.007324,0.000000,0.000000,-1.000000,12.000000
1662034739.599016,1662034739.599016,-1.000000,-0.000217,0.000000,0.000000,0.343700,0.000000,0.001900,99472.000000,12.000000,294344.000000,0.000000,73.429991,-0.190942,-0.510263,0.427246,1.770020,0.002573,-0.003998,-0.597822,0.244141,0.801615,0.004395,0.007324,1.014648,-8.789063,26.660156,33.691406,0.004395,0.000000,0.000000,-1.000000,12.000000
1662034739.599016,1662034739.599016,-1.000000,-0.000217,0.000000,0.000000,0.343700,0.000000,0.001900,99472.000000,12.000000,294344.000000,0.000000,73.429991,-0.190942,-0.510263,0.427246,1.770020,0.002573,-0.003998,-0.597822,0.244141,0.801615,0.004395,0.007324,1.014648,-8.789063,26.660156,33.691406,0.004395,0.000000,0.000000,-1.000000,12.000000
1662034739.609059,1662034739.609059,-1.000000,-0.000217,0.000000,0.000000,0.343700,0.000000,0.001900,99472.000000,12.000000,294344.000000,0.000000,73.398784,-0.177501,-0.625334,0.183105,2.136230,0.003450,-0.004503,-0.597600,0.122070,0.801774,0.002441,0.012207,1.020996,-8.789063,26.367188,33.984375,0.002441,0.000000,0.000000,-1.000000,12.000000
1662034739.609059,1662034739.609059,-1.000000,-0.000217,0.000000,0.000000,0.343700,0.000000,0.001900,99472.000000,12.000000,294344.000000,0.000000,73.398784,-0.177501,-0.625334,0.183105,2.136230,0.003450,-0.004503,-0.597600,0.122070,0.801774,0.002441,0.012207,1.020996,-8.789063,26.367188,33.984375,0.002441,0.000000,0.000000,-1.000000,12.000000
1662034739.619025,1662034739.619025,-1.000000,-0.000217,0.000000,0.000000,0.343700,0.000000,0.001900,99472.000000,11.900000,294344.000000,0.000000,73.377740,-0.154797,-0.532128,0.549316,1.892090,0.002917,-0.003858,-0.597457,0.183105,0.801886,0.001465,0.006836,1.018555,-8.789063,26.367188,33.984375,0.001465,0.000000,0.000000,-1.000000,11.900000
1662034739.619025,1662034739.619025,-1.000000,-0.000217,0.000000,0.000000,0.343700,0.000000,0.001900,99472.000000,11.900000,294344.000000,0.000000,73.377740,-0.154797,-0.532128,0.549316,1.892090,0.002917,-0.003858,-0.597457,0.183105,0.801886,0.001465,0.006836,1.018555,-8.789063,26.367188,33.984375,0.001465,0.000000,0.000000,-1.000000,11.900000
1662034739.629011,1662034739.629011,0.000000,0.000000,0.000000,0.000000,0.343700,0.000000,0.001900,99472.000000,12.000000,294344.000000,0.000000,73.368799,-0.115546,-0.502369,0.610352,1.708984,0.002913,-0.003428,-0.597397,0.000000,0.801933,-0.000977,0.006348,1.019531,-8.789063,26.367188,33.984375,-0.000977,0.000000,0.000000,0.000000,12.000000
1662034739.629011,1662034739.629011,0.000000,0.000000,0.000000,0.000000,0.343700,0.000000,0.001900,99472.000000,12.000000,294344.000000,0.000000,73.368799,-0.115546,-0.502369,0.610352,1.708984,0.002913,-0.003428,-0.597397,0.000000,0.801933,-0.000977,0.006348,1.019531,-8.789063,26.367188,33.984375,-0.000977,0.000000,0.000000,0.000000,12.000000
1662034739.639036,1662034739.639036,-1.000000,-0.000217,0.000000,0.000000,0.343700,0.000000,0.001900,99472.000000,11.900000,294344.000000,0.000000,73.348466,-0.154378,-0.601017,0.427246,1.953125,0.003402,-0.004213,-0.597250,0.305176,0.802037,0.004395,0.014648,1.017090,-8.789063,26.367188,33.984375,0.004395,0.000000,0.000000,-1.000000,11.900000
1662034739.639036,1662034739.639036,-1.000000,-0.000217,0.000000,0.000000,0.343700,0.000000,0.001900,99472.000000,11.900000,294344.000000,0.000000,73.348466,-0.154378,-0.601017,0.427246,1.953125,0.003402,-0.004213,-0.597250,0.305176,0.802037,0.004395,0.014648,1.017090,-8.789063,26.367188,33.984375,0.004395,0.000000,0.000000,-1.000000,11.900000
1662034739.649047,1662034739.649047,0.000000,0.000000,0.000000,0.000000,0.343700,0.000000,0.001900,99472.000000,12.000000,294344.000000,0.000000,73.328658,-0.110664,-0.522798,0.305176,1.770020,0.003083,-0.003499,-0.597116,0.427246,0.802142,0.002441,0.005371,1.024902,-8.789063,26.367188,33.984375,0.002441,0.000000,0.000000,0.000000,12.000000
1662034739.649047,1662034739.649047,0.000000,0.000000,0.000000,0.000000,0.343700,0.000000,0.001900,99472.000000,12.000000,294344.000000,0.000000,73.328658,-0.110664,-0.522798,0.305176,1.770020,0.003083,-0.003499,-0.597116,0.427246,0.802142,0.002441,0.005371,1.024902,-8.789063,26.367188,33.984375,0.002441,0.000000,0.000000,0.000000,12.000000
1662034739.659041,1662034739.659041,-1.000000,-0.000217,0.000000,0.000000,0.343700,0.000000,0.001900,99472.000000,12.000000,294344.000000,0.000000,73.298359,-0.170478,-0.554376,0.244141,1.892090,0.002993,-0.004081,-0.596900,0.244141,0.802299,0.006348,0.010742,1.017578,-8.496094,26.953125,34.570313,0.006348,0.000000,0.000000,-1.000000,12.000000
1662034739.659041,1662034739.659041,-1.000000,-0.000217,0.000000,0.000000,0.343700,0.000000,0.001900,99472.000000,12.000000,294344.000000,0.000000,73.298359,-0.170478,-0.554376,0.244141,1.892090,0.002993,-0.004081,-0.596900,0.244141,0.802299,0.006348,0.010742,1.017578,-8.496094,26.953125,34.570313,0.006348,0.000000,0.000000,-1.000000,12.000000
1662034739.669019,1662034739.669019,-2.000000,-0.000433,0.000000,0.000000,0.343700,0.000000,0.001900,99472.000000,11.900000,294344.000000,0.000000,73.278627,-0.144347,-0.475425,0.488281,1.892090,0.002577,-0.003487,-0.596766,0.244141,0.802404,-0.000977,0.005371,1.019531,-8.496094,26.953125,34.570313,-0.000977,0.000000,0.000000,-2.000000,11.900000
1662034739.669019,1662034739.669019,-2.000000,-0.000433,0.000000,0.000000,0.343700,0.000000,0.001900,99472.000000,11.900000,294344.000000,0.000000,73.278627,-0.144347,-0.475425,0.488281,1.892090,0.002577,-0.003487,-0.596766,0.244141,0.802404,-0.000977,0.005371,1.019531,-8.496094,26.953125,34.570313,-0.000977,0.000000,0.000000,-2.000000,11.900000
1662034739.679008,1662034739.679008,-1.000000,-0.000217,0.000000,0.000000,0.343700,0.000000,0.001900,99472.000000,11.900000,294344.000000,0.000000,73.267890,-0.192753,-0.488490,0.610352,2.075195,0.002417,-0.003893,-0.596688,0.366211,0.802460,0.006836,0.009277,1.016113,-8.496094,26.953125,34.570313,0.006836,0.000000,0.000000,-1.000000,11.900000
1662034739.679008,1662034739.679008,-1.000000,-0.000217,0.000000,0.000000,0.343700,0.000000,0.001900,99472.000000,11.900000,294344.000000,0.000000,73.267890,-0.192753,-0.488490,0.610352,2.075195,0.002417,-0.003893,-0.596688,0.366211,0.802460,0.006836,0.009277,1.016113,-8.496094,26.953125,34.570313,0.006836,0.000000,0.000000,-1.000000,11.900000
1662034739.689020,1662034739.689020,0.000000,0.000000,0.000000,0.000000,0.343700,0.000000,0.001900,99472.000000,12.000000,294344.000000,0.000000,73.247946,-0.164491,-0.592885,0.427246,1.892090,0.003296,-0.004239,-0.596546,0.549316,0.802561,0.001953,0.012695,1.016602,-8.496094,26.953125,34.570313,0.001953,0.000000,0.000000,0.000000,12.000000
1662034739.689020,1662034739.689020,0.000000,0.000000,0.000000,0.000000,0.343700,0.000000,0.001900,99472.000000,12.000000,294344.000000,0.000000,73.247946,-0.164491,-0.592885,0.427246,1.892090,0.003296,-0.004239,-0.596546,0.549316,0.802561,0.001953,0.012695,1.016602,-8.496094,26.953125,34.570313,0.001953,0.000000,0.000000,0.000000,12.000000
1662034739.699013,1662034739.699013,0.000000,0.000000,0.000000,0.000000,0.343700,0.000000,0.001900,99472.000000,11.900000,294344.000000,0.000000,73.227817,-0.163086,-0.541254,0.183105,1.770020,0.002942,-0.003959,-0.596407,0.427246,0.802667,0.006348,0.008301,1.016602,-8.496094,26.953125,34.570313,0.006348,0.000000,0.000000,0.000000,11.900000
1662034739.699013,1662034739.699013,0.000000,0.000000,0.000000,0.000000,0.343700,0.000000,0.001900,99472.000000,11.900000,294344.000000,0.000000,73.227817,-0.163086,-0.541254,0.183105,1.770020,0.002942,-0.003959,-0.596407,0.427246,0.802667,0.006348,0.008301,1.016602,-8.496094,26.953125,34.570313,0.006348,0.000000,0.000000,0.000000,11.900000
1662034739.709043,1662034739.709043,1.000000,0.000217,0.000000,0.000000,0.343700,0.000000,0.001900,99472.000000,11.900000,294344.000000,0.000000,73.206541,-0.163361,-0.651173,0.732422,1.953125,0.003712,-0.004533,-0.596254,0.061035,0.802775,0.002930,0.012207,1.019043,-8.496094,26.953125,34.570313,0.002930,0.000000,0.000000,1.000000,11.900000
1662034739.709043,1662034739.709043,1.000000,0.000217,0.000000,0.000000,0.343700,0.000000,0.001900,99472.000000,11.900000,294344.000000,0.000000,73.206541,-0.163361,-0.651173,0.732422,1.953125,0.003712,-0.004533,-0.596254,0.061035,0.802775,0.002930,0.012207,1.019043,-8.496094,26.953125,34.570313,0.002930,0.000000,0.000000,1.000000,11.900000
1662034739.719010,1662034739.719010,0.000000,0.000000,0.000000,0.000000,0.343700,0.000000,0.001900,99472.000000,11.900000,294344.000000,0.000000,73.173388,-0.218339,-0.599329,0.488281,2.136230,0.003064,-0.004647,-0.596021,0.183105,0.802949,0.005371,0.007813,1.017578,-8.203125,26.660156,34.570313,0.005371,0.000000,0.000000,0.000000,11.900000
1662034739.719010,1662034739.719010,0.000000,0.000000,0.000000,0.000000,0.343700,0.000000,0.001900,99472.000000,11.900000,294344.000000,0.000000,73.173388,-0.218339,-0.599329,0.488281,2.136230,0.003064,-0.004647,-0.596021,0.183105,0.802949,0.005371,0.007813,1.017578,-8.203125,26.660156,34.570313,0.005371,0.000000,0.000000,0.000000,11.900000
1662034739.728999,1662034739.728999,0.000000,0.000000,0.000000,0.000000,0.343700,0.000000,0.001900,99472.000000,11.900000,294344.000000,0.000000,73.163470,-0.176185,-0.633627,0.671387,1.953125,0.003524,-0.004530,-0.595952,0.427246,0.802999,0.001953,0.012207,1.023438,-8.203125,26.660156,34.570313,0.001953,0.000000,0.000000,0.000000,11.900000
1662034739.728999,1662034739.728999,0.000000,0.000000,0.000000,0.000000,0.343700,0.000000,0.001900,99472.000000,11.900000,294344.000000,0.000000,73.163470,-0.176185,-0.633627,0.671387,1.953125,0.003524,-0.004530,-0.595952,0.427246,0.802999,0.001953,0.012207,1.023438,-8.203125,26.660156,34.570313,0.001953,0.000000,0.000000,0.000000,11.900000
1662034739.739024,1662034739.739024,-1.000000,-0.000217,0.000000,0.000000,0.343700,0.000000,0.001900,99472.000000,12.000000,294344.000000,0.000000,73.142331,-0.165437,-0.645791,-0.061035,2.075195,0.003666,-0.004517,-0.595804,0.305176,0.803109,0.002441,0.007324,1.020020,-8.203125,26.660156,34.570313,0.002441,0.000000,0.000000,-1.000000,12.000000
1662034739.739024,1662034739.739024,-1.000000,-0.000217,0.000000,0.000000,0.343700,0.000000,0.001900,99472.000000,12.000000,294344.000000,0.000000,73.142331,-0.165437,-0.645791,-0.061035,2.075195,0.003666,-0.004517,-0.595804,0.305176,0.803109,0.002441,0.007324,1.020020,-8.203125,26.660156,34.570313,0.002441,0.000000,0.000000,-1.000000,12.000000
1662034739.749022,1662034739.749022,0.000000,0.000000,0.000000,0.000000,0.343700,0.000000,0.001900,99472.000000,11.900000,294344.000000,0.000000,73.122448,-0.178209,-0.589277,0.305176,1.770020,0.003204,-0.004312,-0.595666,0.183105,0.803214,0.001953,0.009277,1.024902,-8.203125,26.660156,34.570313,0.001953,0.000000,0.000000,0.000000,11.900000
1662034739.749022,1662034739.749022,0.000000,0.000000,0.000000,0.000000,0.343700,0.000000,0.001900,99472.000000,11.900000,294344.000000,0.000000,73.122448,-0.178209,-0.589277,0.305176,1.770020,0.003204,-0.004312,-0.595666,0.183105,0.803214,0.001953,0.009277,1.024902,-8.203125,26.660156,34.570313,0.001953,0.000000,0.000000,0.000000,11.900000
1662034739.759036,1662034739.759036,-1.000000,-0.000217,0.000000,0.000000,0.343700,0.000000,0.001900,99472.000000,11.900000,294344.000000,0.000000,73.101657,-0.167365,-0.635830,0.610352,1.892090,0.003588,-0.004478,-0.595519,0.244141,0.803320,-0.001465,0.011230,1.020996,-8.203125,26.660156,34.570313,-0.001465,0.000000,0.000000,-1.000000,11.900000
1662034739.759036,1662034739.759036,-1.000000,-0.000217,0.000000,0.000000,0.343700,0.000000,0.001900,99472.000000,11.900000,294344.000000,0.000000,73.101657,-0.167365,-0.635830,0.610352,1.892090,0.003588,-0.004478,-0.595519,0.244141,0.803320,-0.001465,0.011230,1.020996,-8.203125,26.660156,34.570313,-0.001465,0.000000,0.000000,-1.000000,11.900000
1662034739.769104,1662034739.769104,0.000000,0.000000,0.000000,0.000000,0.343700,0.000000,0.001900,99472.000000,12.000000,294344.000000,0.000000,73.080599,-0.089057,-0.594210,0.183105,1.831055,0.003703,-0.003712,-0.595377,0.183105,0.803430,0.000977,0.009277,1.020996,-8.789063,26.074219,33.984375,0.000977,0.000000,0.000000,0.000000,12.000000
1662034739.769104,1662034739.769104,0.000000,0.000000,0.000000,0.000000,0.343700,0.000000,0.001900,99472.000000,12.000000,294344.000000,0.000000,73.080599,-0.089057,-0.594210,0.183105,1.831055,0.003703,-0.003712,-0.595377,0.183105,0.803430,0.000977,0.009277,1.020996,-8.789063,26.074219,33.984375,0.000977,0.000000,0.000000,0.000000,12.000000
1662034739.778992,1662034739.778992,0.000000,0.000000,0.000000,0.000000,0.343700,0.000000,0.001900,99472.000000,12.000000,294344.000000,0.000000,73.060457,-0.150709,-0.539779,0.610352,2.136230,0.003002,-0.003861,-0.595235,0.183105,0.803537,0.004395,0.009277,1.016602,-8.789063,26.074219,33.984375,0.004395,0.000000,0.000000,0.000000,12.000000
1662034739.778992,1662034739.778992,0.000000,0.000000,0.000000,0.000000,0.343700,0.000000,0.001900,99472.000000,12.000000,294344.000000,0.000000,73.060457,-0.150709,-0.539779,0.610352,2.136230,0.003002,-0.003861,-0.595235,0.183105,0.803537,0.004395,0.009277,1.016602,-8.789063,26.074219,33.984375,0.004395,0.000000,0.000000,0.000000,12.000000
1662034739.788978,1662034739.788978,1.000000,0.000217,0.000000,0.000000,0.343700,0.000000,0.001900,99472.000000,12.000000,294344.000000,0.000000,73.040103,-0.189052,-0.613230,0.122070,1.953125,0.003319,-0.004510,-0.595088,0.549316,0.803641,0.004395,0.011230,1.023926,-8.789063,26.074219,33.984375,0.004395,0.000000,0.000000,1.000000,12.000000
1662034739.788978,1662034739.788978,1.000000,0.000217,0.000000,0.000000,0.343700,0.000000,0.001900,99472.000000,12.000000,294344.000000,0.000000,73.040103,-0.189052,-0.613230,0.122070,1.953125,0.003319,-0.004510,-0.595088,0.549316,0.803641,0.004395,0.011230,1.023926,-8.789063,26.074219,33.984375,0.004395,0.000000,0.000000,1.000000,12.000000
1662034739.799026,1662034739.799026,2.000000,0.000433,0.000000,0.000000,0.343700,0.000000,0.001900,99472.000000,12.000000,294344.000000,0.000000,73.006608,-0.156008,-0.503951,0.427246,2.136230,0.002725,-0.003710,-0.594858,0.122070,0.803818,0.002930,0.005859,1.018066,-8.789063,26.074219,33.984375,0.002930,0.000000,0.000000,2.000000,12.000000
1662034739.799026,1662034739.799026,2.000000,0.000433,0.000000,0.000000,0.343700,0.000000,0.001900,99472.000000,12.000000,294344.000000,0.000000,73.006608,-0.156008,-0.503951,0.427246,2.136230,0.002725,-0.003710,-0.594858,0.122070,0.803818,0.002930,0.005859,1.018066,-8.789063,26.074219,33.984375,0.002930,0.000000,0.000000,2.000000,12.000000
1662034739.809081,1662034739.809081,3.000000,0.000650,0.000000,0.000000,0.343700,0.000000,0.001900,99472.000000,11.900000,294344.000000,0.000000,72.996301,-0.103787,-0.514687,0.549316,2.014160,0.003072,-0.003400,-0.594787,0.488281,0.803870,0.000977,0.009277,1.021973,-8.789063,26.074219,33.984375,0.000977,0.000000,0.000000,3.000000,11.900000
1662034739.809081,1662034739.809081,3.000000,0.000650,0.000000,0.000000,0.343700,0.000000,0.001900,99472.000000,11.900000,294344.000000,0.000000,72.996301,-0.103787,-0.514687,0.549316,2.014160,0.003072,-0.003400,-0.594787,0.488281,0.803870,0.000977,0.009277,1.021973,-8.789063,26.074219,33.984375,0.000977,0.000000,0.000000,3.000000,11.900000
1662034739.819009,1662034739.819009,3.000000,0.000650,0.000000,0.000000,0.343700,0.000000,0.001900,99472.000000,12.000000,294344.000000,0.000000,72.976432,-0.187015,-0.531850,0.122070,1.953125,0.002761,-0.004072,-0.594644,0.366211,0.803974,0.004883,0.008789,1.021973,-8.496094,26.367188,33.984375,0.004883,0.000000,0.000000,3.000000,12.000000
1662034739.819009,1662034739.819009,3.000000,0.000650,0.000000,0.000000,0.343700,0.000000,0.001900,99472.000000,12.000000,294344.000000,0.000000,72.976432,-0.187015,-0.531850,0.122070,1.953125,0.002761,-0.004072,-0.594644,0.366211,0.803974,0.004883,0.008789,1.021973,-8.496094,26.367188,33.984375,0.004883,0.000000,0.000000,3.000000,12.000000
1662034739.829028,1662034739.829028,1.000000,0.000217,0.000000,0.000000,0.343700,0.000000,0.001900,99472.000000,11.900000,294344.000000,0.000000,72.956051,-0.221881,-0.443903,0.488281,1.708984,0.001964,-0.003860,-0.594503,0.244141,0.804082,0.004395,0.004395,1.014648,-8.496094,26.367188,33.984375,0.004395,0.000000,0.000000,1.000000,11.900000
1662034739.829028,1662034739.829028,1.000000,0.000217,0.000000,0.000000,0.343700,0.000000,0.001900,99472.000000,11.900000,294344.000000,0.000000,72.956051,-0.221881,-0.443903,0.488281,1.708984,0.001964,-0.003860,-0.594503,0.244141,0.804082,0.004395,0.004395,1.014648,-8.496094,26.367188,33.984375,0.004395,0.000000,0.000000,1.000000,11.900000
1662034739.838993,1662034739.838993,1.000000,0.000217,0.000000,0.000000,0.343700,0.000000,0.001900,99472.000000,12.000000,294344.000000,0.000000,72.934864,-0.209658,-0.550792,0.366211,1.953125,0.002778,-0.004328,-0.594351,0.488281,0.804189,0.002441,0.014160,1.014160,-8.496094,26.367188,33.984375,0.002441,0.000000,0.000000,1.000000,12.000000
1662034739.838993,1662034739.838993,1.000000,0.000217,0.000000,0.000000,0.343700,0.000000,0.001900,99472.000000,12.000000,294344.000000,0.000000,72.934864,-0.209658,-0.550792,0.366211,1.953125,0.002778,-0.004328,-0.594351,0.488281,0.804189,0.002441,0.014160,1.014160,-8.496094,26.367188,33.984375,0.002441,0.000000,0.000000,1.000000,12.000000
1662034739.849041,1662034739.849041,1.000000,0.000217,0.000000,0.000000,0.343700,0.000000,0.001900,99472.000000,12.000000,294344.000000,0.000000,72.914530,-0.195707,-0.565626,0.549316,1.770020,0.002955,-0.004307,-0.594208,0.427246,0.804294,0.002441,0.006348,1.019043,-8.496094,26.367188,33.984375,0.002441,0.000000,0.000000,1.000000,12.000000
1662034739.849041,1662034739.849041,1.000000,0.000217,0.000000,0.000000,0.343700,0.000000,0.001900,99472.000000,12.000000,294344.000000,0.000000,72.914530,-0.195707,-0.565626,0.549316,1.770020,0.002955,-0.004307,-0.594208,0.427246,0.804294,0.002441,0.006348,1.019043,-8.496094,26.367188,33.984375,0.002441,0.000000,0.000000,1.000000,12.000000
1662034739.859020,1662034739.859020,1.000000,0.000217,0.000000,0.000000,0.343700,0.000000,0.001900,99472.000000,11.900000,294344.000000,0.000000,72.884382,-0.242131,-0.540085,0.000000,1.953125,0.002536,-0.004499,-0.593996,0.305176,0.804452,0.005371,0.008789,1.021973,-8.496094,26.660156,35.156250,0.005371,0.000000,0.000000,1.000000,11.900000
1662034739.859020,1662034739.859020,1.000000,0.000217,0.000000,0.000000,0.343700,0.000000,0.001900,99472.000000,11.900000,294344.000000,0.000000,72.884382,-0.242131,-0.540085,0.000000,1.953125,0.002536,-0.004499,-0.593996,0.305176,0.804452,0.005371,0.008789,1.021973,-8.496094,26.660156,35.156250,0.005371,0.000000,0.000000,1.000000,11.900000
1662034739.868995,1662034739.868995,1.000000,0.000217,0.000000,0.000000,0.343700,0.000000,0.001900,99472.000000,12.000000,294344.000000,0.000000,72.865223,-0.238508,-0.541010,0.183105,1.831055,0.002562,-0.004478,-0.593861,0.244141,0.804551,0.002441,0.009277,1.018066,-8.496094,26.660156,35.156250,0.002441,0.000000,0.000000,1.000000,12.000000
1662034739.868995,1662034739.868995,1.000000,0.000217,0.000000,0.000000,0.343700,0.000000,0.001900,99472.000000,12.000000,294344.000000,0.000000,72.865223,-0.238508,-0.541010,0.183105,1.831055,0.002562,-0.004478,-0.593861,0.244141,0.804551,0.002441,0.009277,1.018066,-8.496094,26.660156,35.156250,0.002441,0.000000,0.000000,1.000000,12.000000
1662034739.879107,1662034739.879107,0.000000,0.000000,0.000000,0.000000,0.343700,0.000000,0.001900,99472.000000,11.900000,294344.000000,0.000000,72.855080,-0.185587,-0.548069,0.793457,1.953125,0.002887,-0.004143,-0.593792,0.366211,0.804603,0.001465,0.009766,1.017090,-8.496094,26.660156,35.156250,0.001465,0.000000,0.000000,0.000000,11.900000
1662034739.879107,1662034739.879107,0.000000,0.000000,0.000000,0.000000,0.343700,0.000000,0.001900,99472.000000,11.900000,294344.000000,0.000000,72.855080,-0.185587,-0.548069,0.793457,1.953125,0.002887,-0.004143,-0.593792,0.366211,0.804603,0.001465,0.009766,1.017090,-8.496094,26.660156,35.156250,0.001465,0.000000,0.000000,0.000000,11.900000
1662034739.889068,1662034739.889068,0.000000,0.000000,0.000000,0.000000,0.343700,0.000000,0.001900,99472.000000,11.900000,294344.000000,0.000000,72.824904,-0.127180,-0.582566,0.244141,1.892090,0.003432,-0.003911,-0.593581,0.244141,0.804757,0.001953,0.005859,1.020020,-8.496094,26.660156,35.156250,0.001953,0.000000,0.000000,0.000000,11.900000
1662034739.889068,1662034739.889068,0.000000,0.000000,0.000000,0.000000,0.343700,0.000000,0.001900,99472.000000,11.900000,294344.000000,0.000000,72.824904,-0.127180,-0.582566,0.244141,1.892090,0.003432,-0.003911,-0.593581,0.244141,0.804757,0.001953,0.005859,1.020020,-8.496094,26.660156,35.156250,0.001953,0.000000,0.000000,0.000000,11.900000
1662034739.899046,1662034739.899046,0.000000,0.000000,0.000000,0.000000,0.343700,0.000000,0.001900,99472.000000,11.900000,294344.000000,0.000000,72.816592,-0.168230,-0.556300,0.244141,1.586914,0.003036,-0.004063,-0.593522,0.366211,0.804802,0.009277,0.005859,1.019043,-8.496094,26.660156,35.156250,0.009277,0.000000,0.000000,0.000000,11.900000
1662034739.899046,1662034739.899046,0.000000,0.000000,0.000000,0.000000,0.343700,0.000000,0.001900,99472.000000,11.900000,294344.000000,0.000000,72.816592,-0.168230,-0.556300,0.244141,1.586914,0.003036,-0.004063,-0.593522,0.366211,0.804802,0.009277,0.005859,1.019043,-8.496094,26.660156,35.156250,0.009277,0.000000,0.000000,0.000000,11.900000
1662034739.909079,1662034739.909079,0.000000,0.000000,0.000000,0.000000,0.343700,0.000000,0.001900,99472.000000,12.000000,294344.000000,0.000000,72.787154,-0.168394,-0.508673,0.061035,1.708984,0.002701,-0.003817,-0.593317,0.427246,0.804955,0.003418,0.008301,1.026855,-8.789063,26.660156,34.277344,0.003418,0.000000,0.000000,0.000000,12.000000
1662034739.909079,1662034739.909079,0.000000,0.000000,0.000000,0.000000,0.343700,0.000000,0.001900,99472.000000,12.000000,294344.000000,0.000000,72.787154,-0.168394,-0.508673,0.061035,1.708984,0.002701,-0.003817,-0.593317,0.427246,0.804955,0.003418,0.008301,1.026855,-8.789063,26.660156,34.277344,0.003418,0.000000,0.000000,0.000000,12.000000
1662034739.919006,1662034739.919006,0.000000,0.000000,0.000000,0.000000,0.343700,0.000000,0.001900,99472.000000,12.000000,294344.000000,0.000000,72.776963,-0.175701,-0.458821,-0.061035,1.953125,0.002314,-0.003610,-0.593247,0.549316,0.805009,0.003418,0.006836,1.013672,-8.789063,26.660156,34.277344,0.003418,0.000000,0.000000,0.000000,12.000000
1662034739.919006,1662034739.919006,0.000000,0.000000,0.000000,0.000000,0.343700,0.000000,0.001900,99472.000000,12.000000,294344.000000,0.000000,72.776963,-0.175701,-0.458821,-0.061035,1.953125,0.002314,-0.003610,-0.593247,0.549316,0.805009,0.003418,0.006836,1.013672,-8.789063,26.660156,34.277344,0.003418,0.000000,0.000000,0.000000,12.000000
1662034739.929185,1662034739.929185,-1.000000,-0.000217,0.000000,0.000000,0.343700,0.000000,0.001900,99472.000000,11.900000,294344.000000,0.000000,72.756766,-0.208815,-0.370925,0.610352,1.953125,0.001525,-0.003387,-0.593106,0.244141,0.805116,0.003906,0.005371,1.020508,-8.789063,26.660156,34.277344,0.003906,0.000000,0.000000,-1.000000,11.900000
1662034739.929185,1662034739.929185,-1.000000,-0.000217,0.000000,0.000000,0.343700,0.000000,0.001900,99472.000000,11.900000,294344.000000,0.000000,72.756766,-0.208815,-0.370925,0.610352,1.953125,0.001525,-0.003387,-0.593106,0.244141,0.805116,0.003906,0.005371,1.020508,-8.789063,26.660156,34.277344,0.003906,0.000000,0.000000,-1.000000,11.900000
1662034739.939010,1662034739.939010,-1.000000,-0.000217,0.000000,0.000000,0.343700,0.000000,0.001900,99472.000000,12.000000,294344.000000,0.000000,72.726536,-0.215088,-0.492242,0.122070,2.075195,0.002346,-0.004058,-0.592890,0.305176,0.805270,0.003906,0.008789,1.021973,-8.789063,26.660156,34.277344,0.003906,0.000000,0.000000,-1.000000,12.000000
1662034739.939010,1662034739.939010,-1.000000,-0.000217,0.000000,0.000000,0.343700,0.000000,0.001900,99472.000000,12.000000,294344.000000,0.000000,72.726536,-0.215088,-0.492242,0.122070,2.075195,0.002346,-0.004058,-0.592890,0.305176,0.805270,0.003906,0.008789,1.021973,-8.789063,26.660156,34.277344,0.003906,0.000000,0.000000,-1.000000,12.000000
1662034739.949144,1662034739.949144,-1.000000,-0.000217,0.000000,0.000000,0.343700,0.000000,0.001900,99472.000000,12.000000,294344.000000,0.000000,72.705117,-0.173004,-0.435936,0.549316,1.892090,0.002169,-0.003471,-0.592743,0.183105,0.805382,0.003418,0.007813,1.023926,-8.789063,26.660156,34.277344,0.003418,0.000000,0.000000,-1.000000,12.000000
1662034739.949144,1662034739.949144,-1.000000,-0.000217,0.000000,0.000000,0.343700,0.000000,0.001900,99472.000000,12.000000,294344.000000,0.000000,72.705117,-0.173004,-0.435936,0.549316,1.892090,0.002169,-0.003471,-0.592743,0.183105,0.805382,0.003418,0.007813,1.023926,-8.789063,26.660156,34.277344,0.003418,0.000000,0.000000,-1.000000,12.000000
1662034739.959058,1662034739.959058,-1.000000,-0.000217,0.000000,0.000000,0.343700,0.000000,0.001900,99472.000000,11.900000,294344.000000,0.000000,72.695828,-0.146967,-0.482632,0.488281,1.831055,0.002632,-0.003529,-0.592677,0.305176,0.805428,0.001953,0.009766,1.018066,-8.789063,26.660156,34.277344,0.001953,0.000000,0.000000,-1.000000,11.900000
1662034739.959058,1662034739.959058,-1.000000,-0.000217,0.000000,0.000000,0.343700,0.000000,0.001900,99472.000000,11.900000,294344.000000,0.000000,72.695828,-0.146967,-0.482632,0.488281,1.831055,0.002632,-0.003529,-0.592677,0.305176,0.805428,0.001953,0.009766,1.018066,-8.789063,26.660156,34.277344,0.001953,0.000000,0.000000,-1.000000,11.900000
1662034739.969048,1662034739.969048,-1.000000,-0.000217,0.000000,0.000000,0.343700,0.000000,0.001900,99472.000000,11.900000,294344.000000,0.000000,72.675959,-0.131876,-0.490431,0.122070,1.953125,0.002766,-0.003463,-0.592537,0.366211,0.805531,0.003906,0.003418,1.012695,-8.789063,26.660156,34.863281,0.003906,0.000000,0.000000,-1.000000,11.900000
1662034739.969048,1662034739.969048,-1.000000,-0.000217,0.000000,0.000000,0.343700,0.000000,0.001900,99472.000000,11.900000,294344.000000,0.000000,72.675959,-0.131876,-0.490431,0.122070,1.953125,0.002766,-0.003463,-0.592537,0.366211,0.805531,0.003906,0.003418,1.012695,-8.789063,26.660156,34.863281,0.003906,0.000000,0.000000,-1.000000,11.900000
1662034739.979022,1662034739.979022,-1.000000,-0.000217,0.000000,0.000000,0.343700,0.000000,0.001900,99472.000000,11.900000,294344.000000,0.000000,72.654539,-0.044077,-0.506162,0.671387,2.136230,0.003331,-0.002927,-0.592390,0.244141,0.805640,0.000977,0.008789,1.020996,-8.789063,26.660156,34.863281,0.000977,0.000000,0.000000,-1.000000,11.900000
1662034739.979022,1662034739.979022,-1.000000,-0.000217,0.000000,0.000000,0.343700,0.000000,0.001900,99472.000000,11.900000,294344.000000,0.000000,72.654539,-0.044077,-0.506162,0.671387,2.136230,0.003331,-0.002927,-0.592390,0.244141,0.805640,0.000977,0.008789,1.020996,-8.789063,26.660156,34.863281,0.000977,0.000000,0.000000,-1.000000,11.900000
1662034739.989013,1662034739.989013,-2.000000,-0.000433,0.000000,0.000000,0.343700,0.000000,0.001900,99472.000000,11.900000,294344.000000,0.000000,72.634035,-0.138422,-0.496011,0.305176,2.014160,0.002772,-0.003537,-0.592242,0.244141,0.805748,0.002441,0.008789,1.016113,-8.789063,26.660156,34.863281,0.002441,0.000000,0.000000,-2.000000,11.900000
1662034739.989013,1662034739.989013,-2.000000,-0.000433,0.000000,0.000000,0.343700,0.000000,0.001900,99472.000000,11.900000,294344.000000,0.000000,72.634035,-0.138422,-0.496011,0.305176,2.014160,0.002772,-0.003537,-0.592242,0.244141,0.805748,0.002441,0.008789,1.016113,-8.789063,26.660156,34.863281,0.002441,0.000000,0.000000,-2.000000,11.900000
1662034739.999154,1662034739.999154,-1.000000,-0.000217,0.000000,0.000000,0.343700,0.000000,0.001900,99472.000000,11.900000,294344.000000,0.000000,72.613203,-0.158572,-0.398090,0.427246,1.892090,0.001980,-0.003172,-0.592098,0.061035,0.805857,0.002930,0.000977,1.017578,-8.789063,26.660156,34.863281,0.002930,0.000000,0.000000,-1.000000,11.900000
1662034739.999154,1662034739.999154,-1.000000,-0.000217,0.000000,0.000000,0.343700,0.000000,0.001900,99472.000000,11.900000,294344.000000,0.000000,72.613203,-0.158572,-0.398090,0.427246,1.892090,0.001980,-0.003172,-0.592098,0.061035,0.805857,0.002930,0.000977,1.017578,-8.789063,26.660156,34.863281,0.002930,0.000000,0.000000,-1.000000,11.900000
1662034740.009027,1662034740.009027,0.000000,0.000000,0.000000,0.000000,0.343700,0.000000,0.001900,99472.000000,11.900000,294344.000000,0.000000,72.582330,-0.127588,-0.519050,0.244141,1.953125,0.002992,-0.003578,-0.591878,0.366211,0.806014,0.004395,0.015137,1.014648,-8.496094,26.367188,34.863281,0.004395,0.000000,0.000000,0.000000,11.900000
1662034740.009027,1662034740.009027,0.000000,0.000000,0.000000,0.000000,0.343700,0.000000,0.001900,99472.000000,11.900000,294344.000000,0.000000,72.582330,-0.127588,-0.519050,0.244141,1.953125,0.002992,-0.003578,-0.591878,0.366211,0.806014,0.004395,0.015137,1.014648,-8.496094,26.367188,34.863281,0.004395,0.000000,0.000000,0.000000,11.900000
1662034740.019026,1662034740.019026,0.000000,0.000000,0.000000,0.000000,0.343700,0.000000,0.001900,99472.000000,11.900000,294344.000000,0.000000,72.571504,-0.174368,-0.502753,0.122070,2.075195,0.002636,-0.003823,-0.591801,0.366211,0.806071,0.003418,0.008789,1.014648,-8.496094,26.367188,34.863281,0.003418,0.000000,0.000000,0.000000,11.900000
1662034740.019026,1662034740.019026,0.000000,0.000000,0.000000,0.000000,0.343700,0.000000,0.001900,99472.000000,11.900000,294344.000000,0.000000,72.571504,-0.174368,-0.502753,0.122070,2.075195,0.002636,-0.003823,-0.591801,0.366211,0.806071,0.003418,0.008789,1.014648,-8.496094,26.367188,34.863281,0.003418,0.000000,0.000000,0.000000,11.900000
1662034740.029017,1662034740.029017,0.000000,0.000000,0.000000,0.000000,0.343700,0.000000,0.001900,99472.000000,11.900000,294344.000000,0.000000,72.551581,-0.197508,-0.595193,0.610352,1.953125,0.003168,-0.004463,-0.591657,0.305176,0.806172,0.004395,0.011230,1.017578,-8.496094,26.367188,34.863281,0.004395,0.000000,0.000000,0.000000,11.900000
1662034740.029017,1662034740.029017,0.000000,0.000000,0.000000,0.000000,0.343700,0.000000,0.001900,99472.000000,11.900000,294344.000000,0.000000,72.551581,-0.197508,-0.595193,0.610352,1.953125,0.003168,-0.004463,-0.591657,0.305176,0.806172,0.004395,0.011230,1.017578,-8.496094,26.367188,34.863281,0.004395,0.000000,0.000000,0.000000,11.900000
1662034740.039010,1662034740.039010,1.000000,0.000217,0.000000,0.000000,0.343700,-0.001000,0.001900,99472.000000,11.900000,294344.000000,0.000000,72.530940,-0.130227,-0.593931,0.305176,1.831055,0.003507,-0.003982,-0.591514,0.305176,0.806277,0.002441,0.010742,1.020020,-8.496094,26.367188,34.863281,0.002441,0.000000,0.000000,1.000000,11.900000
1662034740.039010,1662034740.039010,1.000000,0.000217,0.000000,0.000000,0.343700,-0.001000,0.001900,99472.000000,11.900000,294344.000000,0.000000,72.530940,-0.130227,-0.593931,0.305176,1.831055,0.003507,-0.003982,-0.591514,0.305176,0.806277,0.002441,0.010742,1.020020,-8.496094,26.367188,34.863281,0.002441,0.000000,0.000000,1.000000,11.900000
1662034740.049031,1662034740.049031,0.000000,0.000000,0.000000,0.000000,0.343700,0.000000,0.001900,99472.000000,11.900000,294344.000000,0.000000,72.498223,-0.171228,-0.513996,0.854492,2.075195,0.002734,-0.003857,-0.591285,0.244141,0.806449,0.003906,0.008301,1.014648,-8.496094,26.367188,34.863281,0.003906,0.000000,0.000000,0.000000,11.900000
1662034740.049031,1662034740.049031,0.000000,0.000000,0.000000,0.000000,0.343700,0.000000,0.001900,99472.000000,11.900000,294344.000000,0.000000,72.498223,-0.171228,-0.513996,0.854492,2.075195,0.002734,-0.003857,-0.591285,0.244141,0.806449,0.003906,0.008301,1.014648,-8.496094,26.367188,34.863281,0.003906,0.000000,0.000000,0.000000,11.900000
1662034740.059253,1662034740.059253,0.000000,0.000000,0.000000,0.000000,0.343700,0.000000,0.001900,99472.000000,11.900000,294344.000000,0.000000,72.477152,-0.161777,-0.515116,0.305176,1.892090,0.002791,-0.003796,-0.591137,0.427246,0.806557,0.002930,0.006836,1.012207,-8.496094,26.660156,34.863281,0.002930,0.000000,0.000000,0.000000,11.900000
1662034740.059253,1662034740.059253,0.000000,0.000000,0.000000,0.000000,0.343700,0.000000,0.001900,99472.000000,11.900000,294344.000000,0.000000,72.477152,-0.161777,-0.515116,0.305176,1.892090,0.002791,-0.003796,-0.591137,0.427246,0.806557,0.002930,0.006836,1.012207,-8.496094,26.660156,34.863281,0.002930,0.000000,0.000000,0.000000,11.900000
1662034740.069002,1662034740.069002,0.000000,0.000000,0.000000,0.000000,0.343700,0.000000,0.001900,99472.000000,11.900000,294344.000000,0.000000,72.457229,-0.141462,-0.497396,0.366211,1.831055,0.002772,-0.003561,-0.590998,0.366211,0.806660,0.004395,0.005859,1.020996,-8.496094,26.660156,34.863281,0.004395,0.000000,0.000000,0.000000,11.900000
1662034740.069002,1662034740.069002,0.000000,0.000000,0.000000,0.000000,0.343700,0.000000,0.001900,99472.000000,11.900000,294344.000000,0.000000,72.457229,-0.141462,-0.497396,0.366211,1.831055,0.002772,-0.003561,-0.590998,0.366211,0.806660,0.004395,0.005859,1.020996,-8.496094,26.660156,34.863281,0.004395,0.000000,0.000000,0.000000,11.900000
1662034740.078995,1662034740.078995,1.000000,0.000217,0.000000,0.000000,0.343700,0.000000,0.001900,99472.000000,12.000000,294344.000000,0.000000,72.447393,-0.191458,-0.500135,0.671387,1.892090,0.002534,-0.003927,-0.590927,0.305176,0.806711,0.008789,0.008789,1.022461,-8.496094,26.660156,34.863281,0.008789,0.000000,0.000000,1.000000,12.000000
1662034740.078995,1662034740.078995,1.000000,0.000217,0.000000,0.000000,0.343700,0.000000,0.001900,99472.000000,12.000000,294344.000000,0.000000,72.447393,-0.191458,-0.500135,0.671387,1.892090,0.002534,-0.003927,-0.590927,0.305176,0.806711,0.008789,0.008789,1.022461,-8.496094,26.660156,34.863281,0.008789,0.000000,0.000000,1.000000,12.000000
1662034740.088998,1662034740.088998,2.000000,0.000433,0.000000,0.000000,0.343700,0.000000,0.001900,99472.000000,11.900000,294344.000000,0.000000,72.426028,-0.117472,-0.560242,0.305176,2.014160,0.003339,-0.003715,-0.590778,0.549316,0.806819,-0.001465,0.010254,1.025391,-8.496094,26.660156,34.863281,-0.001465,0.000000,0.000000,2.000000,11.900000
1662034740.088998,1662034740.088998,2.000000,0.000433,0.000000,0.000000,0.343700,0.000000,0.001900,99472.000000,11.900000,294344.000000,0.000000,72.426028,-0.117472,-0.560242,0.305176,2.014160,0.003339,-0.003715,-0.590778,0.549316,0.806819,-0.001465,0.010254,1.025391,-8.496094,26.660156,34.863281,-0.001465,0.000000,0.000000,2.000000,11.900000
1662034740.099102,1662034740.099102,2.000000,0.000433,0.000000,0.000000,0.343700,0.000000,0.001900,99472.000000,12.000000,294344.000000,0.000000,72.394582,-0.221608,-0.509022,0.854492,2.197266,0.002443,-0.004184,-0.590554,0.122070,0.806984,0.007813,0.009277,1.017578,-8.496094,26.660156,34.863281,0.007813,0.000000,0.000000,2.000000,12.000000
1662034740.099102,1662034740.099102,2.000000,0.000433,0.000000,0.000000,0.343700,0.000000,0.001900,99472.000000,12.000000,294344.000000,0.000000,72.394582,-0.221608,-0.509022,0.854492,2.197266,0.002443,-0.004184,-0.590554,0.122070,0.806984,0.007813,0.009277,1.017578,-8.496094,26.660156,34.863281,0.007813,0.000000,0.000000,2.000000,12.000000
1662034740.109008,1662034740.109008,2.000000,0.000433,0.000000,0.000000,0.343700,0.000000,0.001900,99472.000000,12.000000,294344.000000,0.000000,72.384241,-0.171864,-0.504305,0.488281,2.014160,0.002666,-0.003809,-0.590483,-0.061035,0.807037,0.001953,0.008789,1.021484,-8.496094,26.660156,34.863281,0.001953,0.000000,0.000000,2.000000,12.000000
1662034740.109008,1662034740.109008,2.000000,0.000433,0.000000,0.000000,0.343700,0.000000,0.001900,99472.000000,12.000000,294344.000000,0.000000,72.384241,-0.171864,-0.504305,0.488281,2.014160,0.002666,-0.003809,-0.590483,-0.061035,0.807037,0.001953,0.008789,1.021484,-8.496094,26.660156,34.863281,0.001953,0.000000,0.000000,2.000000,12.000000
1662034740.119011,1662034740.119011,1.000000,0.000217,0.000000,0.000000,0.343700,0.000000,0.001900,99472.000000,11.900000,294344.000000,0.000000,72.364304,-0.243170,-0.574487,0.122070,2.014160,0.002794,-0.004672,-0.590337,0.427246,0.807139,0.005371,0.010742,1.016113,-8.203125,26.367188,34.863281,0.005371,0.000000,0.000000,1.000000,11.900000
