axelbr/cps_racecar/data/test_run_1.csv
__time,/dynamic_joint_states/header/stamp,/dynamic_joint_states/interface_values.0/values.0,/dynamic_joint_states/interface_values.0/values.1,/dynamic_joint_states/interface_values.0/values.2,/dynamic_joint_states/interface_values.0/values.3,/dynamic_joint_states/interface_values.0/values.4,/dynamic_joint_states/interface_values.0/values.5,/dynamic_joint_states/interface_values.0/values.6,/dynamic_joint_states/interface_values.0/values.7,/dynamic_joint_states/interface_values.0/values.8,/dynamic_joint_states/interface_values.0/values.9,/dynamic_joint_states/interface_values.1/values.0,/dynamic_joint_states/interface_values.2/values.0,/dynamic_joint_states/interface_values.2/values.1,/dynamic_joint_states/interface_values.2/values.2,/dynamic_joint_states/interface_values.2/values.3,/dynamic_joint_states/interface_values.2/values.4,/dynamic_joint_states/interface_values.2/values.5,/dynamic_joint_states/interface_values.2/values.6,/dynamic_joint_states/interface_values.2/values.7,/dynamic_joint_states/interface_values.2/values.8,/dynamic_joint_states/interface_values.2/values.9,/dynamic_joint_states/interface_values.3/values.0,/dynamic_joint_states/interface_values.3/values.1,/dynamic_joint_states/interface_values.3/values.2,/dynamic_joint_states/interface_values.4/values.0,/dynamic_joint_states/interface_values.4/values.1,/dynamic_joint_states/interface_values.4/values.2,Acceleration,Current (Input),Current (Motor),ERPM,Voltage
1662034786.519336,1662034786.519336,1.000000,0.000217,0.000000,0.000000,0.343700,0.000000,0.001900,99472.000000,12.000000,294344.000000,0.000000,-23.613911,-0.154617,-0.587884,0.671387,1.892090,0.005298,-0.000271,0.204619,-0.061035,0.978827,0.002441,0.011230,1.020996,-9.082031,27.246094,32.226563,0.002441,0.000000,0.000000,1.000000,12.000000
1662034786.529546,1662034786.529546,0.000000,0.000000,0.000000,0.000000,0.343700,0.000000,0.001900,99472.000000,11.900000,294344.000000,0.000000,-23.634809,-0.125537,-0.555918,0.122070,1.953125,0.004973,-0.000079,0.204796,0.000000,0.978792,0.002930,0.008301,1.015625,-9.082031,27.246094,32.226563,0.002930,0.000000,0.000000,0.000000,11.900000
1662034786.529546,1662034786.529546,0.000000,0.000000,0.000000,0.000000,0.343700,0.000000,0.001900,99472.000000,11.900000,294344.000000,0.000000,-23.634809,-0.125537,-0.555918,0.122070,1.953125,0.004973,-0.000079,0.204796,0.000000,0.978792,0.002930,0.008301,1.015625,-9.082031,27.246094,32.226563,0.002930,0.000000,0.000000,0.000000,11.900000
1662034786.539484,1662034786.539484,0.000000,0.000000,0.000000,0.000000,0.343700,0.000000,0.001900,99472.000000,12.000000,294344.000000,0.000000,-23.655331,-0.176350,-0.553203,0.671387,1.892090,0.005041,-0.000517,0.204973,0.183105,0.978755,0.005371,0.004395,1.022461,-9.082031,27.246094,32.226563,0.005371,0.000000,0.000000,0.000000,12.000000
1662034786.539484,1662034786.539484,0.000000,0.000000,0.000000,0.000000,0.343700,0.000000,0.001900,99472.000000,12.000000,294344.000000,0.000000,-23.655331,-0.176350,-0.553203,0.671387,1.892090,0.005041,-0.000517,0.204973,0.183105,0.978755,0.005371,0.004395,1.022461,-9.082031,27.246094,32.226563,0.005371,0.000000,0.000000,0.000000,12.000000
1662034786.549083,1662034786.549083,1.000000,0.000217,0.000000,0.000000,0.343700,0.000000,0.001900,99472.000000,12.000000,294344.000000,0.000000,-23.677358,-0.115995,-0.607093,0.122070,2.136230,0.005393,0.000096,0.205159,0.244141,0.978714,0.000000,0.010742,1.021484,-9.082031,27.246094,32.226563,0.000000,0.000000,0.000000,1.000000,12.000000
1662034786.549083,1662034786.549083,1.000000,0.000217,0.000000,0.000000,0.343700,0.000000,0.001900,99472.000000,12.000000,294344.000000,0.000000,-23.677358,-0.115995,-0.607093,0.122070,2.136230,0.005393,0.000096,0.205159,0.244141,0.978714,0.000000,0.010742,1.021484,-9.082031,27.246094,32.226563,0.000000,0.000000,0.000000,1.000000,12.000000
1662034786.559380,1662034786.559380,1.000000,0.000217,0.000000,0.000000,0.343700,0.000000,0.001900,99472.000000,12.000000,294344.000000,0.000000,-23.696928,-0.156197,-0.629418,0.671387,1.770020,0.005656,-0.000206,0.205328,0.305176,0.978677,0.004395,0.009766,1.019531,-9.082031,27.246094,32.226563,0.004395,0.000000,0.000000,1.000000,12.000000
1662034786.559380,1662034786.559380,1.000000,0.000217,0.000000,0.000000,0.343700,0.000000,0.001900,99472.000000,12.000000,294344.000000,0.000000,-23.696928,-0.156197,-0.629418,0.671387,1.770020,0.005656,-0.000206,0.205328,0.305176,0.978677,0.004395,0.009766,1.019531,-9.082031,27.246094,32.226563,0.004395,0.000000,0.000000,1.000000,12.000000
1662034786.569413,1662034786.569413,1.000000,0.000217,0.000000,0.000000,0.343700,0.000000,0.001900,99472.000000,12.000000,294344.000000,0.000000,-23.716599,-0.078813,-0.607487,0.488281,1.892090,0.005329,0.000416,0.205493,0.366211,0.978644,0.000000,0.011230,1.015137,-9.375000,26.953125,31.933594,0.000000,0.000000,0.000000,1.000000,12.000000
1662034786.569413,1662034786.569413,1.000000,0.000217,0.000000,0.000000,0.343700,0.000000,0.001900,99472.000000,12.000000,294344.000000,0.000000,-23.716599,-0.078813,-0.607487,0.488281,1.892090,0.005329,0.000416,0.205493,0.366211,0.978644,0.000000,0.011230,1.015137,-9.375000,26.953125,31.933594,0.000000,0.000000,0.000000,1.000000,12.000000
1662034786.579499,1662034786.579499,0.000000,0.000000,0.000000,0.000000,0.343700,0.000000,0.001900,99472.000000,11.900000,294344.000000,0.000000,-23.737424,-0.072251,-0.647703,0.427246,2.014160,0.005661,0.000545,0.205670,0.427246,0.978605,0.000488,0.011719,1.018555,-9.375000,26.953125,31.933594,0.000488,0.000000,0.000000,0.000000,11.900000
1662034786.579499,1662034786.579499,0.000000,0.000000,0.000000,0.000000,0.343700,0.000000,0.001900,99472.000000,11.900000,294344.000000,0.000000,-23.737424,-0.072251,-0.647703,0.427246,2.014160,0.005661,0.000545,0.205670,0.427246,0.978605,0.000488,0.011719,1.018555,-9.375000,26.953125,31.933594,0.000488,0.000000,0.000000,0.000000,11.900000
1662034786.589495,1662034786.589495,1.000000,0.000217,0.000000,0.000000,0.343700,0.000000,0.001900,99472.000000,11.900000,294344.000000,0.000000,-23.759655,-0.063334,-0.570528,0.732422,2.075195,0.004986,0.000484,0.205860,0.122070,0.978569,-0.002441,0.005859,1.022461,-9.375000,26.953125,31.933594,-0.002441,0.000000,0.000000,1.000000,11.900000
1662034786.589495,1662034786.589495,1.000000,0.000217,0.000000,0.000000,0.343700,0.000000,0.001900,99472.000000,11.900000,294344.000000,0.000000,-23.759655,-0.063334,-0.570528,0.732422,2.075195,0.004986,0.000484,0.205860,0.122070,0.978569,-0.002441,0.005859,1.022461,-9.375000,26.953125,31.933594,-0.002441,0.000000,0.000000,1.000000,11.900000
1662034786.599298,1662034786.599298,2.000000,0.000433,0.000000,0.000000,0.343700,0.000000,0.001900,99472.000000,12.000000,294344.000000,0.000000,-23.781313,-0.104274,-0.667669,0.366211,1.953125,0.005889,0.000310,0.206046,0.244141,0.978525,0.001953,0.012207,1.020996,-9.375000,26.953125,31.933594,0.001953,0.000000,0.000000,2.000000,12.000000
1662034786.599298,1662034786.599298,2.000000,0.000433,0.000000,0.000000,0.343700,0.000000,0.001900,99472.000000,12.000000,294344.000000,0.000000,-23.781313,-0.104274,-0.667669,0.366211,1.953125,0.005889,0.000310,0.206046,0.244141,0.978525,0.001953,0.012207,1.020996,-9.375000,26.953125,31.933594,0.001953,0.000000,0.000000,2.000000,12.000000
1662034786.609382,1662034786.609382,1.000000,0.000217,0.000000,0.000000,0.343700,0.000000,0.001900,99472.000000,12.000000,294344.000000,0.000000,-23.800636,-0.082865,-0.610178,0.427246,2.014160,0.005359,0.000390,0.206210,0.366211,0.978493,0.003418,0.008301,1.018555,-9.375000,26.953125,31.933594,0.003418,0.000000,0.000000,1.000000,12.000000
1662034786.609382,1662034786.609382,1.000000,0.000217,0.000000,0.000000,0.343700,0.000000,0.001900,99472.000000,12.000000,294344.000000,0.000000,-23.800636,-0.082865,-0.610178,0.427246,2.014160,0.005359,0.000390,0.206210,0.366211,0.978493,0.003418,0.008301,1.018555,-9.375000,26.953125,31.933594,0.003418,0.000000,0.000000,1.000000,12.000000
1662034786.619296,1662034786.619296,1.000000,0.000217,0.000000,0.000000,0.343700,0.000000,0.001900,99472.000000,12.000000,294344.000000,0.000000,-23.820520,-0.078649,-0.602718,0.549316,1.770020,0.005288,0.000414,0.206380,-0.061035,0.978458,-0.005371,0.011719,1.020020,-8.789063,26.660156,32.226563,-0.005371,0.000000,0.000000,1.000000,12.000000
1662034786.619296,1662034786.619296,1.000000,0.000217,0.000000,0.000000,0.343700,0.000000,0.001900,99472.000000,12.000000,294344.000000,0.000000,-23.820520,-0.078649,-0.602718,0.549316,1.770020,0.005288,0.000414,0.206380,-0.061035,0.978458,-0.005371,0.011719,1.020020,-8.789063,26.660156,32.226563,-0.005371,0.000000,0.000000,1.000000,12.000000
1662034786.629070,1662034786.629070,2.000000,0.000433,0.000000,0.000000,0.343700,0.000000,0.001900,99472.000000,11.900000,294344.000000,0.000000,-23.841110,-0.112471,-0.554650,0.122070,1.770020,0.004939,0.000039,0.206557,0.366211,0.978422,0.006348,0.009766,1.017090,-8.789063,26.660156,32.226563,0.006348,0.000000,0.000000,2.000000,11.900000
1662034786.629070,1662034786.629070,2.000000,0.000433,0.000000,0.000000,0.343700,0.000000,0.001900,99472.000000,11.900000,294344.000000,0.000000,-23.841110,-0.112471,-0.554650,0.122070,1.770020,0.004939,0.000039,0.206557,0.366211,0.978422,0.006348,0.009766,1.017090,-8.789063,26.660156,32.226563,0.006348,0.000000,0.000000,2.000000,11.900000
1662034786.639131,1662034786.639131,1.000000,0.000217,0.000000,0.000000,0.343700,0.000000,0.001900,99472.000000,11.900000,294344.000000,0.000000,-23.862335,-0.134054,-0.522292,0.915527,2.014160,0.004701,-0.000202,0.206739,0.061035,0.978385,0.003906,0.009277,1.017090,-8.789063,26.660156,32.226563,0.003906,0.000000,0.000000,1.000000,11.900000
1662034786.639131,1662034786.639131,1.000000,0.000217,0.000000,0.000000,0.343700,0.000000,0.001900,99472.000000,11.900000,294344.000000,0.000000,-23.862335,-0.134054,-0.522292,0.915527,2.014160,0.004701,-0.000202,0.206739,0.061035,0.978385,0.003906,0.009277,1.017090,-8.789063,26.660156,32.226563,0.003906,0.000000,0.000000,1.000000,11.900000
1662034786.649051,1662034786.649051,1.000000,0.000217,0.000000,0.000000,0.343700,0.000000,0.001900,99472.000000,11.900000,294344.000000,0.000000,-23.884171,-0.139942,-0.511626,0.122070,2.075195,0.004621,-0.000271,0.206926,0.488281,0.978346,0.005859,0.010254,1.022949,-8.789063,26.660156,32.226563,0.005859,0.000000,0.000000,1.000000,11.900000
1662034786.649051,1662034786.649051,1.000000,0.000217,0.000000,0.000000,0.343700,0.000000,0.001900,99472.000000,11.900000,294344.000000,0.000000,-23.884171,-0.139942,-0.511626,0.122070,2.075195,0.004621,-0.000271,0.206926,0.488281,0.978346,0.005859,0.010254,1.022949,-8.789063,26.660156,32.226563,0.005859,0.000000,0.000000,1.000000,11.900000
1662034786.659049,1662034786.659049,2.000000,0.000433,0.000000,0.000000,0.343700,0.000000,0.001900,99472.000000,11.900000,294344.000000,0.000000,-23.904066,-0.135135,-0.518848,0.305176,1.708984,0.004674,-0.000216,0.207096,0.488281,0.978310,0.004883,0.009766,1.017090,-8.789063,26.660156,32.226563,0.004883,0.000000,0.000000,2.000000,11.900000
1662034786.659049,1662034786.659049,2.000000,0.000433,0.000000,0.000000,0.343700,0.000000,0.001900,99472.000000,11.900000,294344.000000,0.000000,-23.904066,-0.135135,-0.518848,0.305176,1.708984,0.004674,-0.000216,0.207096,0.488281,0.978310,0.004883,0.009766,1.017090,-8.789063,26.660156,32.226563,0.004883,0.000000,0.000000,2.000000,11.900000
1662034786.669091,1662034786.669091,2.000000,0.000433,0.000000,0.000000,0.343700,0.000000,0.001900,99472.000000,12.000000,294344.000000,0.000000,-23.924382,-0.109877,-0.621443,0.549316,1.953125,0.005504,0.000186,0.207268,0.366211,0.978269,0.000488,0.013672,1.020996,-9.082031,26.953125,32.226563,0.000488,0.000000,0.000000,2.000000,12.000000
1662034786.669091,1662034786.669091,2.000000,0.000433,0.000000,0.000000,0.343700,0.000000,0.001900,99472.000000,12.000000,294344.000000,0.000000,-23.924382,-0.109877,-0.621443,0.549316,1.953125,0.005504,0.000186,0.207268,0.366211,0.978269,0.000488,0.013672,1.020996,-9.082031,26.953125,32.226563,0.000488,0.000000,0.000000,2.000000,12.000000
1662034786.679065,1662034786.679065,2.000000,0.000433,0.000000,0.000000,0.343700,0.000000,0.001900,99472.000000,12.000000,294344.000000,0.000000,-23.943599,-0.118595,-0.645748,0.000000,1.831055,0.005727,0.000156,0.207433,0.671387,0.978233,0.004395,0.010742,1.017090,-9.082031,26.953125,32.226563,0.004395,0.000000,0.000000,2.000000,12.000000
1662034786.679065,1662034786.679065,2.000000,0.000433,0.000000,0.000000,0.343700,0.000000,0.001900,99472.000000,12.000000,294344.000000,0.000000,-23.943599,-0.118595,-0.645748,0.000000,1.831055,0.005727,0.000156,0.207433,0.671387,0.978233,0.004395,0.010742,1.017090,-9.082031,26.953125,32.226563,0.004395,0.000000,0.000000,2.000000,12.000000
1662034786.689113,1662034786.689113,0.000000,0.000000,0.000000,0.000000,0.343700,0.000000,0.001900,99472.000000,11.900000,294344.000000,0.000000,-23.962747,-0.206436,-0.604196,0.732422,1.831055,0.005532,-0.000668,0.207600,0.427246,0.978198,0.005371,0.009766,1.012695,-9.082031,26.953125,32.226563,0.005371,0.000000,0.000000,0.000000,11.900000
1662034786.689113,1662034786.689113,0.000000,0.000000,0.000000,0.000000,0.343700,0.000000,0.001900,99472.000000,11.900000,294344.000000,0.000000,-23.962747,-0.206436,-0.604196,0.732422,1.831055,0.005532,-0.000668,0.207600,0.427246,0.978198,0.005371,0.009766,1.012695,-9.082031,26.953125,32.226563,0.005371,0.000000,0.000000,0.000000,11.900000
1662034786.699391,1662034786.699391,0.000000,0.000000,0.000000,0.000000,0.343700,0.000000,0.001900,99472.000000,12.000000,294344.000000,0.000000,-23.982319,-0.233840,-0.698386,0.244141,2.075195,0.006385,-0.000730,0.207769,0.549316,0.978157,0.005371,0.013672,1.021973,-9.082031,26.953125,32.226563,0.005371,0.000000,0.000000,0.000000,12.000000
1662034786.699391,1662034786.699391,0.000000,0.000000,0.000000,0.000000,0.343700,0.000000,0.001900,99472.000000,12.000000,294344.000000,0.000000,-23.982319,-0.233840,-0.698386,0.244141,2.075195,0.006385,-0.000730,0.207769,0.549316,0.978157,0.005371,0.013672,1.021973,-9.082031,26.953125,32.226563,0.005371,0.000000,0.000000,0.000000,12.000000
1662034786.709232,1662034786.709232,1.000000,0.000217,0.000000,0.000000,0.343700,0.000000,0.001900,99472.000000,11.900000,294344.000000,0.000000,-24.003231,-0.190198,-0.606793,0.610352,2.014160,0.005525,-0.000522,0.207945,0.244141,0.978125,0.001953,0.008301,1.023926,-9.082031,26.953125,32.226563,0.001953,0.000000,0.000000,1.000000,11.900000
1662034786.709232,1662034786.709232,1.000000,0.000217,0.000000,0.000000,0.343700,0.000000,0.001900,99472.000000,11.900000,294344.000000,0.000000,-24.003231,-0.190198,-0.606793,0.610352,2.014160,0.005525,-0.000522,0.207945,0.244141,0.978125,0.001953,0.008301,1.023926,-9.082031,26.953125,32.226563,0.001953,0.000000,0.000000,1.000000,11.900000
1662034786.719537,1662034786.719537,0.000000,0.000000,0.000000,0.000000,0.343700,0.000000,0.001900,99472.000000,11.900000,294344.000000,0.000000,-24.023838,-0.167890,-0.579009,0.244141,1.892090,0.005247,-0.000381,0.208120,0.488281,0.978089,0.000488,0.010742,1.023926,-9.082031,27.246094,31.640625,0.000488,0.000000,0.000000,0.000000,11.900000
1662034786.719537,1662034786.719537,0.000000,0.000000,0.000000,0.000000,0.343700,0.000000,0.001900,99472.000000,11.900000,294344.000000,0.000000,-24.023838,-0.167890,-0.579009,0.244141,1.892090,0.005247,-0.000381,0.208120,0.488281,0.978089,0.000488,0.010742,1.023926,-9.082031,27.246094,31.640625,0.000488,0.000000,0.000000,0.000000,11.900000
1662034786.729218,1662034786.729218,1.000000,0.000217,0.000000,0.000000,0.343700,0.000000,0.001900,99472.000000,11.900000,294344.000000,0.000000,-24.044409,-0.180300,-0.590932,0.183105,1.831055,0.005371,-0.000465,0.208296,0.244141,0.978051,0.003906,0.009766,1.021484,-9.082031,27.246094,31.640625,0.003906,0.000000,0.000000,1.000000,11.900000
1662034786.729218,1662034786.729218,1.000000,0.000217,0.000000,0.000000,0.343700,0.000000,0.001900,99472.000000,11.900000,294344.000000,0.000000,-24.044409,-0.180300,-0.590932,0.183105,1.831055,0.005371,-0.000465,0.208296,0.244141,0.978051,0.003906,0.009766,1.021484,-9.082031,27.246094,31.640625,0.003906,0.000000,0.000000,1.000000,11.900000
1662034786.739378,1662034786.739378,0.000000,0.000000,0.000000,0.000000,0.343700,0.000000,0.001900,99472.000000,12.000000,294344.000000,0.000000,-24.065130,-0.252394,-0.540244,0.610352,2.014160,0.005070,-0.001171,0.208475,0.183105,0.978014,0.005859,0.009277,1.019043,-9.082031,27.246094,31.640625,0.005859,0.000000,0.000000,0.000000,12.000000
1662034786.739378,1662034786.739378,0.000000,0.000000,0.000000,0.000000,0.343700,0.000000,0.001900,99472.000000,12.000000,294344.000000,0.000000,-24.065130,-0.252394,-0.540244,0.610352,2.014160,0.005070,-0.001171,0.208475,0.183105,0.978014,0.005859,0.009277,1.019043,-9.082031,27.246094,31.640625,0.005859,0.000000,0.000000,0.000000,12.000000
1662034786.749139,1662034786.749139,0.000000,0.000000,0.000000,0.000000,0.343700,0.000000,0.001900,99472.000000,11.900000,294344.000000,0.000000,-24.085400,-0.177304,-0.612746,0.244141,2.014160,0.005552,-0.000398,0.208645,0.183105,0.977975,0.002930,0.011230,1.020020,-9.082031,27.246094,31.640625,0.002930,0.000000,0.000000,0.000000,11.900000
1662034786.749139,1662034786.749139,0.000000,0.000000,0.000000,0.000000,0.343700,0.000000,0.001900,99472.000000,11.900000,294344.000000,0.000000,-24.085400,-0.177304,-0.612746,0.244141,2.014160,0.005552,-0.000398,0.208645,0.183105,0.977975,0.002930,0.011230,1.020020,-9.082031,27.246094,31.640625,0.002930,0.000000,0.000000,0.000000,11.900000
1662034786.759414,1662034786.759414,1.000000,0.000217,0.000000,0.000000,0.343700,0.000000,0.001900,99472.000000,11.900000,294344.000000,0.000000,-24.105918,-0.200170,-0.529395,0.366211,1.892090,0.004883,-0.000744,0.208821,0.122070,0.977941,0.001953,0.002441,1.022461,-9.082031,27.246094,31.640625,0.001953,0.000000,0.000000,1.000000,11.900000
1662034786.759414,1662034786.759414,1.000000,0.000217,0.000000,0.000000,0.343700,0.000000,0.001900,99472.000000,11.900000,294344.000000,0.000000,-24.105918,-0.200170,-0.529395,0.366211,1.892090,0.004883,-0.000744,0.208821,0.122070,0.977941,0.001953,0.002441,1.022461,-9.082031,27.246094,31.640625,0.001953,0.000000,0.000000,1.000000,11.900000
1662034786.769191,1662034786.769191,0.000000,0.000000,0.000000,0.000000,0.343700,0.000000,0.001900,99472.000000,11.900000,294344.000000,0.000000,-24.127935,-0.103367,-0.576563,0.793457,1.831055,0.005109,0.000169,0.209005,0.183105,0.977901,-0.000488,0.011230,1.012207,-9.082031,26.953125,31.640625,-0.000488,0.000000,0.000000,0.000000,11.900000
1662034786.769191,1662034786.769191,0.000000,0.000000,0.000000,0.000000,0.343700,0.000000,0.001900,99472.000000,11.900000,294344.000000,0.000000,-24.127935,-0.103367,-0.576563,0.793457,1.831055,0.005109,0.000169,0.209005,0.183105,0.977901,-0.000488,0.011230,1.012207,-9.082031,26.953125,31.640625,-0.000488,0.000000,0.000000,0.000000,11.900000
1662034786.779268,1662034786.779268,0.000000,0.000000,0.000000,0.000000,0.343700,0.000000,0.001900,99472.000000,12.000000,294344.000000,0.000000,-24.147598,-0.124374,-0.547385,0.244141,1.831055,0.004898,-0.000062,0.209174,0.366211,0.977866,0.001465,0.008301,1.016602,-9.082031,26.953125,31.640625,0.001465,0.000000,0.000000,0.000000,12.000000
1662034786.779268,1662034786.779268,0.000000,0.000000,0.000000,0.000000,0.343700,0.000000,0.001900,99472.000000,12.000000,294344.000000,0.000000,-24.147598,-0.124374,-0.547385,0.244141,1.831055,0.004898,-0.000062,0.209174,0.366211,0.977866,0.001465,0.008301,1.016602,-9.082031,26.953125,31.640625,0.001465,0.000000,0.000000,0.000000,12.000000
1662034786.789088,1662034786.789088,-1.000000,-0.000217,0.000000,0.000000,0.343700,0.000000,0.001900,99472.000000,12.000000,294344.000000,0.000000,-24.168285,-0.126326,-0.485985,0.610352,2.075195,0.004378,-0.000190,0.209350,-0.183105,0.977831,0.002441,0.008789,1.019531,-9.082031,26.953125,31.640625,0.002441,0.000000,0.000000,-1.000000,12.000000
1662034786.789088,1662034786.789088,-1.000000,-0.000217,0.000000,0.000000,0.343700,0.000000,0.001900,99472.000000,12.000000,294344.000000,0.000000,-24.168285,-0.126326,-0.485985,0.610352,2.075195,0.004378,-0.000190,0.209350,-0.183105,0.977831,0.002441,0.008789,1.019531,-9.082031,26.953125,31.640625,0.002441,0.000000,0.000000,-1.000000,12.000000
1662034786.799314,1662034786.799314,-2.000000,-0.000433,0.000000,0.000000,0.343700,0.000000,0.001900,99472.000000,11.900000,294344.000000,0.000000,-24.188668,-0.115994,-0.553128,0.427246,1.953125,0.004932,0.000022,0.209524,0.305176,0.977791,-0.003906,0.013672,1.022461,-9.082031,26.953125,31.640625,-0.003906,0.000000,0.000000,-2.000000,11.900000
1662034786.799314,1662034786.799314,-2.000000,-0.000433,0.000000,0.000000,0.343700,0.000000,0.001900,99472.000000,11.900000,294344.000000,0.000000,-24.188668,-0.115994,-0.553128,0.427246,1.953125,0.004932,0.000022,0.209524,0.305176,0.977791,-0.003906,0.013672,1.022461,-9.082031,26.953125,31.640625,-0.003906,0.000000,0.000000,-2.000000,11.900000
1662034786.809078,1662034786.809078,-1.000000,-0.000217,0.000000,0.000000,0.343700,0.000000,0.001900,99472.000000,11.900000,294344.000000,0.000000,-24.209882,-0.122298,-0.540977,0.366211,2.075195,0.004840,-0.000054,0.209705,0.244141,0.977753,-0.002930,0.005371,1.025879,-9.082031,26.953125,31.640625,-0.002930,0.000000,0.000000,-1.000000,11.900000
1662034786.809078,1662034786.809078,-1.000000,-0.000217,0.000000,0.000000,0.343700,0.000000,0.001900,99472.000000,11.900000,294344.000000,0.000000,-24.209882,-0.122298,-0.540977,0.366211,2.075195,0.004840,-0.000054,0.209705,0.244141,0.977753,-0.002930,0.005371,1.025879,-9.082031,26.953125,31.640625,-0.002930,0.000000,0.000000,-1.000000,11.900000
1662034786.819365,1662034786.819365,0.000000,0.000000,0.000000,0.000000,0.343700,0.000000,0.001900,99472.000000,11.900000,294344.000000,0.000000,-24.231655,-0.053051,-0.551241,0.610352,1.892090,0.004800,0.000557,0.209888,0.183105,0.977713,0.000977,0.009766,1.019043,-9.082031,26.953125,31.933594,0.000977,0.000000,0.000000,0.000000,11.900000
1662034786.819365,1662034786.819365,0.000000,0.000000,0.000000,0.000000,0.343700,0.000000,0.001900,99472.000000,11.900000,294344.000000,0.000000,-24.231655,-0.053051,-0.551241,0.610352,1.892090,0.004800,0.000557,0.209888,0.183105,0.977713,0.000977,0.009766,1.019043,-9.082031,26.953125,31.933594,0.000977,0.000000,0.000000,0.000000,11.900000
1662034786.829237,1662034786.829237,0.000000,0.000000,0.000000,0.000000,0.343700,0.000000,0.001900,99472.000000,12.000000,294344.000000,0.000000,-24.252499,-0.050276,-0.607201,0.122070,1.953125,0.005273,0.000684,0.210066,0.427246,0.977673,0.002441,0.011719,1.025391,-9.082031,26.953125,31.933594,0.002441,0.000000,0.000000,0.000000,12.000000
1662034786.829237,1662034786.829237,0.000000,0.000000,0.000000,0.000000,0.343700,0.000000,0.001900,99472.000000,12.000000,294344.000000,0.000000,-24.252499,-0.050276,-0.607201,0.122070,1.953125,0.005273,0.000684,0.210066,0.427246,0.977673,0.002441,0.011719,1.025391,-9.082031,26.953125,31.933594,0.002441,0.000000,0.000000,0.000000,12.000000
1662034786.839374,1662034786.839374,1.000000,0.000217,0.000000,0.000000,0.343700,0.000000,0.001900,99472.000000,12.000000,294344.000000,0.000000,-24.273444,-0.117682,-0.564121,0.732422,2.014160,0.005029,0.000031,0.210247,0.366211,0.977635,0.003906,0.005371,1.018066,-9.082031,26.953125,31.933594,0.003906,0.000000,0.000000,1.000000,12.000000
1662034786.839374,1662034786.839374,1.000000,0.000217,0.000000,0.000000,0.343700,0.000000,0.001900,99472.000000,12.000000,294344.000000,0.000000,-24.273444,-0.117682,-0.564121,0.732422,2.014160,0.005029,0.000031,0.210247,0.366211,0.977635,0.003906,0.005371,1.018066,-9.082031,26.953125,31.933594,0.003906,0.000000,0.000000,1.000000,12.000000
1662034786.849068,1662034786.849068,1.000000,0.000217,0.000000,0.000000,0.343700,0.000000,0.001900,99472.000000,11.900000,294344.000000,0.000000,-24.295068,-0.147873,-0.647347,0.366211,2.075195,0.005794,-0.000073,0.210433,0.671387,0.977591,0.002441,0.012695,1.014648,-9.082031,26.953125,31.933594,0.002441,0.000000,0.000000,1.000000,11.900000
1662034786.849068,1662034786.849068,1.000000,0.000217,0.000000,0.000000,0.343700,0.000000,0.001900,99472.000000,11.900000,294344.000000,0.000000,-24.295068,-0.147873,-0.647347,0.366211,2.075195,0.005794,-0.000073,0.210433,0.671387,0.977591,0.002441,0.012695,1.014648,-9.082031,26.953125,31.933594,0.002441,0.000000,0.000000,1.000000,11.900000
1662034786.859318,1662034786.859318,1.000000,0.000217,0.000000,0.000000,0.343700,0.000000,0.001900,99472.000000,11.900000,294344.000000,0.000000,-24.316081,-0.230783,-0.616048,0.610352,2.075195,0.005680,-0.000837,0.210616,0.366211,0.977552,0.009766,0.004883,1.021484,-9.082031,26.953125,31.933594,0.009766,0.000000,0.000000,1.000000,11.900000
1662034786.859318,1662034786.859318,1.000000,0.000217,0.000000,0.000000,0.343700,0.000000,0.001900,99472.000000,11.900000,294344.000000,0.000000,-24.316081,-0.230783,-0.616048,0.610352,2.075195,0.005680,-0.000837,0.210616,0.366211,0.977552,0.009766,0.004883,1.021484,-9.082031,26.953125,31.933594,0.009766,0.000000,0.000000,1.000000,11.900000
1662034786.869126,1662034786.869126,1.000000,0.000217,0.000000,0.000000,0.343700,0.000000,0.001900,99472.000000,12.000000,294344.000000,0.000000,-24.338360,-0.162246,-0.583240,0.610352,2.014160,0.005274,-0.000311,0.210803,0.366211,0.977514,-0.001953,0.011230,1.022461,-9.375000,27.539063,31.640625,-0.001953,0.000000,0.000000,1.000000,12.000000
1662034786.869126,1662034786.869126,1.000000,0.000217,0.000000,0.000000,0.343700,0.000000,0.001900,99472.000000,12.000000,294344.000000,0.000000,-24.338360,-0.162246,-0.583240,0.610352,2.014160,0.005274,-0.000311,0.210803,0.366211,0.977514,-0.001953,0.011230,1.022461,-9.375000,27.539063,31.640625,-0.001953,0.000000,0.000000,1.000000,12.000000
1662034786.879055,1662034786.879055,1.000000,0.000217,0.000000,0.000000,0.343700,0.000000,0.001900,99472.000000,12.000000,294344.000000,0.000000,-24.360090,-0.069484,-0.626123,0.122070,2.075195,0.005469,0.000560,0.210984,0.427246,0.977474,0.000488,0.011230,1.020996,-9.375000,27.539063,31.640625,0.000488,0.000000,0.000000,1.000000,12.000000
1662034786.879055,1662034786.879055,1.000000,0.000217,0.000000,0.000000,0.343700,0.000000,0.001900,99472.000000,12.000000,294344.000000,0.000000,-24.360090,-0.069484,-0.626123,0.122070,2.075195,0.005469,0.000560,0.210984,0.427246,0.977474,0.000488,0.011230,1.020996,-9.375000,27.539063,31.640625,0.000488,0.000000,0.000000,1.000000,12.000000
1662034786.889071,1662034786.889071,1.000000,0.000217,0.000000,0.000000,0.343700,0.000000,0.001900,99472.000000,11.900000,294344.000000,0.000000,-24.381945,-0.041019,-0.602269,0.793457,2.258301,0.005213,0.000760,0.211170,0.244141,0.977435,-0.000977,0.011230,1.020508,-9.375000,27.539063,31.640625,-0.000977,0.000000,0.000000,1.000000,11.900000
1662034786.889071,1662034786.889071,1.000000,0.000217,0.000000,0.000000,0.343700,0.000000,0.001900,99472.000000,11.900000,294344.000000,0.000000,-24.381945,-0.041019,-0.602269,0.793457,2.258301,0.005213,0.000760,0.211170,0.244141,0.977435,-0.000977,0.011230,1.020508,-9.375000,27.539063,31.640625,-0.000977,0.000000,0.000000,1.000000,11.900000
1662034786.899030,1662034786.899030,1.000000,0.000217,0.000000,0.000000,0.343700,0.000000,0.001900,99472.000000,11.900000,294344.000000,0.000000,-24.404030,-0.070181,-0.599758,0.244141,2.075195,0.005245,0.000508,0.211359,0.244141,0.977394,0.003906,0.014648,1.017578,-9.375000,27.539063,31.640625,0.003906,0.000000,0.000000,1.000000,11.900000
1662034786.899030,1662034786.899030,1.000000,0.000217,0.000000,0.000000,0.343700,0.000000,0.001900,99472.000000,11.900000,294344.000000,0.000000,-24.404030,-0.070181,-0.599758,0.244141,2.075195,0.005245,0.000508,0.211359,0.244141,0.977394,0.003906,0.014648,1.017578,-9.375000,27.539063,31.640625,0.003906,0.000000,0.000000,1.000000,11.900000
1662034786.909058,1662034786.909058,0.000000,0.000000,0.000000,0.000000,0.343700,0.000000,0.001900,99472.000000,11.900000,294344.000000,0.000000,-24.424367,-0.124995,-0.583128,0.549316,2.014160,0.005204,0.000010,0.211535,0.305176,0.977356,0.003418,0.006836,1.023438,-9.375000,27.539063,31.640625,0.003418,0.000000,0.000000,0.000000,11.900000
1662034786.909058,1662034786.909058,0.000000,0.000000,0.000000,0.000000,0.343700,0.000000,0.001900,99472.000000,11.900000,294344.000000,0.000000,-24.424367,-0.124995,-0.583128,0.549316,2.014160,0.005204,0.000010,0.211535,0.305176,0.977356,0.003418,0.006836,1.023438,-9.375000,27.539063,31.640625,0.003418,0.000000,0.000000,0.000000,11.900000
1662034786.919098,1662034786.919098,0.000000,0.000000,0.000000,0.000000,0.343700,0.000000,0.001900,99472.000000,12.000000,294344.000000,0.000000,-24.446820,-0.151466,-0.602537,0.671387,2.075195,0.005419,-0.000179,0.211728,0.366211,0.977314,0.003418,0.009766,1.013672,-9.082031,26.953125,31.933594,0.003418,0.000000,0.000000,0.000000,12.000000
1662034786.919098,1662034786.919098,0.000000,0.000000,0.000000,0.000000,0.343700,0.000000,0.001900,99472.000000,12.000000,294344.000000,0.000000,-24.446820,-0.151466,-0.602537,0.671387,2.075195,0.005419,-0.000179,0.211728,0.366211,0.977314,0.003418,0.009766,1.013672,-9.082031,26.953125,31.933594,0.003418,0.000000,0.000000,0.000000,12.000000
1662034786.929015,1662034786.929015,0.000000,0.000000,0.000000,0.000000,0.343700,0.000000,0.001900,99472.000000,12.000000,294344.000000,0.000000,-24.467022,-0.147668,-0.613333,0.183105,1.831055,0.005504,-0.000125,0.211900,0.366211,0.977276,0.004395,0.011230,1.022949,-9.082031,26.953125,31.933594,0.004395,0.000000,0.000000,0.000000,12.000000
1662034786.929015,1662034786.929015,0.000000,0.000000,0.000000,0.000000,0.343700,0.000000,0.001900,99472.000000,12.000000,294344.000000,0.000000,-24.467022,-0.147668,-0.613333,0.183105,1.831055,0.005504,-0.000125,0.211900,0.366211,0.977276,0.004395,0.011230,1.022949,-9.082031,26.953125,31.933594,0.004395,0.000000,0.000000,0.000000,12.000000
1662034786.939355,1662034786.939355,0.000000,0.000000,0.000000,0.000000,0.343700,0.000000,0.001900,99472.000000,12.000000,294344.000000,0.000000,-24.487999,-0.163854,-0.585567,0.671387,1.953125,0.005297,-0.000314,0.212079,0.488281,0.977238,0.001465,0.008301,1.023438,-9.082031,26.953125,31.933594,0.001465,0.000000,0.000000,0.000000,12.000000
1662034786.939355,1662034786.939355,0.000000,0.000000,0.000000,0.000000,0.343700,0.000000,0.001900,99472.000000,12.000000,294344.000000,0.000000,-24.487999,-0.163854,-0.585567,0.671387,1.953125,0.005297,-0.000314,0.212079,0.488281,0.977238,0.001465,0.008301,1.023438,-9.082031,26.953125,31.933594,0.001465,0.000000,0.000000,0.000000,12.000000
1662034786.949175,1662034786.949175,1.000000,0.000217,0.000000,0.000000,0.343700,0.000000,0.001900,99472.000000,11.900000,294344.000000,0.000000,-24.509495,-0.157180,-0.587946,0.183105,1.953125,0.005305,-0.000251,0.212263,0.183105,0.977198,0.002930,0.009277,1.021484,-9.082031,26.953125,31.933594,0.002930,0.000000,0.000000,1.000000,11.900000
1662034786.949175,1662034786.949175,1.000000,0.000217,0.000000,0.000000,0.343700,0.000000,0.001900,99472.000000,11.900000,294344.000000,0.000000,-24.509495,-0.157180,-0.587946,0.183105,1.953125,0.005305,-0.000251,0.212263,0.183105,0.977198,0.002930,0.009277,1.021484,-9.082031,26.953125,31.933594,0.002930,0.000000,0.000000,1.000000,11.900000
1662034786.959540,1662034786.959540,4.000000,0.000867,0.000000,0.000000,0.343700,0.000000,0.001900,99472.000000,11.900000,294344.000000,0.000000,-24.528471,-0.108715,-0.563672,0.183105,1.708984,0.005008,0.000118,0.212422,0.366211,0.977165,0.001953,0.008301,1.020996,-9.082031,26.953125,31.933594,0.001953,0.000000,0.000000,4.000000,11.900000
1662034786.959540,1662034786.959540,4.000000,0.000867,0.000000,0.000000,0.343700,0.000000,0.001900,99472.000000,11.900000,294344.000000,0.000000,-24.528471,-0.108715,-0.563672,0.183105,1.708984,0.005008,0.000118,0.212422,0.366211,0.977165,0.001953,0.008301,1.020996,-9.082031,26.953125,31.933594,0.001953,0.000000,0.000000,4.000000,11.900000
1662034786.969171,1662034786.969171,4.000000,0.000867,0.000000,0.000000,0.343700,0.000000,0.001900,99472.000000,12.000000,294344.000000,0.000000,-24.549300,-0.118645,-0.573393,0.610352,1.892090,0.005110,0.000052,0.212600,0.366211,0.977126,0.001953,0.012695,1.022461,-8.203125,26.953125,31.933594,0.001953,0.000000,0.000000,4.000000,12.000000
1662034786.969171,1662034786.969171,4.000000,0.000867,0.000000,0.000000,0.343700,0.000000,0.001900,99472.000000,12.000000,294344.000000,0.000000,-24.549300,-0.118645,-0.573393,0.610352,1.892090,0.005110,0.000052,0.212600,0.366211,0.977126,0.001953,0.012695,1.022461,-8.203125,26.953125,31.933594,0.001953,0.000000,0.000000,4.000000,12.000000
1662034786.979561,1662034786.979561,2.000000,0.000433,0.000000,0.000000,0.343700,0.000000,0.001900,99472.000000,11.900000,294344.000000,0.000000,-24.569840,-0.036122,-0.537052,0.183105,1.831055,0.004646,0.000689,0.212772,0.183105,0.977091,-0.000977,0.007324,1.017578,-8.203125,26.953125,31.933594,-0.000977,0.000000,0.000000,2.000000,11.900000
1662034786.979561,1662034786.979561,2.000000,0.000433,0.000000,0.000000,0.343700,0.000000,0.001900,99472.000000,11.900000,294344.000000,0.000000,-24.569840,-0.036122,-0.537052,0.183105,1.831055,0.004646,0.000689,0.212772,0.183105,0.977091,-0.000977,0.007324,1.017578,-8.203125,26.953125,31.933594,-0.000977,0.000000,0.000000,2.000000,11.900000
1662034786.989389,1662034786.989389,2.000000,0.000433,0.000000,0.000000,0.343700,0.000000,0.001900,99472.000000,11.900000,294344.000000,0.000000,-24.590792,-0.078841,-0.452712,0.793457,1.953125,0.004007,0.000169,0.212953,0.183105,0.977054,0.001953,0.006348,1.016113,-8.203125,26.953125,31.933594,0.001953,0.000000,0.000000,2.000000,11.900000
1662034786.989389,1662034786.989389,2.000000,0.000433,0.000000,0.000000,0.343700,0.000000,0.001900,99472.000000,11.900000,294344.000000,0.000000,-24.590792,-0.078841,-0.452712,0.793457,1.953125,0.004007,0.000169,0.212953,0.183105,0.977054,0.001953,0.006348,1.016113,-8.203125,26.953125,31.933594,0.001953,0.000000,0.000000,2.000000,11.900000
1662034786.999341,1662034786.999341,1.000000,0.000217,0.000000,0.000000,0.343700,0.000000,0.001900,99472.000000,11.900000,294344.000000,0.000000,-24.611641,-0.091602,-0.460258,0.488281,2.014160,0.004095,0.000075,0.213131,0.366211,0.977015,0.001953,0.013184,1.019531,-8.203125,26.953125,31.933594,0.001953,0.000000,0.000000,1.000000,11.900000
1662034786.999341,1662034786.999341,1.000000,0.000217,0.000000,0.000000,0.343700,0.000000,0.001900,99472.000000,11.900000,294344.000000,0.000000,-24.611641,-0.091602,-0.460258,0.488281,2.014160,0.004095,0.000075,0.213131,0.366211,0.977015,0.001953,0.013184,1.019531,-8.203125,26.953125,31.933594,0.001953,0.000000,0.000000,1.000000,11.900000
1662034787.009257,1662034787.009257,1.000000,0.000217,0.000000,0.000000,0.343700,0.000000,0.001900,99472.000000,12.000000,294344.000000,0.000000,-24.632449,-0.179578,-0.489492,0.549316,2.075195,0.004508,-0.000620,0.213311,0.183105,0.976974,0.006348,0.008301,1.020996,-8.203125,26.953125,31.933594,0.006348,0.000000,0.000000,1.000000,12.000000
1662034787.009257,1662034787.009257,1.000000,0.000217,0.000000,0.000000,0.343700,0.000000,0.001900,99472.000000,12.000000,294344.000000,0.000000,-24.632449,-0.179578,-0.489492,0.549316,2.075195,0.004508,-0.000620,0.213311,0.183105,0.976974,0.006348,0.008301,1.020996,-8.203125,26.953125,31.933594,0.006348,0.000000,0.000000,1.000000,12.000000
1662034787.019367,1662034787.019367,1.000000,0.000217,0.000000,0.000000,0.343700,0.000000,0.001900,99472.000000,12.000000,294344.000000,0.000000,-24.653259,-0.127916,-0.513613,0.732422,1.953125,0.004617,-0.000134,0.213487,0.488281,0.976935,0.001465,0.008301,1.016602,-8.789063,26.953125,31.933594,0.001465,0.000000,0.000000,1.000000,12.000000
1662034787.019367,1662034787.019367,1.000000,0.000217,0.000000,0.000000,0.343700,0.000000,0.001900,99472.000000,12.000000,294344.000000,0.000000,-24.653259,-0.127916,-0.513613,0.732422,1.953125,0.004617,-0.000134,0.213487,0.488281,0.976935,0.001465,0.008301,1.016602,-8.789063,26.953125,31.933594,0.001465,0.000000,0.000000,1.000000,12.000000
1662034787.029229,1662034787.029229,0.000000,0.000000,0.000000,0.000000,0.343700,0.000000,0.001900,99472.000000,12.000000,294344.000000,0.000000,-24.674895,-0.105798,-0.612882,0.061035,2.014160,0.005422,0.000241,0.213671,0.427246,0.976891,0.002441,0.016113,1.017578,-8.789063,26.953125,31.933594,0.002441,0.000000,0.000000,0.000000,12.000000
1662034787.029229,1662034787.029229,0.000000,0.000000,0.000000,0.000000,0.343700,0.000000,0.001900,99472.000000,12.000000,294344.000000,0.000000,-24.674895,-0.105798,-0.612882,0.061035,2.014160,0.005422,0.000241,0.213671,0.427246,0.976891,0.002441,0.016113,1.017578,-8.789063,26.953125,31.933594,0.002441,0.000000,0.000000,0.000000,12.000000
1662034787.039320,1662034787.039320,1.000000,0.000217,0.000000,0.000000,0.343700,0.000000,0.001900,99472.000000,11.900000,294344.000000,0.000000,-24.696152,-0.071983,-0.545851,0.793457,1.953125,0.004788,0.000405,0.213851,0.061035,0.976855,0.002930,0.003906,1.019531,-8.789063,26.953125,31.933594,0.002930,0.000000,0.000000,1.000000,11.900000
1662034787.039320,1662034787.039320,1.000000,0.000217,0.000000,0.000000,0.343700,0.000000,0.001900,99472.000000,11.900000,294344.000000,0.000000,-24.696152,-0.071983,-0.545851,0.793457,1.953125,0.004788,0.000405,0.213851,0.061035,0.976855,0.002930,0.003906,1.019531,-8.789063,26.953125,31.933594,0.002930,0.000000,0.000000,1.000000,11.900000
1662034787.049411,1662034787.049411,0.000000,0.000000,0.000000,0.000000,0.343700,0.000000,0.001900,99472.000000,12.000000,294344.000000,0.000000,-24.715666,-0.087563,-0.639573,0.305176,1.892090,0.005616,0.000448,0.214017,0.610352,0.976814,0.001465,0.011230,1.023926,-8.789063,26.953125,31.933594,0.001465,0.000000,0.000000,0.000000,12.000000
1662034787.049411,1662034787.049411,0.000000,0.000000,0.000000,0.000000,0.343700,0.000000,0.001900,99472.000000,12.000000,294344.000000,0.000000,-24.715666,-0.087563,-0.639573,0.305176,1.892090,0.005616,0.000448,0.214017,0.610352,0.976814,0.001465,0.011230,1.023926,-8.789063,26.953125,31.933594,0.001465,0.000000,0.000000,0.000000,12.000000
1662034787.059412,1662034787.059412,0.000000,0.000000,0.000000,0.000000,0.343700,0.000000,0.001900,99472.000000,11.900000,294344.000000,0.000000,-24.733930,-0.093375,-0.635533,0.488281,1.770020,0.005592,0.000392,0.214173,0.244141,0.976780,0.000000,0.008789,1.021484,-8.789063,26.953125,31.933594,0.000000,0.000000,0.000000,0.000000,11.900000
1662034787.059412,1662034787.059412,0.000000,0.000000,0.000000,0.000000,0.343700,0.000000,0.001900,99472.000000,11.900000,294344.000000,0.000000,-24.733930,-0.093375,-0.635533,0.488281,1.770020,0.005592,0.000392,0.214173,0.244141,0.976780,0.000000,0.008789,1.021484,-8.789063,26.953125,31.933594,0.000000,0.000000,0.000000,0.000000,11.900000
1662034787.069335,1662034787.069335,0.000000,0.000000,0.000000,0.000000,0.343700,0.000000,0.001900,99472.000000,12.000000,294344.000000,0.000000,-24.753989,-0.176378,-0.584984,0.549316,1.892090,0.005316,-0.000409,0.214348,0.183105,0.976743,0.006348,0.008789,1.010254,-9.082031,27.539063,31.640625,0.006348,0.000000,0.000000,0.000000,12.000000
1662034787.069335,1662034787.069335,0.000000,0.000000,0.000000,0.000000,0.343700,0.000000,0.001900,99472.000000,12.000000,294344.000000,0.000000,-24.753989,-0.176378,-0.584984,0.549316,1.892090,0.005316,-0.000409,0.214348,0.183105,0.976743,0.006348,0.008789,1.010254,-9.082031,27.539063,31.640625,0.006348,0.000000,0.000000,0.000000,12.000000
1662034787.079480,1662034787.079480,1.000000,0.000217,0.000000,0.000000,0.343700,0.000000,0.001900,99472.000000,11.900000,294344.000000,0.000000,-24.773719,-0.189498,-0.647872,0.366211,1.831055,0.005877,-0.000402,0.214517,0.122070,0.976703,0.006348,0.012695,1.021973,-9.082031,27.539063,31.640625,0.006348,0.000000,0.000000,1.000000,11.900000
1662034787.079480,1662034787.079480,1.000000,0.000217,0.000000,0.000000,0.343700,0.000000,0.001900,99472.000000,11.900000,294344.000000,0.000000,-24.773719,-0.189498,-0.647872,0.366211,1.831055,0.005877,-0.000402,0.214517,0.122070,0.976703,0.006348,0.012695,1.021973,-9.082031,27.539063,31.640625,0.006348,0.000000,0.000000,1.000000,11.900000
1662034787.089175,1662034787.089175,1.000000,0.000217,0.000000,0.000000,0.343700,0.000000,0.001900,99472.000000,11.900000,294344.000000,0.000000,-24.794189,-0.156340,-0.561696,0.915527,1.892090,0.005080,-0.000280,0.214690,0.427246,0.976669,0.000977,0.007324,1.018555,-9.082031,27.539063,31.640625,0.000977,0.000000,0.000000,1.000000,11.900000
1662034787.089175,1662034787.089175,1.000000,0.000217,0.000000,0.000000,0.343700,0.000000,0.001900,99472.000000,11.900000,294344.000000,0.000000,-24.794189,-0.156340,-0.561696,0.915527,1.892090,0.005080,-0.000280,0.214690,0.427246,0.976669,0.000977,0.007324,1.018555,-9.082031,27.539063,31.640625,0.000977,0.000000,0.000000,1.000000,11.900000
1662034787.099361,1662034787.099361,1.000000,0.000217,0.000000,0.000000,0.343700,0.000000,0.001900,99472.000000,12.000000,294344.000000,0.000000,-24.814839,-0.091485,-0.558326,0.366211,1.892090,0.004930,0.000267,0.214863,0.183105,0.976632,-0.003906,0.015625,1.022949,-9.082031,27.539063,31.640625,-0.003906,0.000000,0.000000,1.000000,12.000000
1662034787.099361,1662034787.099361,1.000000,0.000217,0.000000,0.000000,0.343700,0.000000,0.001900,99472.000000,12.000000,294344.000000,0.000000,-24.814839,-0.091485,-0.558326,0.366211,1.892090,0.004930,0.000267,0.214863,0.183105,0.976632,-0.003906,0.015625,1.022949,-9.082031,27.539063,31.640625,-0.003906,0.000000,0.000000,1.000000,12.000000
1662034787.109412,1662034787.109412,0.000000,0.000000,0.000000,0.000000,0.343700,0.000000,0.001900,99472.000000,11.900000,294344.000000,0.000000,-24.833472,-0.139677,-0.542533,0.488281,1.586914,0.004886,-0.000172,0.215024,0.183105,0.976597,0.002930,0.007324,1.022949,-9.082031,27.539063,31.640625,0.002930,0.000000,0.000000,0.000000,11.900000
1662034787.109412,1662034787.109412,0.000000,0.000000,0.000000,0.000000,0.343700,0.000000,0.001900,99472.000000,11.900000,294344.000000,0.000000,-24.833472,-0.139677,-0.542533,0.488281,1.586914,0.004886,-0.000172,0.215024,0.183105,0.976597,0.002930,0.007324,1.022949,-9.082031,27.539063,31.640625,0.002930,0.000000,0.000000,0.000000,11.900000
1662034787.119392,1662034787.119392,0.000000,0.000000,0.000000,0.000000,0.343700,0.000000,0.001900,99472.000000,11.900000,294344.000000,0.000000,-24.853696,-0.142224,-0.566340,0.671387,1.831055,0.005094,-0.000149,0.215196,0.488281,0.976558,-0.000488,0.011719,1.016113,-9.082031,26.953125,31.054688,-0.000488,0.000000,0.000000,0.000000,11.900000
1662034787.119392,1662034787.119392,0.000000,0.000000,0.000000,0.000000,0.343700,0.000000,0.001900,99472.000000,11.900000,294344.000000,0.000000,-24.853696,-0.142224,-0.566340,0.671387,1.831055,0.005094,-0.000149,0.215196,0.488281,0.976558,-0.000488,0.011719,1.016113,-9.082031,26.953125,31.054688,-0.000488,0.000000,0.000000,0.000000,11.900000
1662034787.129259,1662034787.129259,0.000000,0.000000,0.000000,0.000000,0.343700,0.000000,0.001900,99472.000000,11.900000,294344.000000,0.000000,-24.872619,-0.069434,-0.572800,0.305176,1.770020,0.005012,0.000485,0.215354,0.610352,0.976523,-0.000977,0.007813,1.017578,-9.082031,26.953125,31.054688,-0.000977,0.000000,0.000000,0.000000,11.900000
1662034787.129259,1662034787.129259,0.000000,0.000000,0.000000,0.000000,0.343700,0.000000,0.001900,99472.000000,11.900000,294344.000000,0.000000,-24.872619,-0.069434,-0.572800,0.305176,1.770020,0.005012,0.000485,0.215354,0.610352,0.976523,-0.000977,0.007813,1.017578,-9.082031,26.953125,31.054688,-0.000977,0.000000,0.000000,0.000000,11.900000
1662034787.139585,1662034787.139585,1.000000,0.000217,0.000000,0.000000,0.343700,0.000000,0.001900,99472.000000,12.000000,294344.000000,0.000000,-24.891986,-0.080635,-0.504569,0.671387,1.708984,0.004451,0.000262,0.215520,0.122070,0.976489,-0.000488,0.005859,1.016602,-9.082031,26.953125,31.054688,-0.000488,0.000000,0.000000,1.000000,12.000000
1662034787.139585,1662034787.139585,1.000000,0.000217,0.000000,0.000000,0.343700,0.000000,0.001900,99472.000000,12.000000,294344.000000,0.000000,-24.891986,-0.080635,-0.504569,0.671387,1.708984,0.004451,0.000262,0.215520,0.122070,0.976489,-0.000488,0.005859,1.016602,-9.082031,26.953125,31.054688,-0.000488,0.000000,0.000000,1.000000,12.000000
1662034787.149123,1662034787.149123,0.000000,0.000000,0.000000,0.000000,0.343700,0.000000,0.001900,99472.000000,11.900000,294344.000000,0.000000,-24.912381,-0.144457,-0.586205,0.122070,2.075195,0.005267,-0.000128,0.215696,0.610352,0.976446,0.006836,0.014160,1.018066,-9.082031,26.953125,31.054688,0.006836,0.000000,0.000000,0.000000,11.900000
1662034787.149123,1662034787.149123,0.000000,0.000000,0.000000,0.000000,0.343700,0.000000,0.001900,99472.000000,11.900000,294344.000000,0.000000,-24.912381,-0.144457,-0.586205,0.122070,2.075195,0.005267,-0.000128,0.215696,0.610352,0.976446,0.006836,0.014160,1.018066,-9.082031,26.953125,31.054688,0.006836,0.000000,0.000000,0.000000,11.900000
1662034787.159464,1662034787.159464,0.000000,0.000000,0.000000,0.000000,0.343700,0.000000,0.001900,99472.000000,11.900000,294344.000000,0.000000,-24.932496,-0.107816,-0.490896,0.305176,2.014160,0.004386,0.000006,0.215866,0.061035,0.976413,0.001953,0.008789,1.017090,-9.082031,26.953125,31.054688,0.001953,0.000000,0.000000,0.000000,11.900000
1662034787.159464,1662034787.159464,0.000000,0.000000,0.000000,0.000000,0.343700,0.000000,0.001900,99472.000000,11.900000,294344.000000,0.000000,-24.932496,-0.107816,-0.490896,0.305176,2.014160,0.004386,0.000006,0.215866,0.061035,0.976413,0.001953,0.008789,1.017090,-9.082031,26.953125,31.054688,0.001953,0.000000,0.000000,0.000000,11.900000
1662034787.169268,1662034787.169268,0.000000,0.000000,0.000000,0.000000,0.343700,0.000000,0.001900,99472.000000,12.000000,294344.000000,0.000000,-24.953966,-0.041991,-0.514837,0.366211,1.953125,0.004466,0.000613,0.216047,0.244141,0.976373,0.000488,0.009766,1.019531,-9.667969,26.953125,32.226563,0.000488,0.000000,0.000000,0.000000,12.000000
1662034787.169268,1662034787.169268,0.000000,0.000000,0.000000,0.000000,0.343700,0.000000,0.001900,99472.000000,12.000000,294344.000000,0.000000,-24.953966,-0.041991,-0.514837,0.366211,1.953125,0.004466,0.000613,0.216047,0.244141,0.976373,0.000488,0.009766,1.019531,-9.667969,26.953125,32.226563,0.000488,0.000000,0.000000,0.000000,12.000000
1662034787.179485,1662034787.179485,-1.000000,-0.000217,0.000000,0.000000,0.343700,0.000000,0.001900,99472.000000,11.900000,294344.000000,0.000000,-24.975145,-0.001181,-0.589063,0.122070,1.892090,0.005021,0.001101,0.216225,0.244141,0.976330,0.000000,0.010254,1.019531,-9.667969,26.953125,32.226563,0.000000,0.000000,0.000000,-1.000000,11.900000
1662034787.179485,1662034787.179485,-1.000000,-0.000217,0.000000,0.000000,0.343700,0.000000,0.001900,99472.000000,11.900000,294344.000000,0.000000,-24.975145,-0.001181,-0.589063,0.122070,1.892090,0.005021,0.001101,0.216225,0.244141,0.976330,0.000000,0.010254,1.019531,-9.667969,26.953125,32.226563,0.000000,0.000000,0.000000,-1.000000,11.900000
1662034787.189378,1662034787.189378,-1.000000,-0.000217,0.000000,0.000000,0.343700,0.000000,0.001900,99472.000000,11.900000,294344.000000,0.000000,-24.995081,-0.041028,-0.511286,0.732422,1.892090,0.004434,0.000616,0.216397,0.244141,0.976295,0.000977,0.005371,1.023926,-9.667969,26.953125,32.226563,0.000977,0.000000,0.000000,-1.000000,11.900000
1662034787.189378,1662034787.189378,-1.000000,-0.000217,0.000000,0.000000,0.343700,0.000000,0.001900,99472.000000,11.900000,294344.000000,0.000000,-24.995081,-0.041028,-0.511286,0.732422,1.892090,0.004434,0.000616,0.216397,0.244141,0.976295,0.000977,0.005371,1.023926,-9.667969,26.953125,32.226563,0.000977,0.000000,0.000000,-1.000000,11.900000
1662034787.199387,1662034787.199387,-1.000000,-0.000217,0.000000,0.000000,0.343700,0.000000,0.001900,99472.000000,11.900000,294344.000000,0.000000,-25.013599,-0.093361,-0.595180,0.244141,1.586914,0.005247,0.000329,0.216557,0.122070,0.976256,0.001953,0.011719,1.022461,-9.667969,26.953125,32.226563,0.001953,0.000000,0.000000,-1.000000,11.900000
1662034787.199387,1662034787.199387,-1.000000,-0.000217,0.000000,0.000000,0.343700,0.000000,0.001900,99472.000000,11.900000,294344.000000,0.000000,-25.013599,-0.093361,-0.595180,0.244141,1.586914,0.005247,0.000329,0.216557,0.122070,0.976256,0.001953,0.011719,1.022461,-9.667969,26.953125,32.226563,0.001953,0.000000,0.000000,-1.000000,11.900000
1662034787.209306,1662034787.209306,-2.000000,-0.000433,0.000000,0.000000,0.343700,0.000000,0.001900,99472.000000,11.900000,294344.000000,0.000000,-25.032698,-0.120951,-0.503830,0.610352,1.831055,0.004521,-0.000078,0.216720,0.305176,0.976223,0.005859,0.002441,1.020508,-9.667969,26.953125,32.226563,0.005859,0.000000,0.000000,-2.000000,11.900000
1662034787.209306,1662034787.209306,-2.000000,-0.000433,0.000000,0.000000,0.343700,0.000000,0.001900,99472.000000,11.900000,294344.000000,0.000000,-25.032698,-0.120951,-0.503830,0.610352,1.831055,0.004521,-0.000078,0.216720,0.305176,0.976223,0.005859,0.002441,1.020508,-9.667969,26.953125,32.226563,0.005859,0.000000,0.000000,-2.000000,11.900000
1662034787.219379,1662034787.219379,0.000000,0.000000,0.000000,0.000000,0.343700,0.000000,0.001900,99472.000000,11.900000,294344.000000,0.000000,-25.053272,-0.103116,-0.495017,0.610352,2.136230,0.004412,0.000059,0.216895,0.366211,0.976185,-0.003418,0.012207,1.019531,-9.375000,26.953125,31.933594,-0.003418,0.000000,0.000000,0.000000,11.900000
1662034787.219379,1662034787.219379,0.000000,0.000000,0.000000,0.000000,0.343700,0.000000,0.001900,99472.000000,11.900000,294344.000000,0.000000,-25.053272,-0.103116,-0.495017,0.610352,2.136230,0.004412,0.000059,0.216895,0.366211,0.976185,-0.003418,0.012207,1.019531,-9.375000,26.953125,31.933594,-0.003418,0.000000,0.000000,0.000000,11.900000
1662034787.229138,1662034787.229138,-2.000000,-0.000433,0.000000,0.000000,0.343700,0.000000,0.001900,99472.000000,12.000000,294344.000000,0.000000,-25.074038,-0.156856,-0.551390,0.183105,1.953125,0.004994,-0.000292,0.217074,0.366211,0.976142,0.002441,0.009766,1.018555,-9.375000,26.953125,31.933594,0.002441,0.000000,0.000000,-2.000000,12.000000
1662034787.229138,1662034787.229138,-2.000000,-0.000433,0.000000,0.000000,0.343700,0.000000,0.001900,99472.000000,12.000000,294344.000000,0.000000,-25.074038,-0.156856,-0.551390,0.183105,1.953125,0.004994,-0.000292,0.217074,0.366211,0.976142,0.002441,0.009766,1.018555,-9.375000,26.953125,31.933594,0.002441,0.000000,0.000000,-2.000000,12.000000
1662034787.239285,1662034787.239285,-2.000000,-0.000433,0.000000,0.000000,0.343700,0.000000,0.001900,99472.000000,11.900000,294344.000000,0.000000,-25.095162,-0.150188,-0.562265,0.854492,2.075195,0.005074,-0.000213,0.217254,0.671387,0.976102,0.000000,0.007813,1.022461,-9.375000,26.953125,31.933594,0.000000,0.000000,0.000000,-2.000000,11.900000
1662034787.239285,1662034787.239285,-2.000000,-0.000433,0.000000,0.000000,0.343700,0.000000,0.001900,99472.000000,11.900000,294344.000000,0.000000,-25.095162,-0.150188,-0.562265,0.854492,2.075195,0.005074,-0.000213,0.217254,0.671387,0.976102,0.000000,0.007813,1.022461,-9.375000,26.953125,31.933594,0.000000,0.000000,0.000000,-2.000000,11.900000
1662034787.249104,1662034787.249104,-2.000000,-0.000433,0.000000,0.000000,0.343700,0.000000,0.001900,99472.000000,11.900000,294344.000000,0.000000,-25.116653,-0.113460,-0.602618,0.366211,1.892090,0.005348,0.000177,0.217435,0.549316,0.976060,0.002441,0.011719,1.020508,-9.375000,26.953125,31.933594,0.002441,0.000000,0.000000,-2.000000,11.900000
1662034787.249104,1662034787.249104,-2.000000,-0.000433,0.000000,0.000000,0.343700,0.000000,0.001900,99472.000000,11.900000,294344.000000,0.000000,-25.116653,-0.113460,-0.602618,0.366211,1.892090,0.005348,0.000177,0.217435,0.549316,0.976060,0.002441,0.011719,1.020508,-9.375000,26.953125,31.933594,0.002441,0.000000,0.000000,-2.000000,11.900000
1662034787.259161,1662034787.259161,-1.000000,-0.000217,0.000000,0.000000,0.343700,0.000000,0.001900,99472.000000,12.000000,294344.000000,0.000000,-25.138159,-0.039964,-0.549857,0.244141,2.136230,0.004759,0.000704,0.217616,0.061035,0.976023,-0.000488,0.006836,1.012695,-9.375000,26.953125,31.933594,-0.000488,0.000000,0.000000,-1.000000,12.000000
1662034787.259161,1662034787.259161,-1.000000,-0.000217,0.000000,0.000000,0.343700,0.000000,0.001900,99472.000000,12.000000,294344.000000,0.000000,-25.138159,-0.039964,-0.549857,0.244141,2.136230,0.004759,0.000704,0.217616,0.061035,0.976023,-0.000488,0.006836,1.012695,-9.375000,26.953125,31.933594,-0.000488,0.000000,0.000000,-1.000000,12.000000
1662034787.269191,1662034787.269191,-2.000000,-0.000433,0.000000,0.000000,0.343700,0.000000,0.001900,99472.000000,12.000000,294344.000000,0.000000,-25.157687,0.005035,-0.633341,0.671387,1.831055,0.005385,0.001247,0.217779,0.122070,0.975982,-0.000977,0.011719,1.022949,-8.496094,26.367188,31.933594,-0.000977,0.000000,0.000000,-2.000000,12.000000
1662034787.269191,1662034787.269191,-2.000000,-0.000433,0.000000,0.000000,0.343700,0.000000,0.001900,99472.000000,12.000000,294344.000000,0.000000,-25.157687,0.005035,-0.633341,0.671387,1.831055,0.005385,0.001247,0.217779,0.122070,0.975982,-0.000977,0.011719,1.022949,-8.496094,26.367188,31.933594,-0.000977,0.000000,0.000000,-2.000000,12.000000
1662034787.279484,1662034787.279484,-1.000000,-0.000217,0.000000,0.000000,0.343700,0.000000,0.001900,99472.000000,11.900000,294344.000000,0.000000,-25.178623,-0.050997,-0.651830,0.000000,2.075195,0.005648,0.000805,0.217960,0.366211,0.975941,0.003418,0.009766,1.018066,-8.496094,26.367188,31.933594,0.003418,0.000000,0.000000,-1.000000,11.900000
1662034787.279484,1662034787.279484,-1.000000,-0.000217,0.000000,0.000000,0.343700,0.000000,0.001900,99472.000000,11.900000,294344.000000,0.000000,-25.178623,-0.050997,-0.651830,0.000000,2.075195,0.005648,0.000805,0.217960,0.366211,0.975941,0.003418,0.009766,1.018066,-8.496094,26.367188,31.933594,0.003418,0.000000,0.000000,-1.000000,11.900000
1662034787.289271,1662034787.289271,-2.000000,-0.000433,0.000000,0.000000,0.343700,0.000000,0.001900,99472.000000,11.900000,294344.000000,0.000000,-25.198467,-0.144238,-0.685352,0.427246,1.892090,0.006111,0.000076,0.218133,0.427246,0.975900,0.003418,0.012695,1.025879,-8.496094,26.367188,31.933594,0.003418,0.000000,0.000000,-2.000000,11.900000
1662034787.289271,1662034787.289271,-2.000000,-0.000433,0.000000,0.000000,0.343700,0.000000,0.001900,99472.000000,11.900000,294344.000000,0.000000,-25.198467,-0.144238,-0.685352,0.427246,1.892090,0.006111,0.000076,0.218133,0.427246,0.975900,0.003418,0.012695,1.025879,-8.496094,26.367188,31.933594,0.003418,0.000000,0.000000,-2.000000,11.900000
1662034787.299375,1662034787.299375,-1.000000,-0.000217,0.000000,0.000000,0.343700,0.000000,0.001900,99472.000000,11.900000,294344.000000,0.000000,-25.217052,-0.150057,-0.697276,0.427246,1.647949,0.006224,0.000050,0.218292,0.244141,0.975864,0.001465,0.014160,1.019043,-8.496094,26.367188,31.933594,0.001465,0.000000,0.000000,-1.000000,11.900000
1662034787.299375,1662034787.299375,-1.000000,-0.000217,0.000000,0.000000,0.343700,0.000000,0.001900,99472.000000,11.900000,294344.000000,0.000000,-25.217052,-0.150057,-0.697276,0.427246,1.647949,0.006224,0.000050,0.218292,0.244141,0.975864,0.001465,0.014160,1.019043,-8.496094,26.367188,31.933594,0.001465,0.000000,0.000000,-1.000000,11.900000
1662034787.309422,1662034787.309422,0.000000,0.000000,0.000000,0.000000,0.343700,0.000000,0.001900,99472.000000,11.900000,294344.000000,0.000000,-25.235944,-0.184993,-0.605213,0.488281,1.708984,0.005507,-0.000422,0.218454,0.305176,0.975832,0.005859,0.004395,1.020020,-8.496094,26.367188,31.933594,0.005859,0.000000,0.000000,0.000000,11.900000
1662034787.309422,1662034787.309422,0.000000,0.000000,0.000000,0.000000,0.343700,0.000000,0.001900,99472.000000,11.900000,294344.000000,0.000000,-25.235944,-0.184993,-0.605213,0.488281,1.708984,0.005507,-0.000422,0.218454,0.305176,0.975832,0.005859,0.004395,1.020020,-8.496094,26.367188,31.933594,0.005859,0.000000,0.000000,0.000000,11.900000
1662034787.319375,1662034787.319375,0.000000,0.000000,0.000000,0.000000,0.343700,0.000000,0.001900,99472.000000,11.900000,294344.000000,0.000000,-25.256259,-0.152221,-0.585768,0.671387,1.953125,0.005279,-0.000179,0.218626,0.244141,0.975794,0.000977,0.011230,1.021484,-9.375000,26.660156,32.226563,0.000977,0.000000,0.000000,0.000000,11.900000
1662034787.319375,1662034787.319375,0.000000,0.000000,0.000000,0.000000,0.343700,0.000000,0.001900,99472.000000,11.900000,294344.000000,0.000000,-25.256259,-0.152221,-0.585768,0.671387,1.953125,0.005279,-0.000179,0.218626,0.244141,0.975794,0.000977,0.011230,1.021484,-9.375000,26.660156,32.226563,0.000977,0.000000,0.000000,0.000000,11.900000
1662034787.329359,1662034787.329359,2.000000,0.000433,0.000000,0.000000,0.343700,0.000000,0.001900,99472.000000,11.900000,294344.000000,0.000000,-25.276285,-0.146679,-0.662981,0.183105,1.953125,0.005925,0.000017,0.218796,0.000000,0.975753,0.005371,0.015137,1.016113,-9.375000,26.660156,32.226563,0.005371,0.000000,0.000000,2.000000,11.900000
1662034787.329359,1662034787.329359,2.000000,0.000433,0.000000,0.000000,0.343700,0.000000,0.001900,99472.000000,11.900000,294344.000000,0.000000,-25.276285,-0.146679,-0.662981,0.183105,1.953125,0.005925,0.000017,0.218796,0.000000,0.975753,0.005371,0.015137,1.016113,-9.375000,26.660156,32.226563,0.005371,0.000000,0.000000,2.000000,11.900000
1662034787.339499,1662034787.339499,3.000000,0.000650,0.000000,0.000000,0.343700,0.000000,0.001900,99472.000000,11.900000,294344.000000,0.000000,-25.295952,-0.186891,-0.630045,0.549316,1.892090,0.005722,-0.000387,0.218965,0.183105,0.975716,0.005859,0.011719,1.018066,-9.375000,26.660156,32.226563,0.005859,0.000000,0.000000,3.000000,11.900000
1662034787.339499,1662034787.339499,3.000000,0.000650,0.000000,0.000000,0.343700,0.000000,0.001900,99472.000000,11.900000,294344.000000,0.000000,-25.295952,-0.186891,-0.630045,0.549316,1.892090,0.005722,-0.000387,0.218965,0.183105,0.975716,0.005859,0.011719,1.018066,-9.375000,26.660156,32.226563,0.005859,0.000000,0.000000,3.000000,11.900000
1662034787.349329,1662034787.349329,1.000000,0.000217,0.000000,0.000000,0.343700,0.000000,0.001900,99472.000000,12.000000,294344.000000,0.000000,-25.316513,-0.160382,-0.636411,0.305176,1.831055,0.005725,-0.000149,0.219139,0.244141,0.975677,0.001953,0.016602,1.020508,-9.375000,26.660156,32.226563,0.001953,0.000000,0.000000,1.000000,12.000000
1662034787.349329,1662034787.349329,1.000000,0.000217,0.000000,0.000000,0.343700,0.000000,0.001900,99472.000000,12.000000,294344.000000,0.000000,-25.316513,-0.160382,-0.636411,0.305176,1.831055,0.005725,-0.000149,0.219139,0.244141,0.975677,0.001953,0.016602,1.020508,-9.375000,26.660156,32.226563,0.001953,0.000000,0.000000,1.000000,12.000000
1662034787.359375,1662034787.359375,2.000000,0.000433,0.000000,0.000000,0.343700,0.000000,0.001900,99472.000000,12.000000,294344.000000,0.000000,-25.336016,-0.211386,-0.573117,0.427246,1.770020,0.005284,-0.000703,0.219307,0.488281,0.975641,0.005371,0.009766,1.020020,-9.375000,26.660156,32.226563,0.005371,0.000000,0.000000,2.000000,12.000000
1662034787.359375,1662034787.359375,2.000000,0.000433,0.000000,0.000000,0.343700,0.000000,0.001900,99472.000000,12.000000,294344.000000,0.000000,-25.336016,-0.211386,-0.573117,0.427246,1.770020,0.005284,-0.000703,0.219307,0.488281,0.975641,0.005371,0.009766,1.020020,-9.375000,26.660156,32.226563,0.005371,0.000000,0.000000,2.000000,12.000000
1662034787.369060,1662034787.369060,2.000000,0.000433,0.000000,0.000000,0.343700,0.000000,0.001900,99472.000000,12.000000,294344.000000,0.000000,-25.355843,-0.160582,-0.591197,0.671387,1.831055,0.005341,-0.000235,0.219474,0.244141,0.975604,0.000977,0.008301,1.019531,-8.496094,26.367188,31.933594,0.000977,0.000000,0.000000,2.000000,12.000000
1662034787.369060,1662034787.369060,2.000000,0.000433,0.000000,0.000000,0.343700,0.000000,0.001900,99472.000000,12.000000,294344.000000,0.000000,-25.355843,-0.160582,-0.591197,0.671387,1.831055,0.005341,-0.000235,0.219474,0.244141,0.975604,0.000977,0.008301,1.019531,-8.496094,26.367188,31.933594,0.000977,0.000000,0.000000,2.000000,12.000000
1662034787.379074,1662034787.379074,2.000000,0.000433,0.000000,0.000000,0.343700,0.000000,0.001900,99472.000000,12.000000,294344.000000,0.000000,-25.375476,-0.179577,-0.677371,0.427246,2.136230,0.006111,-0.000231,0.219642,0.183105,0.975561,0.003418,0.012207,1.021484,-8.496094,26.367188,31.933594,0.003418,0.000000,0.000000,2.000000,12.000000
1662034787.379074,1662034787.379074,2.000000,0.000433,0.000000,0.000000,0.343700,0.000000,0.001900,99472.000000,12.000000,294344.000000,0.000000,-25.375476,-0.179577,-0.677371,0.427246,2.136230,0.006111,-0.000231,0.219642,0.183105,0.975561,0.003418,0.012207,1.021484,-8.496094,26.367188,31.933594,0.003418,0.000000,0.000000,2.000000,12.000000
1662034787.389064,1662034787.389064,1.000000,0.000217,0.000000,0.000000,0.343700,0.000000,0.001900,99472.000000,11.900000,294344.000000,0.000000,-25.394013,-0.149623,-0.612702,0.671387,1.831055,0.005503,-0.000099,0.219799,0.366211,0.975530,-0.003418,0.007813,1.015137,-8.496094,26.367188,31.933594,-0.003418,0.000000,0.000000,1.000000,11.900000
1662034787.389064,1662034787.389064,1.000000,0.000217,0.000000,0.000000,0.343700,0.000000,0.001900,99472.000000,11.900000,294344.000000,0.000000,-25.394013,-0.149623,-0.612702,0.671387,1.831055,0.005503,-0.000099,0.219799,0.366211,0.975530,-0.003418,0.007813,1.015137,-8.496094,26.367188,31.933594,-0.003418,0.000000,0.000000,1.000000,11.900000
1662034787.399400,1662034787.399400,2.000000,0.000433,0.000000,0.000000,0.343700,0.000000,0.001900,99472.000000,11.900000,294344.000000,0.000000,-25.415574,-0.051017,-0.579460,0.427246,1.892090,0.005031,0.000678,0.219978,0.366211,0.975492,0.000977,0.010254,1.015625,-8.496094,26.367188,31.933594,0.000977,0.000000,0.000000,2.000000,11.900000
1662034787.399400,1662034787.399400,2.000000,0.000433,0.000000,0.000000,0.343700,0.000000,0.001900,99472.000000,11.900000,294344.000000,0.000000,-25.415574,-0.051017,-0.579460,0.427246,1.892090,0.005031,0.000678,0.219978,0.366211,0.975492,0.000977,0.010254,1.015625,-8.496094,26.367188,31.933594,0.000977,0.000000,0.000000,2.000000,11.900000
1662034787.409386,1662034787.409386,0.000000,0.000000,0.000000,0.000000,0.343700,0.000000,0.001900,99472.000000,11.900000,294344.000000,0.000000,-25.436886,-0.107544,-0.500811,0.366211,2.075195,0.004470,0.000047,0.220162,0.183105,0.975453,0.003418,0.005371,1.012695,-8.496094,26.367188,31.933594,0.003418,0.000000,0.000000,0.000000,11.900000
1662034787.409386,1662034787.409386,0.000000,0.000000,0.000000,0.000000,0.343700,0.000000,0.001900,99472.000000,11.900000,294344.000000,0.000000,-25.436886,-0.107544,-0.500811,0.366211,2.075195,0.004470,0.000047,0.220162,0.183105,0.975453,0.003418,0.005371,1.012695,-8.496094,26.367188,31.933594,0.003418,0.000000,0.000000,0.000000,11.900000
1662034787.419363,1662034787.419363,0.000000,0.000000,0.000000,0.000000,0.343700,0.000000,0.001900,99472.000000,11.900000,294344.000000,0.000000,-25.456842,-0.084791,-0.485684,0.793457,2.014160,0.004297,0.000212,0.220331,0.366211,0.975416,-0.003906,0.010742,1.021973,-9.082031,26.953125,31.640625,-0.003906,0.000000,0.000000,0.000000,11.900000
1662034787.419363,1662034787.419363,0.000000,0.000000,0.000000,0.000000,0.343700,0.000000,0.001900,99472.000000,11.900000,294344.000000,0.000000,-25.456842,-0.084791,-0.485684,0.793457,2.014160,0.004297,0.000212,0.220331,0.366211,0.975416,-0.003906,0.010742,1.021973,-9.082031,26.953125,31.640625,-0.003906,0.000000,0.000000,0.000000,11.900000
1662034787.429412,1662034787.429412,-1.000000,-0.000217,0.000000,0.000000,0.343700,0.000000,0.001900,99472.000000,12.000000,294344.000000,0.000000,-25.478197,-0.117168,-0.552829,0.061035,2.014160,0.004931,0.000067,0.220514,0.488281,0.975371,0.004883,0.010742,1.018555,-9.082031,26.953125,31.640625,0.004883,0.000000,0.000000,-1.000000,12.000000
1662034787.429412,1662034787.429412,-1.000000,-0.000217,0.000000,0.000000,0.343700,0.000000,0.001900,99472.000000,12.000000,294344.000000,0.000000,-25.478197,-0.117168,-0.552829,0.061035,2.014160,0.004931,0.000067,0.220514,0.488281,0.975371,0.004883,0.010742,1.018555,-9.082031,26.953125,31.640625,0.004883,0.000000,0.000000,-1.000000,12.000000
1662034787.439259,1662034787.439259,-1.000000,-0.000217,0.000000,0.000000,0.343700,0.000000,0.001900,99472.000000,11.900000,294344.000000,0.000000,-25.498887,-0.050811,-0.502487,0.732422,1.953125,0.004375,0.000535,0.220688,0.183105,0.975335,0.000488,0.008789,1.015625,-9.082031,26.953125,31.640625,0.000488,0.000000,0.000000,-1.000000,11.900000
1662034787.439259,1662034787.439259,-1.000000,-0.000217,0.000000,0.000000,0.343700,0.000000,0.001900,99472.000000,11.900000,294344.000000,0.000000,-25.498887,-0.050811,-0.502487,0.732422,1.953125,0.004375,0.000535,0.220688,0.183105,0.975335,0.000488,0.008789,1.015625,-9.082031,26.953125,31.640625,0.000488,0.000000,0.000000,-1.000000,11.900000
1662034787.449279,1662034787.449279,-1.000000,-0.000217,0.000000,0.000000,0.343700,0.000000,0.001900,99472.000000,12.000000,294344.000000,0.000000,-25.519658,-0.091590,-0.600919,0.366211,2.319336,0.005291,0.000379,0.220866,0.366211,0.975290,0.003418,0.013184,1.018066,-9.082031,26.953125,31.640625,0.003418,0.000000,0.000000,-1.000000,12.000000
1662034787.449279,1662034787.449279,-1.000000,-0.000217,0.000000,0.000000,0.343700,0.000000,0.001900,99472.000000,12.000000,294344.000000,0.000000,-25.519658,-0.091590,-0.600919,0.366211,2.319336,0.005291,0.000379,0.220866,0.366211,0.975290,0.003418,0.013184,1.018066,-9.082031,26.953125,31.640625,0.003418,0.000000,0.000000,-1.000000,12.000000
1662034787.459112,1662034787.459112,-1.000000,-0.000217,0.000000,0.000000,0.343700,0.000000,0.001900,99472.000000,12.000000,294344.000000,0.000000,-25.538397,-0.154689,-0.555858,0.305176,1.647949,0.005029,-0.000244,0.221028,0.305176,0.975255,0.003418,0.007813,1.019531,-9.082031,26.953125,31.640625,0.003418,0.000000,0.000000,-1.000000,12.000000
1662034787.459112,1662034787.459112,-1.000000,-0.000217,0.000000,0.000000,0.343700,0.000000,0.001900,99472.000000,12.000000,294344.000000,0.000000,-25.538397,-0.154689,-0.555858,0.305176,1.647949,0.005029,-0.000244,0.221028,0.305176,0.975255,0.003418,0.007813,1.019531,-9.082031,26.953125,31.640625,0.003418,0.000000,0.000000,-1.000000,12.000000
1662034787.469052,1662034787.469052,-1.000000,-0.000217,0.000000,0.000000,0.343700,0.000000,0.001900,99472.000000,12.000000,294344.000000,0.000000,-25.558585,-0.093822,-0.572914,0.305176,1.953125,0.005057,0.000307,0.221197,0.183105,0.975216,0.000000,0.013672,1.012207,-9.082031,27.246094,31.933594,0.000000,0.000000,0.000000,-1.000000,12.000000
1662034787.469052,1662034787.469052,-1.000000,-0.000217,0.000000,0.000000,0.343700,0.000000,0.001900,99472.000000,12.000000,294344.000000,0.000000,-25.558585,-0.093822,-0.572914,0.305176,1.953125,0.005057,0.000307,0.221197,0.183105,0.975216,0.000000,0.013672,1.012207,-9.082031,27.246094,31.933594,0.000000,0.000000,0.000000,-1.000000,12.000000
1662034787.479108,1662034787.479108,0.000000,0.000000,0.000000,0.000000,0.343700,0.000000,0.001900,99472.000000,12.000000,294344.000000,0.000000,-25.579448,-0.092919,-0.573858,0.183105,2.014160,0.005063,0.000318,0.221375,0.122070,0.975176,0.001465,0.009766,1.013184,-9.082031,27.246094,31.933594,0.001465,0.000000,0.000000,0.000000,12.000000
1662034787.479108,1662034787.479108,0.000000,0.000000,0.000000,0.000000,0.343700,0.000000,0.001900,99472.000000,12.000000,294344.000000,0.000000,-25.579448,-0.092919,-0.573858,0.183105,2.014160,0.005063,0.000318,0.221375,0.122070,0.975176,0.001465,0.009766,1.013184,-9.082031,27.246094,31.933594,0.001465,0.000000,0.000000,0.000000,12.000000
1662034787.489069,1662034787.489069,-1.000000,-0.000217,0.000000,0.000000,0.343700,0.000000,0.001900,99472.000000,11.900000,294344.000000,0.000000,-25.600657,-0.164037,-0.555689,0.610352,2.136230,0.005046,-0.000322,0.221558,0.305176,0.975134,0.003906,0.010254,1.020508,-9.082031,27.246094,31.933594,0.003906,0.000000,0.000000,-1.000000,11.900000
1662034787.489069,1662034787.489069,-1.000000,-0.000217,0.000000,0.000000,0.343700,0.000000,0.001900,99472.000000,11.900000,294344.000000,0.000000,-25.600657,-0.164037,-0.555689,0.610352,2.136230,0.005046,-0.000322,0.221558,0.305176,0.975134,0.003906,0.010254,1.020508,-9.082031,27.246094,31.933594,0.003906,0.000000,0.000000,-1.000000,11.900000
1662034787.499042,1662034787.499042,0.000000,0.000000,0.000000,0.000000,0.343700,0.000000,0.001900,99472.000000,12.000000,294344.000000,0.000000,-25.622177,-0.138940,-0.662833,0.488281,2.075195,0.005909,0.000100,0.221740,0.549316,0.975088,0.001953,0.015137,1.013184,-9.082031,27.246094,31.933594,0.001953,0.000000,0.000000,0.000000,12.000000
1662034787.499042,1662034787.499042,0.000000,0.000000,0.000000,0.000000,0.343700,0.000000,0.001900,99472.000000,12.000000,294344.000000,0.000000,-25.622177,-0.138940,-0.662833,0.488281,2.075195,0.005909,0.000100,0.221740,0.549316,0.975088,0.001953,0.015137,1.013184,-9.082031,27.246094,31.933594,0.001953,0.000000,0.000000,0.000000,12.000000
1662034787.509049,1662034787.509049,0.000000,0.000000,0.000000,0.000000,0.343700,0.000000,0.001900,99472.000000,11.900000,294344.000000,0.000000,-25.641775,-0.138126,-0.682405,0.732422,1.892090,0.006074,0.000146,0.221907,0.305176,0.975049,0.001953,0.012207,1.014648,-9.082031,27.246094,31.933594,0.001953,0.000000,0.000000,0.000000,11.900000
1662034787.509049,1662034787.509049,0.000000,0.000000,0.000000,0.000000,0.343700,0.000000,0.001900,99472.000000,11.900000,294344.000000,0.000000,-25.641775,-0.138126,-0.682405,0.732422,1.892090,0.006074,0.000146,0.221907,0.305176,0.975049,0.001953,0.012207,1.014648,-9.082031,27.246094,31.933594,0.001953,0.000000,0.000000,0.000000,11.900000
1662034787.519075,1662034787.519075,0.000000,0.000000,0.000000,0.000000,0.343700,0.000000,0.001900,99472.000000,11.900000,294344.000000,0.000000,-25.665052,-0.115880,-0.615909,0.549316,2.014160,0.005465,0.000208,0.222104,0.366211,0.975008,0.000977,0.010254,1.020508,-9.082031,26.660156,31.640625,0.000977,0.000000,0.000000,0.000000,11.900000
1662034787.519075,1662034787.519075,0.000000,0.000000,0.000000,0.000000,0.343700,0.000000,0.001900,99472.000000,11.900000,294344.000000,0.000000,-25.665052,-0.115880,-0.615909,0.549316,2.014160,0.005465,0.000208,0.222104,0.366211,0.975008,0.000977,0.010254,1.020508,-9.082031,26.660156,31.640625,0.000977,0.000000,0.000000,0.000000,11.900000
1662034787.529404,1662034787.529404,-1.000000,-0.000217,0.000000,0.000000,0.343700,0.000000,0.001900,99472.000000,11.900000,294344.000000,0.000000,-25.687491,-0.141212,-0.630942,0.061035,1.953125,0.005642,0.000022,0.222296,0.488281,0.974963,0.004395,0.009277,1.016602,-9.082031,26.660156,31.640625,0.004395,0.000000,0.000000,-1.000000,11.900000
1662034787.529404,1662034787.529404,-1.000000,-0.000217,0.000000,0.000000,0.343700,0.000000,0.001900,99472.000000,11.900000,294344.000000,0.000000,-25.687491,-0.141212,-0.630942,0.061035,1.953125,0.005642,0.000022,0.222296,0.488281,0.974963,0.004395,0.009277,1.016602,-9.082031,26.660156,31.640625,0.004395,0.000000,0.000000,-1.000000,11.900000
1662034787.539056,1662034787.539056,-2.000000,-0.000433,0.000000,0.000000,0.343700,0.000000,0.001900,99472.000000,12.000000,294344.000000,0.000000,-25.709850,-0.189303,-0.573056,0.732422,2.136230,0.005243,-0.000498,0.222488,0.244141,0.974921,0.003418,0.009766,1.024902,-9.082031,26.660156,31.640625,0.003418,0.000000,0.000000,-2.000000,12.000000
1662034787.539056,1662034787.539056,-2.000000,-0.000433,0.000000,0.000000,0.343700,0.000000,0.001900,99472.000000,12.000000,294344.000000,0.000000,-25.709850,-0.189303,-0.573056,0.732422,2.136230,0.005243,-0.000498,0.222488,0.244141,0.974921,0.003418,0.009766,1.024902,-9.082031,26.660156,31.640625,0.003418,0.000000,0.000000,-2.000000,12.000000
1662034787.549031,1662034787.549031,-1.000000,-0.000217,0.000000,0.000000,0.343700,0.000000,0.001900,99472.000000,12.000000,294344.000000,0.000000,-25.733146,-0.125388,-0.619234,0.122070,2.197266,0.005512,0.000137,0.222684,0.183105,0.974875,0.000488,0.010742,1.020996,-9.082031,26.660156,31.640625,0.000488,0.000000,0.000000,-1.000000,12.000000
1662034787.549031,1662034787.549031,-1.000000,-0.000217,0.000000,0.000000,0.343700,0.000000,0.001900,99472.000000,12.000000,294344.000000,0.000000,-25.733146,-0.125388,-0.619234,0.122070,2.197266,0.005512,0.000137,0.222684,0.183105,0.974875,0.000488,0.010742,1.020996,-9.082031,26.660156,31.640625,0.000488,0.000000,0.000000,-1.000000,12.000000
1662034787.559026,1662034787.559026,0.000000,0.000000,0.000000,0.000000,0.343700,0.000000,0.001900,99472.000000,11.900000,294344.000000,0.000000,-25.754118,-0.079658,-0.551133,0.427246,1.892090,0.004843,0.000394,0.222860,0.305176,0.974838,0.001953,0.005371,1.022461,-9.082031,26.660156,31.640625,0.001953,0.000000,0.000000,0.000000,11.900000
1662034787.559026,1662034787.559026,0.000000,0.000000,0.000000,0.000000,0.343700,0.000000,0.001900,99472.000000,11.900000,294344.000000,0.000000,-25.754118,-0.079658,-0.551133,0.427246,1.892090,0.004843,0.000394,0.222860,0.305176,0.974838,0.001953,0.005371,1.022461,-9.082031,26.660156,31.640625,0.001953,0.000000,0.000000,0.000000,11.900000
1662034787.569079,1662034787.569079,0.000000,0.000000,0.000000,0.000000,0.343700,0.000000,0.001900,99472.000000,12.000000,294344.000000,0.000000,-25.774738,-0.052384,-0.529725,0.488281,1.831055,0.004608,0.000585,0.223035,0.244141,0.974799,-0.000488,0.009766,1.014648,-9.082031,26.953125,31.347656,-0.000488,0.000000,0.000000,0.000000,12.000000
1662034787.569079,1662034787.569079,0.000000,0.000000,0.000000,0.000000,0.343700,0.000000,0.001900,99472.000000,12.000000,294344.000000,0.000000,-25.774738,-0.052384,-0.529725,0.488281,1.831055,0.004608,0.000585,0.223035,0.244141,0.974799,-0.000488,0.009766,1.014648,-9.082031,26.953125,31.347656,-0.000488,0.000000,0.000000,0.000000,12.000000
1662034787.579120,1662034787.579120,0.000000,0.000000,0.000000,0.000000,0.343700,0.000000,0.001900,99472.000000,12.000000,294344.000000,0.000000,-25.794966,-0.069649,-0.478196,0.244141,1.892090,0.004203,0.000339,0.223208,0.488281,0.974762,0.004395,0.007813,1.017578,-9.082031,26.953125,31.347656,0.004395,0.000000,0.000000,0.000000,12.000000
1662034787.579120,1662034787.579120,0.000000,0.000000,0.000000,0.000000,0.343700,0.000000,0.001900,99472.000000,12.000000,294344.000000,0.000000,-25.794966,-0.069649,-0.478196,0.244141,1.892090,0.004203,0.000339,0.223208,0.488281,0.974762,0.004395,0.007813,1.017578,-9.082031,26.953125,31.347656,0.004395,0.000000,0.000000,0.000000,12.000000
1662034787.589077,1662034787.589077,1.000000,0.000217,0.000000,0.000000,0.343700,0.000000,0.001900,99472.000000,11.900000,294344.000000,0.000000,-25.816286,-0.128078,-0.405224,0.915527,2.014160,0.003697,-0.000299,0.223391,0.244141,0.974722,0.002441,0.006836,1.024414,-9.082031,26.953125,31.347656,0.002441,0.000000,0.000000,1.000000,11.900000
1662034787.589077,1662034787.589077,1.000000,0.000217,0.000000,0.000000,0.343700,0.000000,0.001900,99472.000000,11.900000,294344.000000,0.000000,-25.816286,-0.128078,-0.405224,0.915527,2.014160,0.003697,-0.000299,0.223391,0.244141,0.974722,0.002441,0.006836,1.024414,-9.082031,26.953125,31.347656,0.002441,0.000000,0.000000,1.000000,11.900000
1662034787.599024,1662034787.599024,2.000000,0.000433,0.000000,0.000000,0.343700,0.000000,0.001900,99472.000000,11.900000,294344.000000,0.000000,-25.836239,-0.131102,-0.504519,0.183105,1.770020,0.004547,-0.000131,0.223561,0.244141,0.974679,0.004883,0.013672,1.015625,-9.082031,26.953125,31.347656,0.004883,0.000000,0.000000,2.000000,11.900000
1662034787.599024,1662034787.599024,2.000000,0.000433,0.000000,0.000000,0.343700,0.000000,0.001900,99472.000000,11.900000,294344.000000,0.000000,-25.836239,-0.131102,-0.504519,0.183105,1.770020,0.004547,-0.000131,0.223561,0.244141,0.974679,0.004883,0.013672,1.015625,-9.082031,26.953125,31.347656,0.004883,0.000000,0.000000,2.000000,11.900000
1662034787.609059,1662034787.609059,3.000000,0.000650,0.000000,0.000000,0.343700,0.000000,0.001900,99472.000000,12.000000,294344.000000,0.000000,-25.858312,-0.135526,-0.552155,0.488281,2.136230,0.004961,-0.000075,0.223749,0.427246,0.974634,0.000488,0.011230,1.020020,-9.082031,26.953125,31.347656,0.000488,0.000000,0.000000,3.000000,12.000000
1662034787.609059,1662034787.609059,3.000000,0.000650,0.000000,0.000000,0.343700,0.000000,0.001900,99472.000000,12.000000,294344.000000,0.000000,-25.858312,-0.135526,-0.552155,0.488281,2.136230,0.004961,-0.000075,0.223749,0.427246,0.974634,0.000488,0.011230,1.020020,-9.082031,26.953125,31.347656,0.000488,0.000000,0.000000,3.000000,12.000000
1662034787.619016,1662034787.619016,2.000000,0.000433,0.000000,0.000000,0.343700,0.000000,0.001900,99472.000000,11.900000,294344.000000,0.000000,-25.880278,-0.164589,-0.598257,0.549316,1.953125,0.005410,-0.000231,0.223937,0.488281,0.974589,0.001465,0.014648,1.015625,-9.375000,26.660156,32.226563,0.001465,0.000000,0.000000,2.000000,11.900000
1662034787.619016,1662034787.619016,2.000000,0.000433,0.000000,0.000000,0.343700,0.000000,0.001900,99472.000000,11.900000,294344.000000,0.000000,-25.880278,-0.164589,-0.598257,0.549316,1.953125,0.005410,-0.000231,0.223937,0.488281,0.974589,0.001465,0.014648,1.015625,-9.375000,26.660156,32.226563,0.001465,0.000000,0.000000,2.000000,11.900000
1662034787.628991,1662034787.628991,2.000000,0.000433,0.000000,0.000000,0.343700,0.000000,0.001900,99472.000000,12.000000,294344.000000,0.000000,-25.901262,-0.120440,-0.563789,-0.061035,1.708984,0.005030,0.000078,0.224114,0.427246,0.974550,0.003418,0.003418,1.018555,-9.375000,26.660156,32.226563,0.003418,0.000000,0.000000,2.000000,12.000000
1662034787.628991,1662034787.628991,2.000000,0.000433,0.000000,0.000000,0.343700,0.000000,0.001900,99472.000000,12.000000,294344.000000,0.000000,-25.901262,-0.120440,-0.563789,-0.061035,1.708984,0.005030,0.000078,0.224114,0.427246,0.974550,0.003418,0.003418,1.018555,-9.375000,26.660156,32.226563,0.003418,0.000000,0.000000,2.000000,12.000000
1662034787.639008,1662034787.639008,1.000000,0.000217,0.000000,0.000000,0.343700,0.000000,0.001900,99472.000000,11.900000,294344.000000,0.000000,-25.922562,-0.108664,-0.475334,0.732422,1.953125,0.004255,0.000006,0.224294,0.183105,0.974512,0.001953,0.008301,1.013672,-9.375000,26.660156,32.226563,0.001953,0.000000,0.000000,1.000000,11.900000
1662034787.639008,1662034787.639008,1.000000,0.000217,0.000000,0.000000,0.343700,0.000000,0.001900,99472.000000,11.900000,294344.000000,0.000000,-25.922562,-0.108664,-0.475334,0.732422,1.953125,0.004255,0.000006,0.224294,0.183105,0.974512,0.001953,0.008301,1.013672,-9.375000,26.660156,32.226563,0.001953,0.000000,0.000000,1.000000,11.900000
1662034787.649021,1662034787.649021,2.000000,0.000433,0.000000,0.000000,0.343700,0.000000,0.001900,99472.000000,12.000000,294344.000000,0.000000,-25.944984,-0.044688,-0.561710,0.183105,2.197266,0.004864,0.000720,0.224482,0.488281,0.974466,0.000000,0.011719,1.018066,-9.375000,26.660156,32.226563,0.000000,0.000000,0.000000,2.000000,12.000000
1662034787.649021,1662034787.649021,2.000000,0.000433,0.000000,0.000000,0.343700,0.000000,0.001900,99472.000000,12.000000,294344.000000,0.000000,-25.944984,-0.044688,-0.561710,0.183105,2.197266,0.004864,0.000720,0.224482,0.488281,0.974466,0.000000,0.011719,1.018066,-9.375000,26.660156,32.226563,0.000000,0.000000,0.000000,2.000000,12.000000
1662034787.658980,1662034787.658980,0.000000,0.000000,0.000000,0.000000,0.343700,0.000000,0.001900,99472.000000,11.900000,294344.000000,0.000000,-25.964570,-0.025299,-0.516686,0.366211,1.892090,0.004443,0.000798,0.224648,0.122070,0.974429,0.005859,0.002930,1.018555,-9.375000,26.660156,32.226563,0.005859,0.000000,0.000000,0.000000,11.900000
1662034787.658980,1662034787.658980,0.000000,0.000000,0.000000,0.000000,0.343700,0.000000,0.001900,99472.000000,11.900000,294344.000000,0.000000,-25.964570,-0.025299,-0.516686,0.366211,1.892090,0.004443,0.000798,0.224648,0.122070,0.974429,0.005859,0.002930,1.018555,-9.375000,26.660156,32.226563,0.005859,0.000000,0.000000,0.000000,11.900000
1662034787.669002,1662034787.669002,0.000000,0.000000,0.000000,0.000000,0.343700,0.000000,0.001900,99472.000000,11.900000,294344.000000,0.000000,-25.983757,-0.073595,-0.595979,0.793457,1.831055,0.005212,0.000543,0.224813,0.061035,0.974388,0.002930,0.011230,1.015137,-9.667969,26.953125,31.640625,0.002930,0.000000,0.000000,0.000000,11.900000
1662034787.669002,1662034787.669002,0.000000,0.000000,0.000000,0.000000,0.343700,0.000000,0.001900,99472.000000,11.900000,294344.000000,0.000000,-25.983757,-0.073595,-0.595979,0.793457,1.831055,0.005212,0.000543,0.224813,0.061035,0.974388,0.002930,0.011230,1.015137,-9.667969,26.953125,31.640625,0.002930,0.000000,0.000000,0.000000,11.900000
1662034787.679062,1662034787.679062,0.000000,0.000000,0.000000,0.000000,0.343700,0.000000,0.001900,99472.000000,11.900000,294344.000000,0.000000,-26.006012,-0.124940,-0.686077,0.366211,2.319336,0.006079,0.000285,0.225004,0.366211,0.974339,0.002441,0.012695,1.021973,-9.667969,26.953125,31.640625,0.002441,0.000000,0.000000,0.000000,11.900000
1662034787.679062,1662034787.679062,0.000000,0.000000,0.000000,0.000000,0.343700,0.000000,0.001900,99472.000000,11.900000,294344.000000,0.000000,-26.006012,-0.124940,-0.686077,0.366211,2.319336,0.006079,0.000285,0.225004,0.366211,0.974339,0.002441,0.012695,1.021973,-9.667969,26.953125,31.640625,0.002441,0.000000,0.000000,0.000000,11.900000
1662034787.689020,1662034787.689020,1.000000,0.000217,0.000000,0.000000,0.343700,0.000000,0.001900,99472.000000,12.000000,294344.000000,0.000000,-26.026683,-0.136100,-0.639494,0.793457,2.014160,0.005705,0.000099,0.225181,0.305176,0.974300,-0.000488,0.008301,1.021973,-9.667969,26.953125,31.640625,-0.000488,0.000000,0.000000,1.000000,12.000000
1662034787.689020,1662034787.689020,1.000000,0.000217,0.000000,0.000000,0.343700,0.000000,0.001900,99472.000000,12.000000,294344.000000,0.000000,-26.026683,-0.136100,-0.639494,0.793457,2.014160,0.005705,0.000099,0.225181,0.305176,0.974300,-0.000488,0.008301,1.021973,-9.667969,26.953125,31.640625,-0.000488,0.000000,0.000000,1.000000,12.000000
1662034787.699030,1662034787.699030,1.000000,0.000217,0.000000,0.000000,0.343700,0.000000,0.001900,99472.000000,12.000000,294344.000000,0.000000,-26.048566,-0.132941,-0.644893,0.488281,2.136230,0.005744,0.000138,0.225367,0.244141,0.974257,0.002930,0.010742,1.020996,-9.667969,26.953125,31.640625,0.002930,0.000000,0.000000,1.000000,12.000000
1662034787.699030,1662034787.699030,1.000000,0.000217,0.000000,0.000000,0.343700,0.000000,0.001900,99472.000000,12.000000,294344.000000,0.000000,-26.048566,-0.132941,-0.644893,0.488281,2.136230,0.005744,0.000138,0.225367,0.244141,0.974257,0.002930,0.010742,1.020996,-9.667969,26.953125,31.640625,0.002930,0.000000,0.000000,1.000000,12.000000
1662034787.709019,1662034787.709019,1.000000,0.000217,0.000000,0.000000,0.343700,0.000000,0.001900,99472.000000,11.900000,294344.000000,0.000000,-26.067426,-0.171942,-0.555504,0.610352,1.708984,0.005061,-0.000369,0.225528,0.244141,0.974223,0.005859,0.004883,1.021973,-9.667969,26.953125,31.640625,0.005859,0.000000,0.000000,1.000000,11.900000
1662034787.709019,1662034787.709019,1.000000,0.000217,0.000000,0.000000,0.343700,0.000000,0.001900,99472.000000,11.900000,294344.000000,0.000000,-26.067426,-0.171942,-0.555504,0.610352,1.708984,0.005061,-0.000369,0.225528,0.244141,0.974223,0.005859,0.004883,1.021973,-9.667969,26.953125,31.640625,0.005859,0.000000,0.000000,1.000000,11.900000
1662034787.719115,1662034787.719115,0.000000,0.000000,0.000000,0.000000,0.343700,0.000000,0.001900,99472.000000,12.000000,294344.000000,0.000000,-26.088242,-0.191376,-0.566930,0.549316,1.953125,0.005197,-0.000510,0.225706,0.183105,0.974181,0.003418,0.013184,1.020508,-9.082031,26.660156,31.640625,0.003418,0.000000,0.000000,0.000000,12.000000
1662034787.719115,1662034787.719115,0.000000,0.000000,0.000000,0.000000,0.343700,0.000000,0.001900,99472.000000,12.000000,294344.000000,0.000000,-26.088242,-0.191376,-0.566930,0.549316,1.953125,0.005197,-0.000510,0.225706,0.183105,0.974181,0.003418,0.013184,1.020508,-9.082031,26.660156,31.640625,0.003418,0.000000,0.000000,0.000000,12.000000
1662034787.729953,1662034787.729953,1.000000,0.000217,0.000000,0.000000,0.343700,0.000000,0.001900,99472.000000,12.000000,294344.000000,0.000000,-26.108412,-0.194735,-0.588525,0.183105,1.892090,0.005387,-0.000495,0.225878,0.427246,0.974141,0.004395,0.010254,1.015137,-9.082031,26.660156,31.640625,0.004395,0.000000,0.000000,1.000000,12.000000
1662034787.729953,1662034787.729953,1.000000,0.000217,0.000000,0.000000,0.343700,0.000000,0.001900,99472.000000,12.000000,294344.000000,0.000000,-26.108412,-0.194735,-0.588525,0.183105,1.892090,0.005387,-0.000495,0.225878,0.427246,0.974141,0.004395,0.010254,1.015137,-9.082031,26.660156,31.640625,0.004395,0.000000,0.000000,1.000000,12.000000
1662034787.739407,1662034787.739407,1.000000,0.000217,0.000000,0.000000,0.343700,0.000000,0.001900,99472.000000,11.900000,294344.000000,0.000000,-26.141811,-0.158840,-0.556915,0.671387,2.258301,0.005048,-0.000251,0.226160,0.305176,0.974077,0.002441,0.010742,1.017090,-9.082031,26.660156,31.640625,0.002441,0.000000,0.000000,1.000000,11.900000
1662034787.739407,1662034787.739407,1.000000,0.000217,0.000000,0.000000,0.343700,0.000000,0.001900,99472.000000,11.900000,294344.000000,0.000000,-26.141811,-0.158840,-0.556915,0.671387,2.258301,0.005048,-0.000251,0.226160,0.305176,0.974077,0.002441,0.010742,1.017090,-9.082031,26.660156,31.640625,0.002441,0.000000,0.000000,1.000000,11.900000
1662034787.749385,1662034787.749385,2.000000,0.000433,0.000000,0.000000,0.343700,0.000000,0.001900,99472.000000,11.900000,294344.000000,0.000000,-26.151983,-0.107363,-0.549585,0.427246,1.953125,0.004884,0.000172,0.226245,0.244141,0.974058,-0.002930,0.008789,1.016113,-9.082031,26.660156,31.640625,-0.002930,0.000000,0.000000,2.000000,11.900000
1662034787.749385,1662034787.749385,2.000000,0.000433,0.000000,0.000000,0.343700,0.000000,0.001900,99472.000000,11.900000,294344.000000,0.000000,-26.151983,-0.107363,-0.549585,0.427246,1.953125,0.004884,0.000172,0.226245,0.244141,0.974058,-0.002930,0.008789,1.016113,-9.082031,26.660156,31.640625,-0.002930,0.000000,0.000000,2.000000,11.900000
1662034787.759364,1662034787.759364,2.000000,0.000433,0.000000,0.000000,0.343700,0.000000,0.001900,99472.000000,12.000000,294344.000000,0.000000,-26.172370,-0.149370,-0.471345,0.488281,1.770020,0.004302,-0.000338,0.226420,0.244141,0.974020,0.004883,0.006836,1.013184,-9.082031,26.660156,31.640625,0.004883,0.000000,0.000000,2.000000,12.000000
1662034787.759364,1662034787.759364,2.000000,0.000433,0.000000,0.000000,0.343700,0.000000,0.001900,99472.000000,12.000000,294344.000000,0.000000,-26.172370,-0.149370,-0.471345,0.488281,1.770020,0.004302,-0.000338,0.226420,0.244141,0.974020,0.004883,0.006836,1.013184,-9.082031,26.660156,31.640625,0.004883,0.000000,0.000000,2.000000,12.000000
1662034787.769283,1662034787.769283,2.000000,0.000433,0.000000,0.000000,0.343700,0.000000,0.001900,99472.000000,11.900000,294344.000000,0.000000,-26.192884,-0.156347,-0.478174,0.671387,2.014160,0.004373,-0.000383,0.226594,0.244141,0.973979,0.002930,0.010742,1.020020,-9.960938,26.953125,31.054688,0.002930,0.000000,0.000000,2.000000,11.900000
1662034787.769283,1662034787.769283,2.000000,0.000433,0.000000,0.000000,0.343700,0.000000,0.001900,99472.000000,11.900000,294344.000000,0.000000,-26.192884,-0.156347,-0.478174,0.671387,2.014160,0.004373,-0.000383,0.226594,0.244141,0.973979,0.002930,0.010742,1.020020,-9.960938,26.953125,31.054688,0.002930,0.000000,0.000000,2.000000,11.900000
1662034787.779316,1662034787.779316,2.000000,0.000433,0.000000,0.000000,0.343700,0.000000,0.001900,99472.000000,11.900000,294344.000000,0.000000,-26.212239,-0.119350,-0.566102,0.244141,1.892090,0.005048,0.000106,0.226757,0.366211,0.973938,0.002441,0.012695,1.027832,-9.960938,26.953125,31.054688,0.002441,0.000000,0.000000,2.000000,11.900000
1662034787.779316,1662034787.779316,2.000000,0.000433,0.000000,0.000000,0.343700,0.000000,0.001900,99472.000000,11.900000,294344.000000,0.000000,-26.212239,-0.119350,-0.566102,0.244141,1.892090,0.005048,0.000106,0.226757,0.366211,0.973938,0.002441,0.012695,1.027832,-9.960938,26.953125,31.054688,0.002441,0.000000,0.000000,2.000000,11.900000
1662034787.789120,1662034787.789120,2.000000,0.000433,0.000000,0.000000,0.343700,0.000000,0.001900,99472.000000,12.000000,294344.000000,0.000000,-26.233592,-0.098649,-0.469768,0.732422,1.953125,0.004188,0.000092,0.226938,0.000000,0.973900,0.001465,0.005859,1.020996,-9.960938,26.953125,31.054688,0.001465,0.000000,0.000000,2.000000,12.000000
1662034787.789120,1662034787.789120,2.000000,0.000433,0.000000,0.000000,0.343700,0.000000,0.001900,99472.000000,12.000000,294344.000000,0.000000,-26.233592,-0.098649,-0.469768,0.732422,1.953125,0.004188,0.000092,0.226938,0.000000,0.973900,0.001465,0.005859,1.020996,-9.960938,26.953125,31.054688,0.001465,0.000000,0.000000,2.000000,12.000000
1662034787.799055,1662034787.799055,2.000000,0.000433,0.000000,0.000000,0.343700,0.000000,0.001900,99472.000000,11.900000,294344.000000,0.000000,-26.255327,-0.063436,-0.553685,0.305176,2.014160,0.004831,0.000558,0.227121,0.244141,0.973854,0.002441,0.015625,1.020020,-9.960938,26.953125,31.054688,0.002441,0.000000,0.000000,2.000000,11.900000
1662034787.799055,1662034787.799055,2.000000,0.000433,0.000000,0.000000,0.343700,0.000000,0.001900,99472.000000,11.900000,294344.000000,0.000000,-26.255327,-0.063436,-0.553685,0.305176,2.014160,0.004831,0.000558,0.227121,0.244141,0.973854,0.002441,0.015625,1.020020,-9.960938,26.953125,31.054688,0.002441,0.000000,0.000000,2.000000,11.900000
1662034787.809233,1662034787.809233,1.000000,0.000217,0.000000,0.000000,0.343700,0.000000,0.001900,99472.000000,12.000000,294344.000000,0.000000,-26.274401,-0.109292,-0.475490,0.488281,1.770020,0.004258,0.000014,0.227285,0.183105,0.973819,0.002441,0.004883,1.017578,-9.960938,26.953125,31.054688,0.002441,0.000000,0.000000,1.000000,12.000000
1662034787.809233,1662034787.809233,1.000000,0.000217,0.000000,0.000000,0.343700,0.000000,0.001900,99472.000000,12.000000,294344.000000,0.000000,-26.274401,-0.109292,-0.475490,0.488281,1.770020,0.004258,0.000014,0.227285,0.183105,0.973819,0.002441,0.004883,1.017578,-9.960938,26.953125,31.054688,0.002441,0.000000,0.000000,1.000000,12.000000
1662034787.819422,1662034787.819422,0.000000,0.000000,0.000000,0.000000,0.343700,0.000000,0.001900,99472.000000,11.900000,294344.000000,0.000000,-26.296121,-0.143343,-0.489688,0.732422,2.258301,0.004446,-0.000246,0.227471,0.244141,0.973775,0.002930,0.010742,1.020020,-9.375000,26.660156,31.054688,0.002930,0.000000,0.000000,0.000000,11.900000
1662034787.819422,1662034787.819422,0.000000,0.000000,0.000000,0.000000,0.343700,0.000000,0.001900,99472.000000,11.900000,294344.000000,0.000000,-26.296121,-0.143343,-0.489688,0.732422,2.258301,0.004446,-0.000246,0.227471,0.244141,0.973775,0.002930,0.010742,1.020020,-9.375000,26.660156,31.054688,0.002930,0.000000,0.000000,0.000000,11.900000
1662034787.829276,1662034787.829276,0.000000,0.000000,0.000000,0.000000,0.343700,0.000000,0.001900,99472.000000,11.900000,294344.000000,0.000000,-26.315097,-0.150785,-0.496800,0.244141,1.831055,0.004521,-0.000294,0.227633,0.183105,0.973737,0.003418,0.007324,1.019531,-9.375000,26.660156,31.054688,0.003418,0.000000,0.000000,0.000000,11.900000
1662034787.829276,1662034787.829276,0.000000,0.000000,0.000000,0.000000,0.343700,0.000000,0.001900,99472.000000,11.900000,294344.000000,0.000000,-26.315097,-0.150785,-0.496800,0.244141,1.831055,0.004521,-0.000294,0.227633,0.183105,0.973737,0.003418,0.007324,1.019531,-9.375000,26.660156,31.054688,0.003418,0.000000,0.000000,0.000000,11.900000
1662034787.839013,1662034787.839013,-1.000000,-0.000217,0.000000,0.000000,0.343700,0.000000,0.001900,99472.000000,11.900000,294344.000000,0.000000,-26.335507,-0.175219,-0.447837,0.732422,2.014160,0.004154,-0.000599,0.227807,0.671387,0.973697,0.002441,0.006348,1.011230,-9.375000,26.660156,31.054688,0.002441,0.000000,0.000000,-1.000000,11.900000
1662034787.839013,1662034787.839013,-1.000000,-0.000217,0.000000,0.000000,0.343700,0.000000,0.001900,99472.000000,11.900000,294344.000000,0.000000,-26.335507,-0.175219,-0.447837,0.732422,2.014160,0.004154,-0.000599,0.227807,0.671387,0.973697,0.002441,0.006348,1.011230,-9.375000,26.660156,31.054688,0.002441,0.000000,0.000000,-1.000000,11.900000
1662034787.849052,1662034787.849052,0.000000,0.000000,0.000000,0.000000,0.343700,0.000000,0.001900,99472.000000,12.000000,294344.000000,0.000000,-26.357761,-0.120763,-0.535948,0.427246,2.197266,0.004794,0.000040,0.227994,0.061035,0.973651,0.000977,0.015625,1.024414,-9.375000,26.660156,31.054688,0.000977,0.000000,0.000000,0.000000,12.000000
1662034787.849052,1662034787.849052,0.000000,0.000000,0.000000,0.000000,0.343700,0.000000,0.001900,99472.000000,12.000000,294344.000000,0.000000,-26.357761,-0.120763,-0.535948,0.427246,2.197266,0.004794,0.000040,0.227994,0.061035,0.973651,0.000977,0.015625,1.024414,-9.375000,26.660156,31.054688,0.000977,0.000000,0.000000,0.000000,12.000000
1662034787.859050,1662034787.859050,0.000000,0.000000,0.000000,0.000000,0.343700,0.000000,0.001900,99472.000000,11.900000,294344.000000,0.000000,-26.378238,-0.095330,-0.537417,0.549316,1.831055,0.004756,0.000260,0.228167,0.122070,0.973610,0.001465,0.007813,1.022949,-9.375000,26.660156,31.054688,0.001465,0.000000,0.000000,0.000000,11.900000
1662034787.859050,1662034787.859050,0.000000,0.000000,0.000000,0.000000,0.343700,0.000000,0.001900,99472.000000,11.900000,294344.000000,0.000000,-26.378238,-0.095330,-0.537417,0.549316,1.831055,0.004756,0.000260,0.228167,0.122070,0.973610,0.001465,0.007813,1.022949,-9.375000,26.660156,31.054688,0.001465,0.000000,0.000000,0.000000,11.900000
1662034787.869029,1662034787.869029,0.000000,0.000000,0.000000,0.000000,0.343700,0.000000,0.001900,99472.000000,11.900000,294344.000000,0.000000,-26.399745,-0.156847,-0.564473,0.732422,2.075195,0.005108,-0.000208,0.228352,0.732422,0.973565,0.004883,0.014160,1.019531,-9.375000,26.953125,31.347656,0.004883,0.000000,0.000000,0.000000,11.900000
1662034787.869029,1662034787.869029,0.000000,0.000000,0.000000,0.000000,0.343700,0.000000,0.001900,99472.000000,11.900000,294344.000000,0.000000,-26.399745,-0.156847,-0.564473,0.732422,2.075195,0.005108,-0.000208,0.228352,0.732422,0.973565,0.004883,0.014160,1.019531,-9.375000,26.953125,31.347656,0.004883,0.000000,0.000000,0.000000,11.900000
1662034787.879065,1662034787.879065,0.000000,0.000000,0.000000,0.000000,0.343700,0.000000,0.001900,99472.000000,11.900000,294344.000000,0.000000,-26.420512,-0.225446,-0.602051,0.305176,1.892090,0.005564,-0.000715,0.228532,0.549316,0.973520,0.005859,0.010254,1.018066,-9.375000,26.953125,31.347656,0.005859,0.000000,0.000000,0.000000,11.900000
1662034787.879065,1662034787.879065,0.000000,0.000000,0.000000,0.000000,0.343700,0.000000,0.001900,99472.000000,11.900000,294344.000000,0.000000,-26.420512,-0.225446,-0.602051,0.305176,1.892090,0.005564,-0.000715,0.228532,0.549316,0.973520,0.005859,0.010254,1.018066,-9.375000,26.953125,31.347656,0.005859,0.000000,0.000000,0.000000,11.900000
1662034787.889091,1662034787.889091,0.000000,0.000000,0.000000,0.000000,0.343700,0.000000,0.001900,99472.000000,12.000000,294344.000000,0.000000,-26.438544,-0.209895,-0.591648,0.488281,1.770020,0.005445,-0.000602,0.228684,0.366211,0.973485,-0.003418,0.014160,1.019043,-9.375000,26.953125,31.347656,-0.003418,0.000000,0.000000,0.000000,12.000000
1662034787.889091,1662034787.889091,0.000000,0.000000,0.000000,0.000000,0.343700,0.000000,0.001900,99472.000000,12.000000,294344.000000,0.000000,-26.438544,-0.209895,-0.591648,0.488281,1.770020,0.005445,-0.000602,0.228684,0.366211,0.973485,-0.003418,0.014160,1.019043,-9.375000,26.953125,31.347656,-0.003418,0.000000,0.000000,0.000000,12.000000
1662034787.899107,1662034787.899107,0.000000,0.000000,0.000000,0.000000,0.343700,0.000000,0.001900,99472.000000,12.000000,294344.000000,0.000000,-26.460634,-0.212827,-0.604319,0.000000,2.075195,0.005559,-0.000601,0.228872,0.244141,0.973441,-0.000488,0.013672,1.014648,-9.375000,26.953125,31.347656,-0.000488,0.000000,0.000000,0.000000,12.000000
1662034787.899107,1662034787.899107,0.000000,0.000000,0.000000,0.000000,0.343700,0.000000,0.001900,99472.000000,12.000000,294344.000000,0.000000,-26.460634,-0.212827,-0.604319,0.000000,2.075195,0.005559,-0.000601,0.228872,0.244141,0.973441,-0.000488,0.013672,1.014648,-9.375000,26.953125,31.347656,-0.000488,0.000000,0.000000,0.000000,12.000000
1662034787.909091,1662034787.909091,1.000000,0.000217,0.000000,0.000000,0.343700,0.000000,0.001900,99472.000000,11.900000,294344.000000,0.000000,-26.480901,-0.192253,-0.507990,0.610352,1.892090,0.004699,-0.000618,0.229043,0.610352,0.973405,0.001953,0.003418,1.020508,-9.375000,26.953125,31.347656,0.001953,0.000000,0.000000,1.000000,11.900000
1662034787.909091,1662034787.909091,1.000000,0.000217,0.000000,0.000000,0.343700,0.000000,0.001900,99472.000000,11.900000,294344.000000,0.000000,-26.480901,-0.192253,-0.507990,0.610352,1.892090,0.004699,-0.000618,0.229043,0.610352,0.973405,0.001953,0.003418,1.020508,-9.375000,26.953125,31.347656,0.001953,0.000000,0.000000,1.000000,11.900000
1662034787.919066,1662034787.919066,2.000000,0.000433,0.000000,0.000000,0.343700,0.000000,0.001900,99472.000000,12.000000,294344.000000,0.000000,-26.502073,-0.189334,-0.517943,0.610352,2.014160,0.004778,-0.000572,0.229223,0.244141,0.973362,0.004883,0.009766,1.016602,-9.375000,26.953125,31.054688,0.004883,0.000000,0.000000,2.000000,12.000000
1662034787.919066,1662034787.919066,2.000000,0.000433,0.000000,0.000000,0.343700,0.000000,0.001900,99472.000000,12.000000,294344.000000,0.000000,-26.502073,-0.189334,-0.517943,0.610352,2.014160,0.004778,-0.000572,0.229223,0.244141,0.973362,0.004883,0.009766,1.016602,-9.375000,26.953125,31.054688,0.004883,0.000000,0.000000,2.000000,12.000000
1662034787.930233,1662034787.930233,1.000000,0.000217,0.000000,0.000000,0.343700,0.000000,0.001900,99472.000000,11.900000,294344.000000,0.000000,-26.522243,-0.189748,-0.531041,0.305176,1.892090,0.004890,-0.000549,0.229394,0.244141,0.973321,0.004395,0.009277,1.018066,-9.375000,26.953125,31.054688,0.004395,0.000000,0.000000,1.000000,11.900000
1662034787.930233,1662034787.930233,1.000000,0.000217,0.000000,0.000000,0.343700,0.000000,0.001900,99472.000000,11.900000,294344.000000,0.000000,-26.522243,-0.189748,-0.531041,0.305176,1.892090,0.004890,-0.000549,0.229394,0.244141,0.973321,0.004395,0.009277,1.018066,-9.375000,26.953125,31.054688,0.004395,0.000000,0.000000,1.000000,11.900000
1662034787.939348,1662034787.939348,-1.000000,-0.000217,0.000000,0.000000,0.343700,0.000000,0.001900,99472.000000,12.000000,294344.000000,0.000000,-26.552987,-0.156764,-0.593278,0.793457,1.770020,0.005353,-0.000142,0.229654,0.305176,0.973258,0.001465,0.014160,1.014648,-9.375000,26.953125,31.054688,0.001465,0.000000,0.000000,-1.000000,12.000000
1662034787.939348,1662034787.939348,-1.000000,-0.000217,0.000000,0.000000,0.343700,0.000000,0.001900,99472.000000,12.000000,294344.000000,0.000000,-26.552987,-0.156764,-0.593278,0.793457,1.770020,0.005353,-0.000142,0.229654,0.305176,0.973258,0.001465,0.014160,1.014648,-9.375000,26.953125,31.054688,0.001465,0.000000,0.000000,-1.000000,12.000000
1662034787.949046,1662034787.949046,-1.000000,-0.000217,0.000000,0.000000,0.343700,0.000000,0.001900,99472.000000,11.900000,294344.000000,0.000000,-26.562720,-0.168240,-0.644209,0.183105,1.892090,0.005809,-0.000137,0.229737,0.366211,0.973235,0.004395,0.016602,1.013184,-9.375000,26.953125,31.054688,0.004395,0.000000,0.000000,-1.000000,11.900000
1662034787.949046,1662034787.949046,-1.000000,-0.000217,0.000000,0.000000,0.343700,0.000000,0.001900,99472.000000,11.900000,294344.000000,0.000000,-26.562720,-0.168240,-0.644209,0.183105,1.892090,0.005809,-0.000137,0.229737,0.366211,0.973235,0.004395,0.016602,1.013184,-9.375000,26.953125,31.054688,0.004395,0.000000,0.000000,-1.000000,11.900000
